(G-CODE GENERATED BY FLATCAM v8.993 - www.flatcam.org - Version Date: 2020/06/05)

(Name: copper_bottom.gbr_cutout_cnc)
(Type: G-code from Geometry)
(Units: MM)

(Created on Saturday, 10 October 2020 at 20:05)

(This preprocessor is used with a motion controller loaded with GRBL firmware.)
(It is configured to be compatible with almost any version of GRBL firmware.)

(TOOL DIAMETER: 1.0 mm)
(Feedrate_XY: 50.0 mm/min)
(Feedrate_Z: 25.0 mm/min)
(Feedrate rapids 1500.0 mm/min)

(Z_Cut: -1.8 mm)
(DepthPerCut: 0.5 mm <=>4 passes)
(Z_Move: 0.5 mm)
(Z Start: None mm)
(Z End: 0.5 mm)
(Steps per circle: 64)
(Preprocessor Geometry: grbl_11)

(X range:  -31.3344 ...   -0.6700  mm)
(Y range:    1.0780 ...   24.4600  mm)

(Spindle Speed: 1000 RPM)
G21
G90
G17
G94




G01 F50.00
G00 Z0.5000

M03 S1000
G4 P1.5
G00 X-1.2700 Y1.0780
G01 F25.00
G01 Z-0.5000
G01 F50.00
G01 X-14.4022 Y1.0780 F50.00
G00 X-14.4022 Y1.0780
G01 F25.00
G01 Z-1.0000
G01 F50.00
G01 X-1.2700 Y1.0780 F50.00
G00 X-1.2700 Y1.0780
G01 F25.00
G01 Z-1.5000
G01 F50.00
G01 X-14.4022 Y1.0780 F50.00
G00 X-14.4022 Y1.0780
G01 F25.00
G01 Z-1.8000
G01 F50.00
G01 X-1.2700 Y1.0780 F50.00
G00 Z0.5000
G00 X-1.2700 Y1.0780
G01 F25.00
G01 Z-0.5000
G01 F50.00
G01 X-1.2112 Y1.0808 F50.00
G01 X-1.1529 Y1.0895 F50.00
G01 X-1.0958 Y1.1038 F50.00
G01 X-1.0404 Y1.1236 F50.00
G01 X-0.9872 Y1.1488 F50.00
G01 X-0.9367 Y1.1791 F50.00
G01 X-0.8894 Y1.2141 F50.00
G01 X-0.8457 Y1.2537 F50.00
G01 X-0.8062 Y1.2973 F50.00
G01 X-0.7711 Y1.3446 F50.00
G01 X-0.7408 Y1.3951 F50.00
G01 X-0.7157 Y1.4483 F50.00
G01 X-0.6958 Y1.5038 F50.00
G01 X-0.6815 Y1.5609 F50.00
G01 X-0.6729 Y1.6191 F50.00
G01 X-0.6700 Y1.6780 F50.00
G01 X-0.6700 Y23.8600 F50.00
G01 X-0.6729 Y23.9188 F50.00
G01 X-0.6815 Y23.9771 F50.00
G01 X-0.6958 Y24.0342 F50.00
G01 X-0.7157 Y24.0896 F50.00
G01 X-0.7408 Y24.1428 F50.00
G01 X-0.7711 Y24.1933 F50.00
G01 X-0.8062 Y24.2406 F50.00
G01 X-0.8457 Y24.2843 F50.00
G01 X-0.8894 Y24.3238 F50.00
G01 X-0.9367 Y24.3589 F50.00
G01 X-0.9872 Y24.3892 F50.00
G01 X-1.0404 Y24.4143 F50.00
G01 X-1.0958 Y24.4342 F50.00
G01 X-1.1529 Y24.4485 F50.00
G01 X-1.2112 Y24.4571 F50.00
G01 X-1.2700 Y24.4600 F50.00
G01 X-14.4022 Y24.4600 F50.00
G00 X-14.4022 Y24.4600
G01 F25.00
G01 Z-1.0000
G01 F50.00
G01 X-1.2700 Y24.4600 F50.00
G01 X-1.2112 Y24.4571 F50.00
G01 X-1.1529 Y24.4485 F50.00
G01 X-1.0958 Y24.4342 F50.00
G01 X-1.0404 Y24.4143 F50.00
G01 X-0.9872 Y24.3892 F50.00
G01 X-0.9367 Y24.3589 F50.00
G01 X-0.8894 Y24.3238 F50.00
G01 X-0.8457 Y24.2843 F50.00
G01 X-0.8062 Y24.2406 F50.00
G01 X-0.7711 Y24.1933 F50.00
G01 X-0.7408 Y24.1428 F50.00
G01 X-0.7157 Y24.0896 F50.00
G01 X-0.6958 Y24.0342 F50.00
G01 X-0.6815 Y23.9771 F50.00
G01 X-0.6729 Y23.9188 F50.00
G01 X-0.6700 Y23.8600 F50.00
G01 X-0.6700 Y1.6780 F50.00
G01 X-0.6729 Y1.6191 F50.00
G01 X-0.6815 Y1.5609 F50.00
G01 X-0.6958 Y1.5038 F50.00
G01 X-0.7157 Y1.4483 F50.00
G01 X-0.7408 Y1.3951 F50.00
G01 X-0.7711 Y1.3446 F50.00
G01 X-0.8062 Y1.2973 F50.00
G01 X-0.8457 Y1.2537 F50.00
G01 X-0.8894 Y1.2141 F50.00
G01 X-0.9367 Y1.1791 F50.00
G01 X-0.9872 Y1.1488 F50.00
G01 X-1.0404 Y1.1236 F50.00
G01 X-1.0958 Y1.1038 F50.00
G01 X-1.1529 Y1.0895 F50.00
G01 X-1.2112 Y1.0808 F50.00
G01 X-1.2700 Y1.0780 F50.00
G00 X-1.2700 Y1.0780
G01 F25.00
G01 Z-1.5000
G01 F50.00
G01 X-1.2112 Y1.0808 F50.00
G01 X-1.1529 Y1.0895 F50.00
G01 X-1.0958 Y1.1038 F50.00
G01 X-1.0404 Y1.1236 F50.00
G01 X-0.9872 Y1.1488 F50.00
G01 X-0.9367 Y1.1791 F50.00
G01 X-0.8894 Y1.2141 F50.00
G01 X-0.8457 Y1.2537 F50.00
G01 X-0.8062 Y1.2973 F50.00
G01 X-0.7711 Y1.3446 F50.00
G01 X-0.7408 Y1.3951 F50.00
G01 X-0.7157 Y1.4483 F50.00
G01 X-0.6958 Y1.5038 F50.00
G01 X-0.6815 Y1.5609 F50.00
G01 X-0.6729 Y1.6191 F50.00
G01 X-0.6700 Y1.6780 F50.00
G01 X-0.6700 Y23.8600 F50.00
G01 X-0.6729 Y23.9188 F50.00
G01 X-0.6815 Y23.9771 F50.00
G01 X-0.6958 Y24.0342 F50.00
G01 X-0.7157 Y24.0896 F50.00
G01 X-0.7408 Y24.1428 F50.00
G01 X-0.7711 Y24.1933 F50.00
G01 X-0.8062 Y24.2406 F50.00
G01 X-0.8457 Y24.2843 F50.00
G01 X-0.8894 Y24.3238 F50.00
G01 X-0.9367 Y24.3589 F50.00
G01 X-0.9872 Y24.3892 F50.00
G01 X-1.0404 Y24.4143 F50.00
G01 X-1.0958 Y24.4342 F50.00
G01 X-1.1529 Y24.4485 F50.00
G01 X-1.2112 Y24.4571 F50.00
G01 X-1.2700 Y24.4600 F50.00
G01 X-14.4022 Y24.4600 F50.00
G00 X-14.4022 Y24.4600
G01 F25.00
G01 Z-1.8000
G01 F50.00
G01 X-1.2700 Y24.4600 F50.00
G01 X-1.2112 Y24.4571 F50.00
G01 X-1.1529 Y24.4485 F50.00
G01 X-1.0958 Y24.4342 F50.00
G01 X-1.0404 Y24.4143 F50.00
G01 X-0.9872 Y24.3892 F50.00
G01 X-0.9367 Y24.3589 F50.00
G01 X-0.8894 Y24.3238 F50.00
G01 X-0.8457 Y24.2843 F50.00
G01 X-0.8062 Y24.2406 F50.00
G01 X-0.7711 Y24.1933 F50.00
G01 X-0.7408 Y24.1428 F50.00
G01 X-0.7157 Y24.0896 F50.00
G01 X-0.6958 Y24.0342 F50.00
G01 X-0.6815 Y23.9771 F50.00
G01 X-0.6729 Y23.9188 F50.00
G01 X-0.6700 Y23.8600 F50.00
G01 X-0.6700 Y1.6780 F50.00
G01 X-0.6729 Y1.6191 F50.00
G01 X-0.6815 Y1.5609 F50.00
G01 X-0.6958 Y1.5038 F50.00
G01 X-0.7157 Y1.4483 F50.00
G01 X-0.7408 Y1.3951 F50.00
G01 X-0.7711 Y1.3446 F50.00
G01 X-0.8062 Y1.2973 F50.00
G01 X-0.8457 Y1.2537 F50.00
G01 X-0.8894 Y1.2141 F50.00
G01 X-0.9367 Y1.1791 F50.00
G01 X-0.9872 Y1.1488 F50.00
G01 X-1.0404 Y1.1236 F50.00
G01 X-1.0958 Y1.1038 F50.00
G01 X-1.1529 Y1.0895 F50.00
G01 X-1.2112 Y1.0808 F50.00
G01 X-1.2700 Y1.0780 F50.00
G00 Z0.5000
G00 X-17.4022 Y1.0780
G01 F25.00
G01 Z-0.5000
G01 F50.00
G01 X-30.7344 Y1.0780 F50.00
G01 X-30.7932 Y1.0808 F50.00
G01 X-30.8514 Y1.0895 F50.00
G01 X-30.9086 Y1.1038 F50.00
G01 X-30.9640 Y1.1236 F50.00
G01 X-31.0172 Y1.1488 F50.00
G01 X-31.0677 Y1.1791 F50.00
G01 X-31.1150 Y1.2141 F50.00
G01 X-31.1586 Y1.2537 F50.00
G01 X-31.1982 Y1.2973 F50.00
G01 X-31.2333 Y1.3446 F50.00
G01 X-31.2635 Y1.3951 F50.00
G01 X-31.2887 Y1.4483 F50.00
G01 X-31.3085 Y1.5038 F50.00
G01 X-31.3229 Y1.5609 F50.00
G01 X-31.3315 Y1.6191 F50.00
G01 X-31.3344 Y1.6780 F50.00
G01 X-31.3344 Y23.8600 F50.00
G01 X-31.3315 Y23.9188 F50.00
G01 X-31.3229 Y23.9771 F50.00
G01 X-31.3085 Y24.0342 F50.00
G01 X-31.2887 Y24.0896 F50.00
G01 X-31.2635 Y24.1428 F50.00
G01 X-31.2333 Y24.1933 F50.00
G01 X-31.1982 Y24.2406 F50.00
G01 X-31.1586 Y24.2843 F50.00
G01 X-31.1150 Y24.3238 F50.00
G01 X-31.0677 Y24.3589 F50.00
G01 X-31.0172 Y24.3892 F50.00
G01 X-30.9640 Y24.4143 F50.00
G01 X-30.9086 Y24.4342 F50.00
G01 X-30.8514 Y24.4485 F50.00
G01 X-30.7932 Y24.4571 F50.00
G01 X-30.7344 Y24.4600 F50.00
G01 X-17.4022 Y24.4600 F50.00
G00 X-17.4022 Y24.4600
G01 F25.00
G01 Z-1.0000
G01 F50.00
G01 X-30.7344 Y24.4600 F50.00
G01 X-30.7932 Y24.4571 F50.00
G01 X-30.8514 Y24.4485 F50.00
G01 X-30.9086 Y24.4342 F50.00
G01 X-30.9640 Y24.4143 F50.00
G01 X-31.0172 Y24.3892 F50.00
G01 X-31.0677 Y24.3589 F50.00
G01 X-31.1150 Y24.3238 F50.00
G01 X-31.1586 Y24.2843 F50.00
G01 X-31.1982 Y24.2406 F50.00
G01 X-31.2333 Y24.1933 F50.00
G01 X-31.2635 Y24.1428 F50.00
G01 X-31.2887 Y24.0896 F50.00
G01 X-31.3085 Y24.0342 F50.00
G01 X-31.3229 Y23.9771 F50.00
G01 X-31.3315 Y23.9188 F50.00
G01 X-31.3344 Y23.8600 F50.00
G01 X-31.3344 Y1.6780 F50.00
G01 X-31.3315 Y1.6191 F50.00
G01 X-31.3229 Y1.5609 F50.00
G01 X-31.3085 Y1.5038 F50.00
G01 X-31.2887 Y1.4483 F50.00
G01 X-31.2635 Y1.3951 F50.00
G01 X-31.2333 Y1.3446 F50.00
G01 X-31.1982 Y1.2973 F50.00
G01 X-31.1586 Y1.2537 F50.00
G01 X-31.1150 Y1.2141 F50.00
G01 X-31.0677 Y1.1791 F50.00
G01 X-31.0172 Y1.1488 F50.00
G01 X-30.9640 Y1.1236 F50.00
G01 X-30.9086 Y1.1038 F50.00
G01 X-30.8514 Y1.0895 F50.00
G01 X-30.7932 Y1.0808 F50.00
G01 X-30.7344 Y1.0780 F50.00
G01 X-17.4022 Y1.0780 F50.00
G00 X-17.4022 Y1.0780
G01 F25.00
G01 Z-1.5000
G01 F50.00
G01 X-30.7344 Y1.0780 F50.00
G01 X-30.7932 Y1.0808 F50.00
G01 X-30.8514 Y1.0895 F50.00
G01 X-30.9086 Y1.1038 F50.00
G01 X-30.9640 Y1.1236 F50.00
G01 X-31.0172 Y1.1488 F50.00
G01 X-31.0677 Y1.1791 F50.00
G01 X-31.1150 Y1.2141 F50.00
G01 X-31.1586 Y1.2537 F50.00
G01 X-31.1982 Y1.2973 F50.00
G01 X-31.2333 Y1.3446 F50.00
G01 X-31.2635 Y1.3951 F50.00
G01 X-31.2887 Y1.4483 F50.00
G01 X-31.3085 Y1.5038 F50.00
G01 X-31.3229 Y1.5609 F50.00
G01 X-31.3315 Y1.6191 F50.00
G01 X-31.3344 Y1.6780 F50.00
G01 X-31.3344 Y23.8600 F50.00
G01 X-31.3315 Y23.9188 F50.00
G01 X-31.3229 Y23.9771 F50.00
G01 X-31.3085 Y24.0342 F50.00
G01 X-31.2887 Y24.0896 F50.00
G01 X-31.2635 Y24.1428 F50.00
G01 X-31.2333 Y24.1933 F50.00
G01 X-31.1982 Y24.2406 F50.00
G01 X-31.1586 Y24.2843 F50.00
G01 X-31.1150 Y24.3238 F50.00
G01 X-31.0677 Y24.3589 F50.00
G01 X-31.0172 Y24.3892 F50.00
G01 X-30.9640 Y24.4143 F50.00
G01 X-30.9086 Y24.4342 F50.00
G01 X-30.8514 Y24.4485 F50.00
G01 X-30.7932 Y24.4571 F50.00
G01 X-30.7344 Y24.4600 F50.00
G01 X-17.4022 Y24.4600 F50.00
G00 X-17.4022 Y24.4600
G01 F25.00
G01 Z-1.8000
G01 F50.00
G01 X-30.7344 Y24.4600 F50.00
G01 X-30.7932 Y24.4571 F50.00
G01 X-30.8514 Y24.4485 F50.00
G01 X-30.9086 Y24.4342 F50.00
G01 X-30.9640 Y24.4143 F50.00
G01 X-31.0172 Y24.3892 F50.00
G01 X-31.0677 Y24.3589 F50.00
G01 X-31.1150 Y24.3238 F50.00
G01 X-31.1586 Y24.2843 F50.00
G01 X-31.1982 Y24.2406 F50.00
G01 X-31.2333 Y24.1933 F50.00
G01 X-31.2635 Y24.1428 F50.00
G01 X-31.2887 Y24.0896 F50.00
G01 X-31.3085 Y24.0342 F50.00
G01 X-31.3229 Y23.9771 F50.00
G01 X-31.3315 Y23.9188 F50.00
G01 X-31.3344 Y23.8600 F50.00
G01 X-31.3344 Y1.6780 F50.00
G01 X-31.3315 Y1.6191 F50.00
G01 X-31.3229 Y1.5609 F50.00
G01 X-31.3085 Y1.5038 F50.00
G01 X-31.2887 Y1.4483 F50.00
G01 X-31.2635 Y1.3951 F50.00
G01 X-31.2333 Y1.3446 F50.00
G01 X-31.1982 Y1.2973 F50.00
G01 X-31.1586 Y1.2537 F50.00
G01 X-31.1150 Y1.2141 F50.00
G01 X-31.0677 Y1.1791 F50.00
G01 X-31.0172 Y1.1488 F50.00
G01 X-30.9640 Y1.1236 F50.00
G01 X-30.9086 Y1.1038 F50.00
G01 X-30.8514 Y1.0895 F50.00
G01 X-30.7932 Y1.0808 F50.00
G01 X-30.7344 Y1.0780 F50.00
G01 X-17.4022 Y1.0780 F50.00
G00 Z0.5000
M05
G00 Z0.5000
G00 Z0.50

