(G-CODE GENERATED BY FLATCAM v8.993 - www.flatcam.org - Version Date: 2020/06/05)

(Name: copper_bottom.gbr_0.2000_iso2_cnc)
(Type: G-code from Geometry)
(Units: MM)

(Created on Saturday, 10 October 2020 at 20:01)

(This preprocessor is used with a motion controller loaded with GRBL firmware.)
(It is configured to be compatible with almost any version of GRBL firmware.)

(TOOL DIAMETER: 0.2 mm)
(Feedrate_XY: 60.0 mm/min)
(Feedrate_Z: 25.0 mm/min)
(Feedrate rapids 1500.0 mm/min)

(Z_Cut: -0.05 mm)
(Z_Move: 0.5 mm)
(Z Start: None mm)
(Z End: 0.5 mm)
(Steps per circle: 64)
(Preprocessor Geometry: grbl_11)

(X range:  -30.9944 ...   -1.0100  mm)
(Y range:    1.4180 ...   24.1200  mm)

(Spindle Speed: 1000 RPM)
G21
G90
G17
G94




G01 F60.00
G00 Z0.5000

M03 S1000
G4 P1.5
G00 X-6.0069 Y8.7750
G01 F25.00
G01 Z-0.0500
G01 F60.00
G01 X-5.0005 Y8.7751 F60.00
G01 X-4.9878 Y8.7757 F60.00
G01 X-4.9719 Y8.7774 F60.00
G01 X-4.9593 Y8.7794 F60.00
G01 X-4.9468 Y8.7820 F60.00
G01 X-4.9345 Y8.7853 F60.00
G01 X-4.9223 Y8.7891 F60.00
G01 X-4.9104 Y8.7936 F60.00
G01 X-4.8958 Y8.8000 F60.00
G01 X-4.8641 Y8.8000 F60.00
G01 X-4.0700 Y8.0058 F60.00
G01 X-4.0700 Y6.9850 F60.00
G01 X-4.0693 Y6.9659 F60.00
G01 X-4.0676 Y6.9500 F60.00
G01 X-4.0650 Y6.9343 F60.00
G01 X-4.0606 Y6.9157 F60.00
G01 X-4.0548 Y6.8974 F60.00
G01 X-4.0490 Y6.8826 F60.00
G01 X-4.0408 Y6.8653 F60.00
G01 X-4.0330 Y6.8513 F60.00
G01 X-4.0226 Y6.8353 F60.00
G01 X-4.0130 Y6.8225 F60.00
G01 X-4.0026 Y6.8104 F60.00
G01 X-3.9893 Y6.7967 F60.00
G01 X-3.9774 Y6.7861 F60.00
G01 X-3.9623 Y6.7743 F60.00
G01 X-3.9464 Y6.7636 F60.00
G01 X-3.9326 Y6.7557 F60.00
G01 X-3.9183 Y6.7486 F60.00
G01 X-3.9006 Y6.7413 F60.00
G01 X-3.8885 Y6.7371 F60.00
G01 X-3.8763 Y6.7336 F60.00
G01 X-3.8544 Y6.7288 F60.00
G01 X-3.8323 Y6.7260 F60.00
G01 X-3.8100 Y6.7250 F60.00
G01 X-1.2700 Y6.7250 F60.00
G01 X-1.2572 Y6.7253 F60.00
G01 X-1.2382 Y6.7270 F60.00
G01 X-1.2193 Y6.7300 F60.00
G01 X-1.2037 Y6.7336 F60.00
G01 X-1.1854 Y6.7391 F60.00
G01 X-1.1676 Y6.7460 F60.00
G01 X-1.1503 Y6.7542 F60.00
G01 X-1.1336 Y6.7636 F60.00
G01 X-1.1177 Y6.7743 F60.00
G01 X-1.1026 Y6.7861 F60.00
G01 X-1.0884 Y6.7989 F60.00
G01 X-1.0752 Y6.8128 F60.00
G01 X-1.0631 Y6.8276 F60.00
G01 X-1.0521 Y6.8432 F60.00
G01 X-1.0422 Y6.8596 F60.00
G01 X-1.0336 Y6.8767 F60.00
G01 X-1.0263 Y6.8944 F60.00
G01 X-1.0194 Y6.9157 F60.00
G01 X-1.0144 Y6.9374 F60.00
G01 X-1.0113 Y6.9595 F60.00
G01 X-1.0100 Y6.9818 F60.00
G01 X-1.0100 Y8.2550 F60.00
G01 X-1.0105 Y8.2709 F60.00
G01 X-1.0116 Y8.2837 F60.00
G01 X-1.0138 Y8.2994 F60.00
G01 X-1.0170 Y8.3151 F60.00
G01 X-1.0203 Y8.3274 F60.00
G01 X-1.0241 Y8.3396 F60.00
G01 X-1.0298 Y8.3545 F60.00
G01 X-1.0363 Y8.3690 F60.00
G01 X-1.0422 Y8.3804 F60.00
G01 X-1.0486 Y8.3914 F60.00
G01 X-1.0574 Y8.4047 F60.00
G01 X-1.0670 Y8.4175 F60.00
G01 X-1.0752 Y8.4272 F60.00
G01 X-1.0862 Y8.4388 F60.00
G01 X-1.0954 Y8.4476 F60.00
G01 X-1.1051 Y8.4560 F60.00
G01 X-1.1177 Y8.4657 F60.00
G01 X-1.1363 Y8.4780 F60.00
G01 X-1.1531 Y8.4872 F60.00
G01 X-1.1705 Y8.4952 F60.00
G01 X-1.1884 Y8.5019 F60.00
G01 X-1.2068 Y8.5072 F60.00
G01 X-1.2256 Y8.5112 F60.00
G01 X-1.2445 Y8.5137 F60.00
G01 X-1.2636 Y8.5149 F60.00
G01 X-3.5608 Y8.5150 F60.00
G01 X-4.3378 Y9.2920 F60.00
G01 X-3.9257 Y9.2922 F60.00
G01 X-3.9124 Y9.2860 F60.00
G01 X-3.8976 Y9.2802 F60.00
G01 X-3.8824 Y9.2753 F60.00
G01 X-3.8701 Y9.2720 F60.00
G01 X-3.8544 Y9.2688 F60.00
G01 X-3.8418 Y9.2670 F60.00
G01 X-3.8291 Y9.2657 F60.00
G01 X-3.8132 Y9.2650 F60.00
G01 X-1.2700 Y9.2650 F60.00
G01 X-1.2541 Y9.2655 F60.00
G01 X-1.2382 Y9.2670 F60.00
G01 X-1.2224 Y9.2694 F60.00
G01 X-1.2068 Y9.2728 F60.00
G01 X-1.1915 Y9.2771 F60.00
G01 X-1.1764 Y9.2824 F60.00
G01 X-1.1617 Y9.2886 F60.00
G01 X-1.1474 Y9.2957 F60.00
G01 X-1.1336 Y9.3036 F60.00
G01 X-1.1177 Y9.3143 F60.00
G01 X-1.1051 Y9.3240 F60.00
G01 X-1.0930 Y9.3345 F60.00
G01 X-1.0795 Y9.3480 F60.00
G01 X-1.0690 Y9.3601 F60.00
G01 X-1.0593 Y9.3727 F60.00
G01 X-1.0486 Y9.3886 F60.00
G01 X-1.0392 Y9.4053 F60.00
G01 X-1.0323 Y9.4196 F60.00
G01 X-1.0263 Y9.4344 F60.00
G01 X-1.0203 Y9.4526 F60.00
G01 X-1.0156 Y9.4712 F60.00
G01 X-1.0128 Y9.4869 F60.00
G01 X-1.0110 Y9.5027 F60.00
G01 X-1.0100 Y9.5218 F60.00
G01 X-1.0100 Y10.7950 F60.00
G01 X-1.0107 Y10.8141 F60.00
G01 X-1.0124 Y10.8300 F60.00
G01 X-1.0144 Y10.8426 F60.00
G01 X-1.0170 Y10.8551 F60.00
G01 X-1.0212 Y10.8705 F60.00
G01 X-1.0263 Y10.8856 F60.00
G01 X-1.0310 Y10.8974 F60.00
G01 X-1.0378 Y10.9119 F60.00
G01 X-1.0454 Y10.9259 F60.00
G01 X-1.0538 Y10.9394 F60.00
G01 X-1.0612 Y10.9499 F60.00
G01 X-1.0711 Y10.9624 F60.00
G01 X-1.0817 Y10.9743 F60.00
G01 X-1.0930 Y10.9855 F60.00
G01 X-1.1026 Y10.9939 F60.00
G01 X-1.1151 Y11.0038 F60.00
G01 X-1.1256 Y11.0112 F60.00
G01 X-1.1418 Y11.0212 F60.00
G01 X-1.1560 Y11.0287 F60.00
G01 X-1.1735 Y11.0364 F60.00
G01 X-1.1915 Y11.0429 F60.00
G01 X-1.2099 Y11.0480 F60.00
G01 X-1.2287 Y11.0517 F60.00
G01 X-1.2477 Y11.0540 F60.00
G01 X-1.2668 Y11.0550 F60.00
G01 X-3.8100 Y11.0550 F60.00
G01 X-3.8291 Y11.0543 F60.00
G01 X-3.8450 Y11.0526 F60.00
G01 X-3.8607 Y11.0500 F60.00
G01 X-3.8793 Y11.0456 F60.00
G01 X-3.8946 Y11.0409 F60.00
G01 X-3.9124 Y11.0340 F60.00
G01 X-3.9297 Y11.0258 F60.00
G01 X-3.9464 Y11.0164 F60.00
G01 X-3.9623 Y11.0057 F60.00
G01 X-3.9749 Y10.9960 F60.00
G01 X-3.9893 Y10.9833 F60.00
G01 X-4.0026 Y10.9696 F60.00
G01 X-4.0130 Y10.9575 F60.00
G01 X-4.0244 Y10.9421 F60.00
G01 X-4.0346 Y10.9259 F60.00
G01 X-4.0437 Y10.9090 F60.00
G01 X-4.0502 Y10.8945 F60.00
G01 X-4.0569 Y10.8766 F60.00
G01 X-4.0622 Y10.8582 F60.00
G01 X-4.0656 Y10.8426 F60.00
G01 X-4.0676 Y10.8300 F60.00
G01 X-4.0690 Y10.8173 F60.00
G01 X-4.0700 Y10.7950 F60.00
G01 X-4.0700 Y10.0282 F60.00
G01 X-4.0861 Y10.0120 F60.00
G01 X-4.7479 Y10.0120 F60.00
G01 X-4.7472 Y10.0222 F60.00
G01 X-4.7469 Y10.0350 F60.00
G01 X-4.7469 Y10.2850 F60.00
G01 X-4.7476 Y10.3041 F60.00
G01 X-4.7489 Y10.3168 F60.00
G01 X-4.7513 Y10.3326 F60.00
G01 X-4.7539 Y10.3451 F60.00
G01 X-4.7572 Y10.3574 F60.00
G01 X-4.7610 Y10.3696 F60.00
G01 X-4.7667 Y10.3845 F60.00
G01 X-4.7719 Y10.3962 F60.00
G01 X-4.7789 Y10.4100 F60.00
G01 X-4.7719 Y10.4238 F60.00
G01 X-4.7667 Y10.4355 F60.00
G01 X-4.7621 Y10.4474 F60.00
G01 X-4.7581 Y10.4595 F60.00
G01 X-4.7547 Y10.4718 F60.00
G01 X-4.7513 Y10.4874 F60.00
G01 X-4.7493 Y10.5000 F60.00
G01 X-4.7479 Y10.5127 F60.00
G01 X-4.7469 Y10.5350 F60.00
G01 X-4.7471 Y10.7946 F60.00
G01 X-4.7479 Y10.8073 F60.00
G01 X-4.7497 Y10.8231 F60.00
G01 X-4.7525 Y10.8388 F60.00
G01 X-4.7563 Y10.8543 F60.00
G01 X-4.7610 Y10.8696 F60.00
G01 X-4.7655 Y10.8815 F60.00
G01 X-4.7719 Y10.8962 F60.00
G01 X-4.7789 Y10.9100 F60.00
G01 X-4.7719 Y10.9238 F60.00
G01 X-4.7667 Y10.9355 F60.00
G01 X-4.7621 Y10.9474 F60.00
G01 X-4.7581 Y10.9595 F60.00
G01 X-4.7547 Y10.9718 F60.00
G01 X-4.7513 Y10.9874 F60.00
G01 X-4.7493 Y11.0000 F60.00
G01 X-4.7479 Y11.0127 F60.00
G01 X-4.7469 Y11.0350 F60.00
G01 X-4.7471 Y11.2946 F60.00
G01 X-4.7489 Y11.3168 F60.00
G01 X-4.7519 Y11.3357 F60.00
G01 X-4.7572 Y11.3574 F60.00
G01 X-4.7643 Y11.3786 F60.00
G01 X-4.7732 Y11.3990 F60.00
G01 X-4.7823 Y11.4159 F60.00
G01 X-4.7943 Y11.4347 F60.00
G01 X-4.8080 Y11.4524 F60.00
G01 X-4.8164 Y11.4620 F60.00
G01 X-4.8253 Y11.4711 F60.00
G01 X-4.8347 Y11.4798 F60.00
G01 X-4.8444 Y11.4880 F60.00
G01 X-4.8546 Y11.4957 F60.00
G01 X-4.8651 Y11.5029 F60.00
G01 X-4.8760 Y11.5096 F60.00
G01 X-4.8872 Y11.5158 F60.00
G01 X-4.8986 Y11.5214 F60.00
G01 X-4.9104 Y11.5264 F60.00
G01 X-4.9253 Y11.5319 F60.00
G01 X-4.9376 Y11.5356 F60.00
G01 X-4.9499 Y11.5387 F60.00
G01 X-4.9625 Y11.5412 F60.00
G01 X-4.9751 Y11.5430 F60.00
G01 X-4.9878 Y11.5443 F60.00
G01 X-5.0069 Y11.5450 F60.00
G01 X-6.0069 Y11.5450 F60.00
G01 X-6.0292 Y11.5440 F60.00
G01 X-6.0482 Y11.5417 F60.00
G01 X-6.0701 Y11.5372 F60.00
G01 X-6.0885 Y11.5319 F60.00
G01 X-6.1064 Y11.5252 F60.00
G01 X-6.1238 Y11.5172 F60.00
G01 X-6.1433 Y11.5064 F60.00
G01 X-6.1618 Y11.4938 F60.00
G01 X-6.1767 Y11.4819 F60.00
G01 X-6.1930 Y11.4666 F60.00
G01 X-6.2058 Y11.4524 F60.00
G01 X-6.2195 Y11.4347 F60.00
G01 X-6.2299 Y11.4187 F60.00
G01 X-6.2391 Y11.4019 F60.00
G01 X-6.2471 Y11.3845 F60.00
G01 X-6.2538 Y11.3666 F60.00
G01 X-6.2599 Y11.3451 F60.00
G01 X-6.2625 Y11.3326 F60.00
G01 X-6.2645 Y11.3200 F60.00
G01 X-6.2662 Y11.3041 F60.00
G01 X-6.2668 Y11.2914 F60.00
G01 X-6.2669 Y11.0350 F60.00
G01 X-6.2664 Y11.0191 F60.00
G01 X-6.2649 Y11.0032 F60.00
G01 X-6.2631 Y10.9906 F60.00
G01 X-6.2599 Y10.9749 F60.00
G01 X-6.2566 Y10.9626 F60.00
G01 X-6.2528 Y10.9504 F60.00
G01 X-6.2471 Y10.9355 F60.00
G01 X-6.2419 Y10.9238 F60.00
G01 X-6.2349 Y10.9100 F60.00
G01 X-6.2419 Y10.8962 F60.00
G01 X-6.2471 Y10.8845 F60.00
G01 X-6.2517 Y10.8726 F60.00
G01 X-6.2557 Y10.8605 F60.00
G01 X-6.2591 Y10.8482 F60.00
G01 X-6.2619 Y10.8357 F60.00
G01 X-6.2641 Y10.8231 F60.00
G01 X-6.2659 Y10.8073 F60.00
G01 X-6.2669 Y10.7850 F60.00
G01 X-6.2669 Y10.5350 F60.00
G01 X-6.2665 Y10.5200 F60.00
G01 X-6.4980 Y10.5200 F60.00
G01 X-6.4980 Y11.6940 F60.00
G01 X-5.2398 Y11.6940 F60.00
G01 X-5.2271 Y11.6945 F60.00
G01 X-5.2143 Y11.6956 F60.00
G01 X-5.2017 Y11.6973 F60.00
G01 X-5.1892 Y11.6996 F60.00
G01 X-5.1767 Y11.7026 F60.00
G01 X-5.1645 Y11.7061 F60.00
G01 X-5.1524 Y11.7103 F60.00
G01 X-5.1406 Y11.7150 F60.00
G01 X-5.1261 Y11.7218 F60.00
G01 X-5.1148 Y11.7278 F60.00
G01 X-5.1012 Y11.7361 F60.00
G01 X-5.0907 Y11.7433 F60.00
G01 X-5.0781 Y11.7530 F60.00
G01 X-5.0660 Y11.7635 F60.00
G01 X-5.0569 Y11.7724 F60.00
G01 X-5.0461 Y11.7842 F60.00
G01 X-5.0361 Y11.7966 F60.00
G01 X-5.0286 Y11.8069 F60.00
G01 X-5.0200 Y11.8203 F60.00
G01 X-5.0122 Y11.8343 F60.00
G01 X-5.0053 Y11.8486 F60.00
G01 X-4.9993 Y11.8634 F60.00
G01 X-4.9951 Y11.8755 F60.00
G01 X-4.9908 Y11.8908 F60.00
G01 X-4.9880 Y11.9033 F60.00
G01 X-4.9854 Y11.9190 F60.00
G01 X-4.9837 Y11.9349 F60.00
G01 X-4.9830 Y11.9508 F60.00
G01 X-4.9830 Y12.3400 F60.00
G01 X-4.0700 Y12.3399 F60.00
G01 X-4.0700 Y12.0650 F60.00
G01 X-4.0695 Y12.0491 F60.00
G01 X-4.0672 Y12.0269 F60.00
G01 X-4.0650 Y12.0143 F60.00
G01 X-4.0622 Y12.0018 F60.00
G01 X-4.0559 Y11.9804 F60.00
G01 X-4.0477 Y11.9596 F60.00
G01 X-4.0393 Y11.9424 F60.00
G01 X-4.0314 Y11.9286 F60.00
G01 X-4.0226 Y11.9153 F60.00
G01 X-4.0110 Y11.9001 F60.00
G01 X-3.9983 Y11.8857 F60.00
G01 X-3.9870 Y11.8745 F60.00
G01 X-3.9749 Y11.8640 F60.00
G01 X-3.9597 Y11.8524 F60.00
G01 X-3.9437 Y11.8420 F60.00
G01 X-3.9297 Y11.8342 F60.00
G01 X-3.9124 Y11.8260 F60.00
G01 X-3.8976 Y11.8202 F60.00
G01 X-3.8824 Y11.8153 F60.00
G01 X-3.8670 Y11.8113 F60.00
G01 X-3.8513 Y11.8083 F60.00
G01 X-3.8323 Y11.8060 F60.00
G01 X-3.8100 Y11.8050 F60.00
G01 X-1.2700 Y11.8050 F60.00
G01 X-1.2509 Y11.8057 F60.00
G01 X-1.2287 Y11.8083 F60.00
G01 X-1.2099 Y11.8120 F60.00
G01 X-1.1915 Y11.8171 F60.00
G01 X-1.1705 Y11.8248 F60.00
G01 X-1.1531 Y11.8328 F60.00
G01 X-1.1336 Y11.8436 F60.00
G01 X-1.1177 Y11.8543 F60.00
G01 X-1.1002 Y11.8681 F60.00
G01 X-1.0862 Y11.8812 F60.00
G01 X-1.0711 Y11.8976 F60.00
G01 X-1.0574 Y11.9153 F60.00
G01 X-1.0470 Y11.9313 F60.00
G01 X-1.0363 Y11.9510 F60.00
G01 X-1.0286 Y11.9685 F60.00
G01 X-1.0221 Y11.9865 F60.00
G01 X-1.0163 Y12.0080 F60.00
G01 X-1.0138 Y12.0206 F60.00
G01 X-1.0116 Y12.0363 F60.00
G01 X-1.0105 Y12.0491 F60.00
G01 X-1.0100 Y12.0650 F60.00
G01 X-1.0100 Y13.3350 F60.00
G01 X-1.0105 Y13.3509 F60.00
G01 X-1.0120 Y13.3668 F60.00
G01 X-1.0150 Y13.3857 F60.00
G01 X-1.0194 Y13.4043 F60.00
G01 X-1.0252 Y13.4226 F60.00
G01 X-1.0323 Y13.4404 F60.00
G01 X-1.0407 Y13.4576 F60.00
G01 X-1.0503 Y13.4741 F60.00
G01 X-1.0612 Y13.4899 F60.00
G01 X-1.0731 Y13.5048 F60.00
G01 X-1.0862 Y13.5188 F60.00
G01 X-1.1002 Y13.5319 F60.00
G01 X-1.1151 Y13.5438 F60.00
G01 X-1.1309 Y13.5547 F60.00
G01 X-1.1474 Y13.5643 F60.00
G01 X-1.1676 Y13.5740 F60.00
G01 X-1.1854 Y13.5809 F60.00
G01 X-1.2037 Y13.5864 F60.00
G01 X-1.2193 Y13.5900 F60.00
G01 X-1.2350 Y13.5926 F60.00
G01 X-1.2541 Y13.5945 F60.00
G01 X-1.2700 Y13.5950 F60.00
G01 X-3.8100 Y13.5950 F60.00
G01 X-3.8291 Y13.5943 F60.00
G01 X-3.8450 Y13.5926 F60.00
G01 X-3.8638 Y13.5894 F60.00
G01 X-3.8793 Y13.5856 F60.00
G01 X-3.8946 Y13.5809 F60.00
G01 X-3.9095 Y13.5752 F60.00
G01 X-3.9240 Y13.5687 F60.00
G01 X-3.9382 Y13.5612 F60.00
G01 X-3.9518 Y13.5529 F60.00
G01 X-3.9674 Y13.5419 F60.00
G01 X-3.9822 Y13.5298 F60.00
G01 X-3.9938 Y13.5188 F60.00
G01 X-4.0048 Y13.5072 F60.00
G01 X-4.0150 Y13.4950 F60.00
G01 X-4.0244 Y13.4821 F60.00
G01 X-4.0330 Y13.4687 F60.00
G01 X-4.0422 Y13.4519 F60.00
G01 X-4.0490 Y13.4374 F60.00
G01 X-4.0569 Y13.4166 F60.00
G01 X-4.0630 Y13.3951 F60.00
G01 X-4.0672 Y13.3731 F60.00
G01 X-4.0695 Y13.3509 F60.00
G01 X-4.0700 Y13.3350 F60.00
G01 X-4.0700 Y13.0600 F60.00
G01 X-4.9830 Y13.0601 F60.00
G01 X-4.9830 Y13.9540 F60.00
G01 X-4.9835 Y13.9699 F60.00
G01 X-4.9858 Y13.9921 F60.00
G01 X-4.9893 Y14.0110 F60.00
G01 X-4.9951 Y14.0325 F60.00
G01 X-5.0016 Y14.0505 F60.00
G01 X-5.0093 Y14.0680 F60.00
G01 X-5.0200 Y14.0877 F60.00
G01 X-5.0323 Y14.1063 F60.00
G01 X-5.0461 Y14.1238 F60.00
G01 X-5.0547 Y14.1333 F60.00
G01 X-5.0637 Y14.1423 F60.00
G01 X-5.0805 Y14.1570 F60.00
G01 X-5.0907 Y14.1647 F60.00
G01 X-5.1012 Y14.1719 F60.00
G01 X-5.1121 Y14.1786 F60.00
G01 X-5.1233 Y14.1848 F60.00
G01 X-5.1435 Y14.1942 F60.00
G01 X-5.1554 Y14.1988 F60.00
G01 X-5.1675 Y14.2028 F60.00
G01 X-5.1798 Y14.2062 F60.00
G01 X-5.1923 Y14.2090 F60.00
G01 X-5.2049 Y14.2112 F60.00
G01 X-5.2175 Y14.2127 F60.00
G01 X-5.2302 Y14.2137 F60.00
G01 X-5.2430 Y14.2140 F60.00
G01 X-5.9900 Y14.2140 F60.00
G01 X-5.9899 Y16.8744 F60.00
G01 X-5.9770 Y16.8794 F60.00
G01 X-5.9653 Y16.8846 F60.00
G01 X-5.9539 Y16.8903 F60.00
G01 X-5.9401 Y16.8982 F60.00
G01 X-5.9294 Y16.9052 F60.00
G01 X-5.9165 Y16.9146 F60.00
G01 X-5.9066 Y16.9227 F60.00
G01 X-5.8949 Y16.9335 F60.00
G01 X-5.5013 Y17.3272 F60.00
G01 X-5.4866 Y17.3440 F60.00
G01 X-5.4789 Y17.3541 F60.00
G01 X-5.4717 Y17.3647 F60.00
G01 X-5.4603 Y17.3839 F60.00
G01 X-5.4546 Y17.3953 F60.00
G01 X-5.4494 Y17.4070 F60.00
G01 X-5.4448 Y17.4189 F60.00
G01 X-5.4408 Y17.4310 F60.00
G01 X-5.4352 Y17.4526 F60.00
G01 X-5.4329 Y17.4652 F60.00
G01 X-5.4312 Y17.4778 F60.00
G01 X-5.4297 Y17.5001 F60.00
G01 X-5.4296 Y18.0535 F60.00
G01 X-5.4301 Y18.0695 F60.00
G01 X-5.4312 Y18.0822 F60.00
G01 X-5.4329 Y18.0948 F60.00
G01 X-5.4352 Y18.1074 F60.00
G01 X-5.4390 Y18.1229 F60.00
G01 X-5.4427 Y18.1351 F60.00
G01 X-5.4470 Y18.1471 F60.00
G01 X-5.4519 Y18.1589 F60.00
G01 X-5.4574 Y18.1704 F60.00
G01 X-5.4634 Y18.1817 F60.00
G01 X-5.4752 Y18.2006 F60.00
G01 X-5.4827 Y18.2110 F60.00
G01 X-5.4907 Y18.2209 F60.00
G01 X-5.5058 Y18.2374 F60.00
G01 X-5.8972 Y18.6287 F60.00
G01 X-5.9140 Y18.6434 F60.00
G01 X-5.9294 Y18.6548 F60.00
G01 X-5.9483 Y18.6666 F60.00
G01 X-5.9682 Y18.6768 F60.00
G01 X-5.9799 Y18.6818 F60.00
G01 X-5.9919 Y18.6863 F60.00
G01 X-6.0040 Y18.6901 F60.00
G01 X-6.0164 Y18.6934 F60.00
G01 X-6.0289 Y18.6960 F60.00
G01 X-6.0415 Y18.6980 F60.00
G01 X-6.0541 Y18.6994 F60.00
G01 X-6.0669 Y18.7002 F60.00
G01 X-6.6267 Y18.7004 F60.00
G01 X-6.6490 Y18.6991 F60.00
G01 X-6.6617 Y18.6976 F60.00
G01 X-6.6743 Y18.6954 F60.00
G01 X-6.6867 Y18.6926 F60.00
G01 X-6.6990 Y18.6892 F60.00
G01 X-6.7201 Y18.6818 F60.00
G01 X-6.7404 Y18.6726 F60.00
G01 X-6.7599 Y18.6618 F60.00
G01 X-6.7784 Y18.6492 F60.00
G01 X-6.7885 Y18.6414 F60.00
G01 X-6.7982 Y18.6330 F60.00
G01 X-6.8074 Y18.6242 F60.00
G01 X-7.1942 Y18.2374 F60.00
G01 X-7.2030 Y18.2282 F60.00
G01 X-7.2114 Y18.2185 F60.00
G01 X-7.2211 Y18.2059 F60.00
G01 X-7.2301 Y18.1926 F60.00
G01 X-7.2366 Y18.1817 F60.00
G01 X-7.2441 Y18.1676 F60.00
G01 X-7.2494 Y18.1560 F60.00
G01 X-7.2552 Y18.1411 F60.00
G01 X-7.2600 Y18.1265 F60.00
G01 X-7.2599 Y22.5000 F60.00
G01 X-3.9591 Y22.5000 F60.00
G01 X-2.9000 Y21.4409 F60.00
G01 X-2.9001 Y16.1350 F60.00
G01 X-3.8100 Y16.1350 F60.00
G01 X-3.8228 Y16.1347 F60.00
G01 X-3.8355 Y16.1337 F60.00
G01 X-3.8513 Y16.1317 F60.00
G01 X-3.8638 Y16.1294 F60.00
G01 X-3.8763 Y16.1264 F60.00
G01 X-3.8885 Y16.1229 F60.00
G01 X-3.9006 Y16.1187 F60.00
G01 X-3.9154 Y16.1127 F60.00
G01 X-3.9269 Y16.1072 F60.00
G01 X-3.9382 Y16.1012 F60.00
G01 X-3.9491 Y16.0947 F60.00
G01 X-3.9623 Y16.0857 F60.00
G01 X-3.9725 Y16.0780 F60.00
G01 X-3.9822 Y16.0698 F60.00
G01 X-3.9916 Y16.0611 F60.00
G01 X-4.0026 Y16.0496 F60.00
G01 X-4.0110 Y16.0399 F60.00
G01 X-4.0207 Y16.0273 F60.00
G01 X-4.0314 Y16.0114 F60.00
G01 X-4.0408 Y15.9947 F60.00
G01 X-4.0502 Y15.9745 F60.00
G01 X-4.0569 Y15.9566 F60.00
G01 X-4.0622 Y15.9382 F60.00
G01 X-4.0662 Y15.9194 F60.00
G01 X-4.0687 Y15.9005 F60.00
G01 X-4.0699 Y15.8814 F60.00
G01 X-4.0700 Y14.6018 F60.00
G01 X-4.0687 Y14.5795 F60.00
G01 X-4.0656 Y14.5574 F60.00
G01 X-4.0606 Y14.5357 F60.00
G01 X-4.0548 Y14.5174 F60.00
G01 X-4.0477 Y14.4996 F60.00
G01 X-4.0393 Y14.4824 F60.00
G01 X-4.0297 Y14.4659 F60.00
G01 X-4.0188 Y14.4501 F60.00
G01 X-4.0069 Y14.4352 F60.00
G01 X-3.9938 Y14.4212 F60.00
G01 X-3.9774 Y14.4061 F60.00
G01 X-3.9623 Y14.3943 F60.00
G01 X-3.9464 Y14.3836 F60.00
G01 X-3.9297 Y14.3742 F60.00
G01 X-3.9124 Y14.3660 F60.00
G01 X-3.8946 Y14.3591 F60.00
G01 X-3.8763 Y14.3536 F60.00
G01 X-3.8576 Y14.3494 F60.00
G01 X-3.8387 Y14.3466 F60.00
G01 X-3.8164 Y14.3451 F60.00
G01 X-1.2604 Y14.3452 F60.00
G01 X-1.2445 Y14.3463 F60.00
G01 X-1.2287 Y14.3483 F60.00
G01 X-1.2130 Y14.3513 F60.00
G01 X-1.2007 Y14.3544 F60.00
G01 X-1.1854 Y14.3591 F60.00
G01 X-1.1735 Y14.3636 F60.00
G01 X-1.1617 Y14.3686 F60.00
G01 X-1.1474 Y14.3757 F60.00
G01 X-1.1336 Y14.3836 F60.00
G01 X-1.1229 Y14.3906 F60.00
G01 X-1.1100 Y14.4000 F60.00
G01 X-1.0978 Y14.4102 F60.00
G01 X-1.0862 Y14.4212 F60.00
G01 X-1.0774 Y14.4304 F60.00
G01 X-1.0670 Y14.4425 F60.00
G01 X-1.0593 Y14.4527 F60.00
G01 X-1.0486 Y14.4686 F60.00
G01 X-1.0378 Y14.4881 F60.00
G01 X-1.0298 Y14.5055 F60.00
G01 X-1.0221 Y14.5265 F60.00
G01 X-1.0163 Y14.5480 F60.00
G01 X-1.0128 Y14.5669 F60.00
G01 X-1.0107 Y14.5859 F60.00
G01 X-1.0100 Y14.6050 F60.00
G01 X-1.0102 Y15.8846 F60.00
G01 X-1.0116 Y15.9037 F60.00
G01 X-1.0144 Y15.9226 F60.00
G01 X-1.0178 Y15.9382 F60.00
G01 X-1.0231 Y15.9566 F60.00
G01 X-1.0298 Y15.9745 F60.00
G01 X-1.0363 Y15.9890 F60.00
G01 X-1.0438 Y16.0032 F60.00
G01 X-1.0538 Y16.0194 F60.00
G01 X-1.0612 Y16.0299 F60.00
G01 X-1.0711 Y16.0424 F60.00
G01 X-1.0817 Y16.0543 F60.00
G01 X-1.0907 Y16.0633 F60.00
G01 X-1.1002 Y16.0719 F60.00
G01 X-1.1126 Y16.0819 F60.00
G01 X-1.1256 Y16.0912 F60.00
G01 X-1.1363 Y16.0980 F60.00
G01 X-1.1503 Y16.1058 F60.00
G01 X-1.1617 Y16.1114 F60.00
G01 X-1.1764 Y16.1176 F60.00
G01 X-1.1884 Y16.1219 F60.00
G01 X-1.2037 Y16.1264 F60.00
G01 X-1.2162 Y16.1294 F60.00
G01 X-1.2287 Y16.1317 F60.00
G01 X-1.2445 Y16.1337 F60.00
G01 X-1.2572 Y16.1347 F60.00
G01 X-1.2700 Y16.1350 F60.00
G01 X-2.1800 Y16.1350 F60.00
G01 X-2.1800 Y21.5900 F60.00
G01 X-2.1808 Y21.6140 F60.00
G01 X-2.1820 Y21.6285 F60.00
G01 X-2.1838 Y21.6428 F60.00
G01 X-2.1863 Y21.6571 F60.00
G01 X-2.1893 Y21.6713 F60.00
G01 X-2.1955 Y21.6945 F60.00
G01 X-2.2021 Y21.7143 F60.00
G01 X-2.2099 Y21.7337 F60.00
G01 X-2.2210 Y21.7569 F60.00
G01 X-2.2312 Y21.7751 F60.00
G01 X-2.2424 Y21.7927 F60.00
G01 X-2.2547 Y21.8096 F60.00
G01 X-2.2690 Y21.8270 F60.00
G01 X-2.2832 Y21.8423 F60.00
G01 X-3.5577 Y23.1168 F60.00
G01 X-3.5682 Y23.1268 F60.00
G01 X-3.5791 Y23.1363 F60.00
G01 X-3.6007 Y23.1529 F60.00
G01 X-3.6126 Y23.1611 F60.00
G01 X-3.6249 Y23.1688 F60.00
G01 X-3.6375 Y23.1760 F60.00
G01 X-3.6503 Y23.1827 F60.00
G01 X-3.6693 Y23.1914 F60.00
G01 X-3.6887 Y23.1990 F60.00
G01 X-3.7055 Y23.2045 F60.00
G01 X-3.7256 Y23.2100 F60.00
G01 X-3.7460 Y23.2143 F60.00
G01 X-3.7684 Y23.2176 F60.00
G01 X-3.7891 Y23.2194 F60.00
G01 X-3.8100 Y23.2200 F60.00
G01 X-13.7323 Y23.2200 F60.00
G01 X-13.7473 Y23.2537 F60.00
G01 X-13.7646 Y23.2884 F60.00
G01 X-13.7707 Y23.2996 F60.00
G01 X-13.7899 Y23.3333 F60.00
G01 X-13.8106 Y23.3662 F60.00
G01 X-13.8177 Y23.3768 F60.00
G01 X-13.8401 Y23.4085 F60.00
G01 X-13.8639 Y23.4391 F60.00
G01 X-13.8720 Y23.4490 F60.00
G01 X-13.8974 Y23.4783 F60.00
G01 X-13.9241 Y23.5065 F60.00
G01 X-13.9331 Y23.5155 F60.00
G01 X-13.9613 Y23.5422 F60.00
G01 X-13.9906 Y23.5676 F60.00
G01 X-14.0005 Y23.5757 F60.00
G01 X-14.0311 Y23.5995 F60.00
G01 X-14.0628 Y23.6219 F60.00
G01 X-14.0734 Y23.6290 F60.00
G01 X-14.1063 Y23.6497 F60.00
G01 X-14.1400 Y23.6689 F60.00
G01 X-14.1512 Y23.6750 F60.00
G01 X-14.1859 Y23.6923 F60.00
G01 X-14.2214 Y23.7081 F60.00
G01 X-14.2332 Y23.7130 F60.00
G01 X-14.2694 Y23.7269 F60.00
G01 X-14.3062 Y23.7392 F60.00
G01 X-14.3185 Y23.7429 F60.00
G01 X-14.3559 Y23.7531 F60.00
G01 X-14.3937 Y23.7617 F60.00
G01 X-14.4062 Y23.7642 F60.00
G01 X-14.4445 Y23.7708 F60.00
G01 X-14.4862 Y23.7760 F60.00
G01 X-14.5344 Y23.7796 F60.00
G01 X-14.5796 Y23.7807 F60.00
G01 X-15.9004 Y23.7807 F60.00
G01 X-15.9392 Y23.7799 F60.00
G01 X-15.9519 Y23.7792 F60.00
G01 X-15.9906 Y23.7763 F60.00
G01 X-16.0292 Y23.7716 F60.00
G01 X-16.0418 Y23.7698 F60.00
G01 X-16.0863 Y23.7617 F60.00
G01 X-16.1241 Y23.7531 F60.00
G01 X-16.1677 Y23.7411 F60.00
G01 X-16.2106 Y23.7269 F60.00
G01 X-16.2468 Y23.7130 F60.00
G01 X-16.2586 Y23.7081 F60.00
G01 X-16.2969 Y23.6909 F60.00
G01 X-16.3344 Y23.6720 F60.00
G01 X-16.3682 Y23.6529 F60.00
G01 X-16.3792 Y23.6464 F60.00
G01 X-16.4146 Y23.6238 F60.00
G01 X-16.4489 Y23.5995 F60.00
G01 X-16.4845 Y23.5717 F60.00
G01 X-16.5163 Y23.5443 F60.00
G01 X-16.5400 Y23.5221 F60.00
G01 X-16.5402 Y23.8696 F60.00
G01 X-16.5420 Y23.8918 F60.00
G01 X-16.5450 Y23.9107 F60.00
G01 X-16.5503 Y23.9324 F60.00
G01 X-16.5563 Y23.9506 F60.00
G01 X-16.5623 Y23.9654 F60.00
G01 X-16.5707 Y23.9826 F60.00
G01 X-16.5786 Y23.9964 F60.00
G01 X-16.5893 Y24.0123 F60.00
G01 X-16.5990 Y24.0249 F60.00
G01 X-16.6117 Y24.0393 F60.00
G01 X-16.6230 Y24.0505 F60.00
G01 X-16.6351 Y24.0610 F60.00
G01 X-16.6477 Y24.0707 F60.00
G01 X-16.6636 Y24.0814 F60.00
G01 X-16.6774 Y24.0893 F60.00
G01 X-16.6946 Y24.0977 F60.00
G01 X-16.7124 Y24.1048 F60.00
G01 X-16.7276 Y24.1097 F60.00
G01 X-16.7430 Y24.1137 F60.00
G01 X-16.7619 Y24.1172 F60.00
G01 X-16.7809 Y24.1193 F60.00
G01 X-16.8000 Y24.1200 F60.00
G01 X-18.3000 Y24.1200 F60.00
G01 X-18.3128 Y24.1197 F60.00
G01 X-18.3287 Y24.1184 F60.00
G01 X-18.3507 Y24.1150 F60.00
G01 X-18.3693 Y24.1106 F60.00
G01 X-18.3906 Y24.1037 F60.00
G01 X-18.4083 Y24.0964 F60.00
G01 X-18.4254 Y24.0878 F60.00
G01 X-18.4444 Y24.0762 F60.00
G01 X-18.4600 Y24.0650 F60.00
G01 X-18.4770 Y24.0505 F60.00
G01 X-18.4926 Y24.0346 F60.00
G01 X-18.5050 Y24.0200 F60.00
G01 X-18.5179 Y24.0018 F60.00
G01 X-18.5278 Y23.9854 F60.00
G01 X-18.5364 Y23.9683 F60.00
G01 X-18.5448 Y23.9476 F60.00
G01 X-18.5506 Y23.9293 F60.00
G01 X-18.5556 Y23.9076 F60.00
G01 X-18.5576 Y23.8950 F60.00
G01 X-18.5590 Y23.8823 F60.00
G01 X-18.5600 Y23.8600 F60.00
G01 X-18.5600 Y21.8600 F60.00
G01 X-18.5597 Y21.8472 F60.00
G01 X-18.5587 Y21.8345 F60.00
G01 X-18.5556 Y21.8124 F60.00
G01 X-18.5514 Y21.7937 F60.00
G01 X-18.5448 Y21.7724 F60.00
G01 X-18.5364 Y21.7517 F60.00
G01 X-18.5262 Y21.7318 F60.00
G01 X-18.5144 Y21.7129 F60.00
G01 X-18.5010 Y21.6951 F60.00
G01 X-18.4861 Y21.6784 F60.00
G01 X-18.4698 Y21.6631 F60.00
G01 X-18.4523 Y21.6493 F60.00
G01 X-18.4337 Y21.6370 F60.00
G01 X-18.4169 Y21.6278 F60.00
G01 X-18.3965 Y21.6186 F60.00
G01 X-18.3785 Y21.6121 F60.00
G01 X-18.3570 Y21.6063 F60.00
G01 X-18.3350 Y21.6024 F60.00
G01 X-18.3159 Y21.6005 F60.00
G01 X-18.3000 Y21.6000 F60.00
G01 X-16.7968 Y21.6000 F60.00
G01 X-16.7777 Y21.6010 F60.00
G01 X-16.7587 Y21.6033 F60.00
G01 X-16.7399 Y21.6070 F60.00
G01 X-16.7184 Y21.6131 F60.00
G01 X-16.7035 Y21.6186 F60.00
G01 X-16.6888 Y21.6250 F60.00
G01 X-16.6746 Y21.6322 F60.00
G01 X-16.6609 Y21.6403 F60.00
G01 X-16.6477 Y21.6493 F60.00
G01 X-16.6351 Y21.6590 F60.00
G01 X-16.6254 Y21.6674 F60.00
G01 X-16.6139 Y21.6784 F60.00
G01 X-16.6031 Y21.6902 F60.00
G01 X-16.5931 Y21.7026 F60.00
G01 X-16.5838 Y21.7156 F60.00
G01 X-16.5754 Y21.7291 F60.00
G01 X-16.5678 Y21.7431 F60.00
G01 X-16.5610 Y21.7576 F60.00
G01 X-16.5563 Y21.7694 F60.00
G01 X-16.5512 Y21.7845 F60.00
G01 X-16.5463 Y21.8030 F60.00
G01 X-16.5433 Y21.8187 F60.00
G01 X-16.5413 Y21.8345 F60.00
G01 X-16.5401 Y21.8536 F60.00
G01 X-16.5400 Y22.1979 F60.00
G01 X-16.5163 Y22.1757 F60.00
G01 X-16.4845 Y22.1483 F60.00
G01 X-16.4489 Y22.1205 F60.00
G01 X-16.4146 Y22.0962 F60.00
G01 X-16.3792 Y22.0736 F60.00
G01 X-16.3682 Y22.0671 F60.00
G01 X-16.3344 Y22.0480 F60.00
G01 X-16.2912 Y22.0263 F60.00
G01 X-16.2527 Y22.0094 F60.00
G01 X-16.2166 Y21.9953 F60.00
G01 X-16.1738 Y21.9808 F60.00
G01 X-16.1615 Y21.9771 F60.00
G01 X-16.1241 Y21.9669 F60.00
G01 X-16.0800 Y21.9570 F60.00
G01 X-16.0355 Y21.9492 F60.00
G01 X-15.9938 Y21.9440 F60.00
G01 X-15.9456 Y21.9404 F60.00
G01 X-15.9004 Y21.9393 F60.00
G01 X-14.5764 Y21.9393 F60.00
G01 X-14.5344 Y21.9404 F60.00
G01 X-14.4894 Y21.9437 F60.00
G01 X-14.4445 Y21.9492 F60.00
G01 X-14.4000 Y21.9570 F60.00
G01 X-14.3559 Y21.9669 F60.00
G01 X-14.3185 Y21.9771 F60.00
G01 X-14.3062 Y21.9808 F60.00
G01 X-14.2694 Y21.9931 F60.00
G01 X-14.2332 Y22.0070 F60.00
G01 X-14.2214 Y22.0119 F60.00
G01 X-14.1859 Y22.0277 F60.00
G01 X-14.1512 Y22.0450 F60.00
G01 X-14.1400 Y22.0511 F60.00
G01 X-14.1063 Y22.0703 F60.00
G01 X-14.0734 Y22.0910 F60.00
G01 X-14.0628 Y22.0981 F60.00
G01 X-14.0311 Y22.1205 F60.00
G01 X-13.9955 Y22.1483 F60.00
G01 X-13.9613 Y22.1778 F60.00
G01 X-13.9331 Y22.2045 F60.00
G01 X-13.9241 Y22.2135 F60.00
G01 X-13.8974 Y22.2417 F60.00
G01 X-13.8720 Y22.2710 F60.00
G01 X-13.8639 Y22.2809 F60.00
G01 X-13.8401 Y22.3115 F60.00
G01 X-13.8140 Y22.3485 F60.00
G01 X-13.7932 Y22.3812 F60.00
G01 X-13.7867 Y22.3922 F60.00
G01 X-13.7646 Y22.4316 F60.00
G01 X-13.7473 Y22.4663 F60.00
G01 X-13.7323 Y22.5000 F60.00
G01 X-7.9800 Y22.4999 F60.00
G01 X-7.9800 Y18.1265 F60.00
G01 X-7.9848 Y18.1411 F60.00
G01 X-7.9906 Y18.1560 F60.00
G01 X-7.9974 Y18.1704 F60.00
G01 X-8.0050 Y18.1845 F60.00
G01 X-8.0134 Y18.1980 F60.00
G01 X-8.0227 Y18.2110 F60.00
G01 X-8.0327 Y18.2234 F60.00
G01 X-8.0435 Y18.2351 F60.00
G01 X-8.4395 Y18.6309 F60.00
G01 X-8.4491 Y18.6393 F60.00
G01 X-8.4590 Y18.6473 F60.00
G01 X-8.4774 Y18.6601 F60.00
G01 X-8.4967 Y18.6712 F60.00
G01 X-8.5082 Y18.6768 F60.00
G01 X-8.5199 Y18.6818 F60.00
G01 X-8.5410 Y18.6892 F60.00
G01 X-8.5626 Y18.6948 F60.00
G01 X-8.5846 Y18.6984 F60.00
G01 X-8.5973 Y18.6997 F60.00
G01 X-8.6101 Y18.7003 F60.00
G01 X-9.1731 Y18.7002 F60.00
G01 X-9.1922 Y18.6988 F60.00
G01 X-9.2111 Y18.6960 F60.00
G01 X-9.2298 Y18.6918 F60.00
G01 X-9.2481 Y18.6863 F60.00
G01 X-9.2660 Y18.6794 F60.00
G01 X-9.2833 Y18.6712 F60.00
G01 X-9.2972 Y18.6634 F60.00
G01 X-9.3133 Y18.6530 F60.00
G01 X-9.3285 Y18.6414 F60.00
G01 X-9.3451 Y18.6265 F60.00
G01 X-9.7387 Y18.2328 F60.00
G01 X-9.7473 Y18.2234 F60.00
G01 X-9.7554 Y18.2135 F60.00
G01 X-9.7630 Y18.2033 F60.00
G01 X-9.7701 Y18.1926 F60.00
G01 X-9.7766 Y18.1817 F60.00
G01 X-9.7826 Y18.1704 F60.00
G01 X-9.7894 Y18.1560 F60.00
G01 X-9.7941 Y18.1441 F60.00
G01 X-9.8010 Y18.1229 F60.00
G01 X-9.8060 Y18.1011 F60.00
G01 X-9.8088 Y18.0822 F60.00
G01 X-9.8103 Y18.0599 F60.00
G01 X-9.8104 Y17.5033 F60.00
G01 X-9.8099 Y17.4905 F60.00
G01 X-9.8084 Y17.4746 F60.00
G01 X-9.8066 Y17.4620 F60.00
G01 X-9.8034 Y17.4464 F60.00
G01 X-9.7992 Y17.4310 F60.00
G01 X-9.7952 Y17.4189 F60.00
G01 X-9.7906 Y17.4070 F60.00
G01 X-9.7849 Y17.3943 F60.00
G01 X-11.1844 Y15.9945 F60.00
G01 X-11.2003 Y15.9764 F60.00
G01 X-11.2149 Y15.9573 F60.00
G01 X-11.2292 Y15.9358 F60.00
G01 X-11.2410 Y15.9149 F60.00
G01 X-11.2521 Y15.8917 F60.00
G01 X-11.2610 Y15.8693 F60.00
G01 X-11.2656 Y15.8556 F60.00
G01 X-11.2696 Y15.8417 F60.00
G01 X-11.2751 Y15.8182 F60.00
G01 X-11.2782 Y15.8008 F60.00
G01 X-11.2803 Y15.7833 F60.00
G01 X-11.2816 Y15.7657 F60.00
G01 X-11.2820 Y15.7480 F60.00
G01 X-11.2820 Y11.5570 F60.00
G01 X-11.2812 Y11.5330 F60.00
G01 X-11.2786 Y11.5073 F60.00
G01 X-11.2745 Y11.4836 F60.00
G01 X-11.2713 Y11.4695 F60.00
G01 X-11.2675 Y11.4555 F60.00
G01 X-11.2599 Y11.4327 F60.00
G01 X-11.2501 Y11.4089 F60.00
G01 X-11.2395 Y11.3873 F60.00
G01 X-11.2275 Y11.3665 F60.00
G01 X-11.2131 Y11.3451 F60.00
G01 X-11.1983 Y11.3261 F60.00
G01 X-11.1888 Y11.3152 F60.00
G01 X-11.1766 Y11.3024 F60.00
G01 X-10.7796 Y10.9054 F60.00
G01 X-10.7668 Y10.8932 F60.00
G01 X-10.7534 Y10.8817 F60.00
G01 X-10.7395 Y10.8708 F60.00
G01 X-10.7250 Y10.8606 F60.00
G01 X-10.7101 Y10.8512 F60.00
G01 X-10.6947 Y10.8425 F60.00
G01 X-10.6789 Y10.8345 F60.00
G01 X-10.6628 Y10.8274 F60.00
G01 X-10.6433 Y10.8199 F60.00
G01 X-10.6265 Y10.8145 F60.00
G01 X-10.6094 Y10.8100 F60.00
G01 X-10.5921 Y10.8063 F60.00
G01 X-10.5747 Y10.8034 F60.00
G01 X-10.5571 Y10.8014 F60.00
G01 X-10.5395 Y10.8002 F60.00
G01 X-10.4927 Y10.8000 F60.00
G01 X-10.4931 Y10.7850 F60.00
G01 X-10.4931 Y10.5350 F60.00
G01 X-10.4921 Y10.5127 F60.00
G01 X-10.4907 Y10.5000 F60.00
G01 X-10.4881 Y10.4843 F60.00
G01 X-10.4853 Y10.4718 F60.00
G01 X-10.4819 Y10.4595 F60.00
G01 X-10.4779 Y10.4474 F60.00
G01 X-10.4733 Y10.4355 F60.00
G01 X-10.4681 Y10.4238 F60.00
G01 X-10.4611 Y10.4100 F60.00
G01 X-10.4681 Y10.3962 F60.00
G01 X-10.4733 Y10.3845 F60.00
G01 X-10.4779 Y10.3726 F60.00
G01 X-10.4819 Y10.3605 F60.00
G01 X-10.4853 Y10.3482 F60.00
G01 X-10.4881 Y10.3357 F60.00
G01 X-10.4903 Y10.3231 F60.00
G01 X-10.4921 Y10.3073 F60.00
G01 X-10.4931 Y10.2850 F60.00
G01 X-10.4931 Y10.0350 F60.00
G01 X-10.4927 Y10.0200 F60.00
G01 X-12.0509 Y10.0200 F60.00
G01 X-12.4454 Y10.4146 F60.00
G01 X-12.4559 Y10.4246 F60.00
G01 X-12.4691 Y10.4363 F60.00
G01 X-12.4804 Y10.4453 F60.00
G01 X-12.4947 Y10.4558 F60.00
G01 X-12.5053 Y10.4629 F60.00
G01 X-12.5176 Y10.4704 F60.00
G01 X-12.5331 Y10.4790 F60.00
G01 X-12.5461 Y10.4855 F60.00
G01 X-12.5622 Y10.4926 F60.00
G01 X-12.5787 Y10.4990 F60.00
G01 X-12.5955 Y10.5045 F60.00
G01 X-12.6125 Y10.5093 F60.00
G01 X-12.6266 Y10.5125 F60.00
G01 X-12.6440 Y10.5157 F60.00
G01 X-12.6615 Y10.5180 F60.00
G01 X-12.6791 Y10.5194 F60.00
G01 X-12.6936 Y10.5200 F60.00
G01 X-13.7323 Y10.5200 F60.00
G01 X-13.7473 Y10.5537 F60.00
G01 X-13.7646 Y10.5884 F60.00
G01 X-13.7707 Y10.5996 F60.00
G01 X-13.7899 Y10.6333 F60.00
G01 X-13.8106 Y10.6662 F60.00
G01 X-13.8177 Y10.6768 F60.00
G01 X-13.8401 Y10.7085 F60.00
G01 X-13.8679 Y10.7441 F60.00
G01 X-13.8932 Y10.7735 F60.00
G01 X-13.9017 Y10.7830 F60.00
G01 X-13.9285 Y10.8111 F60.00
G01 X-13.9613 Y10.8422 F60.00
G01 X-13.9906 Y10.8676 F60.00
G01 X-14.0005 Y10.8757 F60.00
G01 X-14.0311 Y10.8995 F60.00
G01 X-14.0681 Y10.9256 F60.00
G01 X-14.1063 Y10.9497 F60.00
G01 X-14.1400 Y10.9689 F60.00
G01 X-14.1512 Y10.9750 F60.00
G01 X-14.1859 Y10.9923 F60.00
G01 X-14.2273 Y11.0106 F60.00
G01 X-14.2634 Y11.0247 F60.00
G01 X-14.2754 Y11.0290 F60.00
G01 X-14.3123 Y11.0411 F60.00
G01 X-14.3497 Y11.0515 F60.00
G01 X-14.3621 Y11.0546 F60.00
G01 X-14.4000 Y11.0630 F60.00
G01 X-14.4445 Y11.0708 F60.00
G01 X-14.4830 Y11.0756 F60.00
G01 X-14.4957 Y11.0768 F60.00
G01 X-14.5344 Y11.0796 F60.00
G01 X-14.5764 Y11.0807 F60.00
G01 X-15.9004 Y11.0807 F60.00
G01 X-15.9424 Y11.0798 F60.00
G01 X-15.9906 Y11.0763 F60.00
G01 X-16.0292 Y11.0716 F60.00
G01 X-16.0738 Y11.0642 F60.00
G01 X-16.0863 Y11.0617 F60.00
G01 X-16.1241 Y11.0531 F60.00
G01 X-16.1677 Y11.0411 F60.00
G01 X-16.2106 Y11.0269 F60.00
G01 X-16.2557 Y11.0094 F60.00
G01 X-16.2941 Y10.9923 F60.00
G01 X-16.3288 Y10.9750 F60.00
G01 X-16.3400 Y10.9689 F60.00
G01 X-16.3737 Y10.9497 F60.00
G01 X-16.4119 Y10.9256 F60.00
G01 X-16.4437 Y10.9033 F60.00
G01 X-16.4540 Y10.8957 F60.00
G01 X-16.4894 Y10.8676 F60.00
G01 X-16.5187 Y10.8422 F60.00
G01 X-16.5515 Y10.8111 F60.00
G01 X-16.5826 Y10.7783 F60.00
G01 X-16.6080 Y10.7490 F60.00
G01 X-16.6161 Y10.7391 F60.00
G01 X-16.6418 Y10.7059 F60.00
G01 X-16.6660 Y10.6715 F60.00
G01 X-16.6868 Y10.6388 F60.00
G01 X-16.7093 Y10.5996 F60.00
G01 X-16.7154 Y10.5884 F60.00
G01 X-16.7327 Y10.5537 F60.00
G01 X-16.7510 Y10.5123 F60.00
G01 X-16.7673 Y10.4702 F60.00
G01 X-16.7796 Y10.4334 F60.00
G01 X-16.7833 Y10.4211 F60.00
G01 X-16.7935 Y10.3837 F60.00
G01 X-16.8034 Y10.3396 F60.00
G01 X-16.8102 Y10.3014 F60.00
G01 X-16.8120 Y10.2888 F60.00
G01 X-16.8167 Y10.2502 F60.00
G01 X-16.8200 Y10.2052 F60.00
G01 X-16.8211 Y10.1664 F60.00
G01 X-16.8211 Y10.1536 F60.00
G01 X-16.8198 Y10.1116 F60.00
G01 X-16.8167 Y10.0698 F60.00
G01 X-16.8112 Y10.0249 F60.00
G01 X-16.8034 Y9.9804 F60.00
G01 X-16.7950 Y9.9425 F60.00
G01 X-16.7833 Y9.8989 F60.00
G01 X-16.7796 Y9.8866 F60.00
G01 X-16.7673 Y9.8498 F60.00
G01 X-16.7510 Y9.8077 F60.00
G01 X-16.7327 Y9.7663 F60.00
G01 X-16.7124 Y9.7260 F60.00
G01 X-16.6901 Y9.6867 F60.00
G01 X-16.6694 Y9.6538 F60.00
G01 X-16.6623 Y9.6432 F60.00
G01 X-16.6361 Y9.6064 F60.00
G01 X-16.6121 Y9.5759 F60.00
G01 X-16.5826 Y9.5417 F60.00
G01 X-16.5515 Y9.5089 F60.00
G01 X-16.5234 Y9.4821 F60.00
G01 X-16.5139 Y9.4736 F60.00
G01 X-16.4795 Y9.4443 F60.00
G01 X-16.4489 Y9.4205 F60.00
G01 X-16.4119 Y9.3944 F60.00
G01 X-16.3737 Y9.3703 F60.00
G01 X-16.3344 Y9.3480 F60.00
G01 X-16.2941 Y9.3277 F60.00
G01 X-16.2527 Y9.3094 F60.00
G01 X-16.2106 Y9.2931 F60.00
G01 X-16.1738 Y9.2808 F60.00
G01 X-16.1615 Y9.2771 F60.00
G01 X-16.1179 Y9.2654 F60.00
G01 X-16.0769 Y9.2564 F60.00
G01 X-16.0292 Y9.2484 F60.00
G01 X-15.9906 Y9.2437 F60.00
G01 X-15.9519 Y9.2408 F60.00
G01 X-15.9036 Y9.2393 F60.00
G01 X-14.5764 Y9.2393 F60.00
G01 X-14.5344 Y9.2404 F60.00
G01 X-14.4957 Y9.2432 F60.00
G01 X-14.4830 Y9.2444 F60.00
G01 X-14.4445 Y9.2492 F60.00
G01 X-14.4062 Y9.2558 F60.00
G01 X-14.3590 Y9.2661 F60.00
G01 X-14.3123 Y9.2789 F60.00
G01 X-14.2754 Y9.2910 F60.00
G01 X-14.2634 Y9.2953 F60.00
G01 X-14.2273 Y9.3094 F60.00
G01 X-14.1917 Y9.3250 F60.00
G01 X-14.1512 Y9.3450 F60.00
G01 X-14.1400 Y9.3511 F60.00
G01 X-14.1063 Y9.3703 F60.00
G01 X-14.0681 Y9.3944 F60.00
G01 X-14.0311 Y9.4205 F60.00
G01 X-13.9930 Y9.4503 F60.00
G01 X-13.9566 Y9.4821 F60.00
G01 X-13.9285 Y9.5089 F60.00
G01 X-13.9017 Y9.5370 F60.00
G01 X-13.8932 Y9.5465 F60.00
G01 X-13.8679 Y9.5759 F60.00
G01 X-13.8401 Y9.6115 F60.00
G01 X-13.8140 Y9.6485 F60.00
G01 X-13.7932 Y9.6812 F60.00
G01 X-13.7867 Y9.6922 F60.00
G01 X-13.7646 Y9.7316 F60.00
G01 X-13.7473 Y9.7663 F60.00
G01 X-13.7323 Y9.8000 F60.00
G01 X-12.8491 Y9.8000 F60.00
G01 X-12.4546 Y9.4054 F60.00
G01 X-12.4418 Y9.3932 F60.00
G01 X-12.4309 Y9.3837 F60.00
G01 X-12.4119 Y9.3689 F60.00
G01 X-12.3905 Y9.3545 F60.00
G01 X-12.3697 Y9.3425 F60.00
G01 X-12.3481 Y9.3319 F60.00
G01 X-12.3243 Y9.3221 F60.00
G01 X-12.3015 Y9.3145 F60.00
G01 X-12.2765 Y9.3082 F60.00
G01 X-12.2528 Y9.3038 F60.00
G01 X-12.2289 Y9.3011 F60.00
G01 X-12.2145 Y9.3002 F60.00
G01 X-12.2000 Y9.3000 F60.00
G01 X-10.4927 Y9.2999 F60.00
G01 X-10.4931 Y9.2850 F60.00
G01 X-10.4931 Y9.0350 F60.00
G01 X-10.4926 Y9.0191 F60.00
G01 X-10.4911 Y9.0032 F60.00
G01 X-10.4881 Y8.9843 F60.00
G01 X-10.4845 Y8.9687 F60.00
G01 X-10.4800 Y8.9534 F60.00
G01 X-10.4745 Y8.9385 F60.00
G01 X-10.4668 Y8.9210 F60.00
G01 X-10.4593 Y8.9068 F60.00
G01 X-10.4510 Y8.8932 F60.00
G01 X-10.4400 Y8.8776 F60.00
G01 X-10.4279 Y8.8628 F60.00
G01 X-10.4124 Y8.8467 F60.00
G01 X-10.3980 Y8.8340 F60.00
G01 X-10.3802 Y8.8206 F60.00
G01 X-10.3640 Y8.8104 F60.00
G01 X-10.3443 Y8.8000 F60.00
G01 X-10.3237 Y8.7913 F60.00
G01 X-10.3055 Y8.7853 F60.00
G01 X-10.2901 Y8.7813 F60.00
G01 X-10.2776 Y8.7788 F60.00
G01 X-10.2618 Y8.7766 F60.00
G01 X-10.2459 Y8.7753 F60.00
G01 X-10.2331 Y8.7750 F60.00
G01 X-10.0931 Y8.7750 F60.00
G01 X-10.0931 Y8.3536 F60.00
G01 X-10.1082 Y8.3470 F60.00
G01 X-10.1252 Y8.3382 F60.00
G01 X-10.1414 Y8.3282 F60.00
G01 X-10.1570 Y8.3170 F60.00
G01 X-10.1716 Y8.3046 F60.00
G01 X-10.1853 Y8.2913 F60.00
G01 X-10.1980 Y8.2769 F60.00
G01 X-10.2077 Y8.2643 F60.00
G01 X-10.2184 Y8.2484 F60.00
G01 X-10.2278 Y8.2317 F60.00
G01 X-10.2360 Y8.2144 F60.00
G01 X-10.2429 Y8.1966 F60.00
G01 X-10.2484 Y8.1783 F60.00
G01 X-10.2520 Y8.1627 F60.00
G01 X-10.2550 Y8.1438 F60.00
G01 X-10.2567 Y8.1248 F60.00
G01 X-10.2570 Y8.1120 F60.00
G01 X-10.2569 Y6.1056 F60.00
G01 X-10.2557 Y6.0865 F60.00
G01 X-10.2537 Y6.0707 F60.00
G01 X-10.2507 Y6.0550 F60.00
G01 X-10.2458 Y6.0365 F60.00
G01 X-10.2396 Y6.0184 F60.00
G01 X-10.2334 Y6.0037 F60.00
G01 X-10.2263 Y5.9894 F60.00
G01 X-10.2167 Y5.9729 F60.00
G01 X-10.2077 Y5.9597 F60.00
G01 X-10.1980 Y5.9471 F60.00
G01 X-10.1875 Y5.9350 F60.00
G01 X-10.1763 Y5.9237 F60.00
G01 X-10.1644 Y5.9131 F60.00
G01 X-10.1519 Y5.9032 F60.00
G01 X-10.1414 Y5.8958 F60.00
G01 X-10.1279 Y5.8874 F60.00
G01 X-10.1139 Y5.8798 F60.00
G01 X-10.0994 Y5.8730 F60.00
G01 X-10.0846 Y5.8672 F60.00
G01 X-10.0694 Y5.8623 F60.00
G01 X-10.0540 Y5.8583 F60.00
G01 X-10.0383 Y5.8553 F60.00
G01 X-10.0225 Y5.8533 F60.00
G01 X-10.0066 Y5.8522 F60.00
G01 X-8.4874 Y5.8522 F60.00
G01 X-8.4683 Y5.8536 F60.00
G01 X-8.4494 Y5.8564 F60.00
G01 X-8.4307 Y5.8606 F60.00
G01 X-8.4094 Y5.8672 F60.00
G01 X-8.3887 Y5.8756 F60.00
G01 X-8.3716 Y5.8842 F60.00
G01 X-8.3552 Y5.8941 F60.00
G01 X-8.3396 Y5.9051 F60.00
G01 X-8.3272 Y5.9151 F60.00
G01 X-8.3177 Y5.9237 F60.00
G01 X-8.3065 Y5.9350 F60.00
G01 X-8.2981 Y5.9446 F60.00
G01 X-8.2882 Y5.9571 F60.00
G01 X-8.2808 Y5.9676 F60.00
G01 X-8.2724 Y5.9811 F60.00
G01 X-8.2662 Y5.9923 F60.00
G01 X-8.2606 Y6.0037 F60.00
G01 X-8.2544 Y6.0184 F60.00
G01 X-8.2491 Y6.0335 F60.00
G01 X-8.2456 Y6.0457 F60.00
G01 X-8.2426 Y6.0582 F60.00
G01 X-8.2398 Y6.0739 F60.00
G01 X-8.2383 Y6.0865 F60.00
G01 X-8.2372 Y6.1024 F60.00
G01 X-8.2370 Y8.1152 F60.00
G01 X-8.2383 Y8.1375 F60.00
G01 X-8.2408 Y8.1564 F60.00
G01 X-8.2456 Y8.1783 F60.00
G01 X-8.2522 Y8.1996 F60.00
G01 X-8.2593 Y8.2174 F60.00
G01 X-8.2662 Y8.2317 F60.00
G01 X-8.2756 Y8.2484 F60.00
G01 X-8.2844 Y8.2617 F60.00
G01 X-8.2940 Y8.2745 F60.00
G01 X-8.3065 Y8.2890 F60.00
G01 X-8.3200 Y8.3025 F60.00
G01 X-8.3321 Y8.3130 F60.00
G01 X-8.3447 Y8.3227 F60.00
G01 X-8.3606 Y8.3334 F60.00
G01 X-8.3773 Y8.3428 F60.00
G01 X-8.3916 Y8.3497 F60.00
G01 X-8.4064 Y8.3557 F60.00
G01 X-8.4246 Y8.3617 F60.00
G01 X-8.4432 Y8.3664 F60.00
G01 X-8.4589 Y8.3692 F60.00
G01 X-8.4779 Y8.3713 F60.00
G01 X-8.4970 Y8.3720 F60.00
G01 X-9.3731 Y8.3720 F60.00
G01 X-9.3731 Y8.7750 F60.00
G01 X-9.2299 Y8.7750 F60.00
G01 X-9.2076 Y8.7763 F60.00
G01 X-9.1855 Y8.7794 F60.00
G01 X-9.1730 Y8.7820 F60.00
G01 X-9.1607 Y8.7853 F60.00
G01 X-9.1395 Y8.7924 F60.00
G01 X-9.1191 Y8.8013 F60.00
G01 X-9.1077 Y8.8072 F60.00
G01 X-9.0967 Y8.8136 F60.00
G01 X-9.0860 Y8.8206 F60.00
G01 X-9.0731 Y8.8300 F60.00
G01 X-9.0633 Y8.8381 F60.00
G01 X-9.0515 Y8.8489 F60.00
G01 X-9.0405 Y8.8604 F60.00
G01 X-9.0321 Y8.8701 F60.00
G01 X-9.0243 Y8.8801 F60.00
G01 X-9.0152 Y8.8932 F60.00
G01 X-9.0085 Y8.9041 F60.00
G01 X-9.0023 Y8.9153 F60.00
G01 X-8.9967 Y8.9267 F60.00
G01 X-8.9905 Y8.9414 F60.00
G01 X-8.9862 Y8.9534 F60.00
G01 X-8.9817 Y8.9687 F60.00
G01 X-8.9781 Y8.9843 F60.00
G01 X-8.9755 Y9.0000 F60.00
G01 X-8.9738 Y9.0159 F60.00
G01 X-8.9732 Y9.0286 F60.00
G01 X-8.9731 Y9.2850 F60.00
G01 X-8.9734 Y9.2978 F60.00
G01 X-8.9744 Y9.3105 F60.00
G01 X-8.9764 Y9.3263 F60.00
G01 X-8.9787 Y9.3388 F60.00
G01 X-8.9825 Y9.3543 F60.00
G01 X-8.9872 Y9.3696 F60.00
G01 X-8.9917 Y9.3815 F60.00
G01 X-8.9981 Y9.3962 F60.00
G01 X-9.0051 Y9.4100 F60.00
G01 X-8.9981 Y9.4238 F60.00
G01 X-8.9929 Y9.4355 F60.00
G01 X-8.9883 Y9.4474 F60.00
G01 X-8.9843 Y9.4595 F60.00
G01 X-8.9809 Y9.4718 F60.00
G01 X-8.9781 Y9.4843 F60.00
G01 X-8.9755 Y9.5000 F60.00
G01 X-8.9741 Y9.5127 F60.00
G01 X-8.9731 Y9.5350 F60.00
G01 X-8.9732 Y9.7914 F60.00
G01 X-8.9738 Y9.8041 F60.00
G01 X-8.9755 Y9.8200 F60.00
G01 X-8.9781 Y9.8357 F60.00
G01 X-8.9817 Y9.8513 F60.00
G01 X-8.9862 Y9.8666 F60.00
G01 X-8.9917 Y9.8815 F60.00
G01 X-8.9981 Y9.8962 F60.00
G01 X-9.0051 Y9.9100 F60.00
G01 X-8.9981 Y9.9238 F60.00
G01 X-8.9929 Y9.9355 F60.00
G01 X-8.9883 Y9.9474 F60.00
G01 X-8.9843 Y9.9595 F60.00
G01 X-8.9809 Y9.9718 F60.00
G01 X-8.9781 Y9.9843 F60.00
G01 X-8.9755 Y10.0000 F60.00
G01 X-8.9741 Y10.0127 F60.00
G01 X-8.9731 Y10.0350 F60.00
G01 X-8.9731 Y10.2850 F60.00
G01 X-8.9735 Y10.3000 F60.00
G01 X-8.3900 Y10.3000 F60.00
G01 X-8.3755 Y10.3002 F60.00
G01 X-8.3484 Y10.3024 F60.00
G01 X-8.3340 Y10.3043 F60.00
G01 X-8.3198 Y10.3069 F60.00
G01 X-8.3025 Y10.3107 F60.00
G01 X-8.2885 Y10.3145 F60.00
G01 X-8.2627 Y10.3232 F60.00
G01 X-8.2493 Y10.3286 F60.00
G01 X-8.2361 Y10.3345 F60.00
G01 X-8.2203 Y10.3425 F60.00
G01 X-8.2076 Y10.3496 F60.00
G01 X-8.1847 Y10.3642 F60.00
G01 X-8.1730 Y10.3727 F60.00
G01 X-8.1591 Y10.3837 F60.00
G01 X-8.1482 Y10.3932 F60.00
G01 X-8.1354 Y10.4054 F60.00
G01 X-8.0004 Y10.5404 F60.00
G01 X-7.9904 Y10.5509 F60.00
G01 X-7.9767 Y10.5666 F60.00
G01 X-7.9621 Y10.5857 F60.00
G01 X-7.9478 Y10.6072 F60.00
G01 X-7.9375 Y10.6253 F60.00
G01 X-7.9282 Y10.6440 F60.00
G01 X-7.9200 Y10.6631 F60.00
G01 X-7.9114 Y10.6874 F60.00
G01 X-7.9057 Y10.7075 F60.00
G01 X-7.9013 Y10.7279 F60.00
G01 X-7.8980 Y10.7485 F60.00
G01 X-7.8958 Y10.7710 F60.00
G01 X-7.8950 Y10.7918 F60.00
G01 X-7.8951 Y12.0763 F60.00
G01 X-7.8958 Y12.0890 F60.00
G01 X-7.8974 Y12.1066 F60.00
G01 X-7.8993 Y12.1210 F60.00
G01 X-7.9025 Y12.1384 F60.00
G01 X-7.9057 Y12.1525 F60.00
G01 X-7.9105 Y12.1695 F60.00
G01 X-7.9149 Y12.1833 F60.00
G01 X-7.9200 Y12.1969 F60.00
G01 X-7.9309 Y12.2218 F60.00
G01 X-7.9375 Y12.2347 F60.00
G01 X-7.9462 Y12.2501 F60.00
G01 X-7.9556 Y12.2650 F60.00
G01 X-7.9639 Y12.2769 F60.00
G01 X-7.9747 Y12.2909 F60.00
G01 X-7.9830 Y12.3009 F60.00
G01 X-7.9830 Y13.4548 F60.00
G01 X-7.3654 Y14.0724 F60.00
G01 X-7.3511 Y14.0876 F60.00
G01 X-7.3347 Y14.1074 F60.00
G01 X-7.3206 Y14.1270 F60.00
G01 X-7.3080 Y14.1474 F60.00
G01 X-7.2959 Y14.1702 F60.00
G01 X-7.2862 Y14.1922 F60.00
G01 X-7.2774 Y14.2164 F60.00
G01 X-7.2707 Y14.2395 F60.00
G01 X-7.2663 Y14.2599 F60.00
G01 X-7.2638 Y14.2742 F60.00
G01 X-7.2617 Y14.2917 F60.00
G01 X-7.2604 Y14.3093 F60.00
G01 X-7.2600 Y14.3270 F60.00
G01 X-7.2600 Y17.4335 F60.00
G01 X-7.2552 Y17.4189 F60.00
G01 X-7.2494 Y17.4040 F60.00
G01 X-7.2426 Y17.3896 F60.00
G01 X-7.2350 Y17.3755 F60.00
G01 X-7.2266 Y17.3620 F60.00
G01 X-7.2173 Y17.3490 F60.00
G01 X-7.2073 Y17.3366 F60.00
G01 X-7.1965 Y17.3249 F60.00
G01 X-6.8005 Y16.9291 F60.00
G01 X-6.7909 Y16.9207 F60.00
G01 X-6.7784 Y16.9108 F60.00
G01 X-6.7680 Y16.9034 F60.00
G01 X-6.7572 Y16.8966 F60.00
G01 X-6.7461 Y16.8903 F60.00
G01 X-6.7347 Y16.8846 F60.00
G01 X-6.7230 Y16.8794 F60.00
G01 X-6.7100 Y16.8744 F60.00
G01 X-6.7101 Y14.2140 F60.00
G01 X-6.7462 Y14.2140 F60.00
G01 X-6.7653 Y14.2130 F60.00
G01 X-6.7874 Y14.2102 F60.00
G01 X-6.8093 Y14.2054 F60.00
G01 X-6.8306 Y14.1988 F60.00
G01 X-6.8513 Y14.1904 F60.00
G01 X-6.8712 Y14.1802 F60.00
G01 X-6.8821 Y14.1737 F60.00
G01 X-6.8927 Y14.1666 F60.00
G01 X-6.9104 Y14.1529 F60.00
G01 X-6.9268 Y14.1378 F60.00
G01 X-6.9356 Y14.1286 F60.00
G01 X-6.9440 Y14.1189 F60.00
G01 X-6.9574 Y14.1011 F60.00
G01 X-6.9692 Y14.0822 F60.00
G01 X-6.9752 Y14.0709 F60.00
G01 X-6.9807 Y14.0594 F60.00
G01 X-6.9889 Y14.0386 F60.00
G01 X-6.9927 Y14.0264 F60.00
G01 X-6.9960 Y14.0141 F60.00
G01 X-6.9992 Y13.9984 F60.00
G01 X-7.0014 Y13.9827 F60.00
G01 X-7.0025 Y13.9699 F60.00
G01 X-7.0030 Y13.9540 F60.00
G01 X-7.0030 Y12.4532 F60.00
G01 X-7.1126 Y12.3436 F60.00
G01 X-7.1226 Y12.3331 F60.00
G01 X-7.1343 Y12.3199 F60.00
G01 X-7.1453 Y12.3060 F60.00
G01 X-7.1556 Y12.2917 F60.00
G01 X-7.1652 Y12.2768 F60.00
G01 X-7.1755 Y12.2587 F60.00
G01 X-7.1861 Y12.2371 F60.00
G01 X-7.1959 Y12.2133 F60.00
G01 X-7.2025 Y12.1935 F60.00
G01 X-7.2087 Y12.1703 F60.00
G01 X-7.2137 Y12.1450 F60.00
G01 X-7.2163 Y12.1243 F60.00
G01 X-7.2179 Y12.1003 F60.00
G01 X-7.2181 Y8.2489 F60.00
G01 X-7.2263 Y8.2346 F60.00
G01 X-7.2347 Y8.2174 F60.00
G01 X-7.2418 Y8.1996 F60.00
G01 X-7.2467 Y8.1844 F60.00
G01 X-7.2514 Y8.1658 F60.00
G01 X-7.2542 Y8.1501 F60.00
G01 X-7.2560 Y8.1343 F60.00
G01 X-7.2570 Y8.1152 F60.00
G01 X-7.2568 Y6.1024 F60.00
G01 X-7.2557 Y6.0865 F60.00
G01 X-7.2537 Y6.0707 F60.00
G01 X-7.2507 Y6.0550 F60.00
G01 X-7.2467 Y6.0396 F60.00
G01 X-7.2418 Y6.0244 F60.00
G01 X-7.2360 Y6.0096 F60.00
G01 X-7.2292 Y5.9951 F60.00
G01 X-7.2216 Y5.9811 F60.00
G01 X-7.2132 Y5.9676 F60.00
G01 X-7.2039 Y5.9546 F60.00
G01 X-7.1939 Y5.9422 F60.00
G01 X-7.1831 Y5.9304 F60.00
G01 X-7.1716 Y5.9194 F60.00
G01 X-7.1595 Y5.9090 F60.00
G01 X-7.1467 Y5.8994 F60.00
G01 X-7.1334 Y5.8906 F60.00
G01 X-7.1224 Y5.8842 F60.00
G01 X-7.1082 Y5.8770 F60.00
G01 X-7.0965 Y5.8718 F60.00
G01 X-7.0846 Y5.8672 F60.00
G01 X-7.0694 Y5.8623 F60.00
G01 X-7.0571 Y5.8590 F60.00
G01 X-7.0446 Y5.8564 F60.00
G01 X-7.0320 Y5.8544 F60.00
G01 X-7.0161 Y5.8527 F60.00
G01 X-7.0002 Y5.8520 F60.00
G01 X-6.8492 Y5.8520 F60.00
G01 X-7.0071 Y5.6940 F60.00
G01 X-12.1699 Y5.6940 F60.00
G01 X-12.6994 Y6.2236 F60.00
G01 X-12.7146 Y6.2379 F60.00
G01 X-12.7344 Y6.2543 F60.00
G01 X-12.7513 Y6.2666 F60.00
G01 X-12.7689 Y6.2778 F60.00
G01 X-12.7899 Y6.2895 F60.00
G01 X-12.8133 Y6.3004 F60.00
G01 X-12.8327 Y6.3080 F60.00
G01 X-12.8525 Y6.3145 F60.00
G01 X-12.8775 Y6.3208 F60.00
G01 X-12.8980 Y6.3247 F60.00
G01 X-12.9155 Y6.3270 F60.00
G01 X-12.9363 Y6.3286 F60.00
G01 X-12.9540 Y6.3290 F60.00
G01 X-16.9959 Y6.3290 F60.00
G01 X-17.5470 Y6.8801 F60.00
G01 X-17.5470 Y9.7822 F60.00
G01 X-17.5474 Y9.7967 F60.00
G01 X-17.5487 Y9.8143 F60.00
G01 X-17.5508 Y9.8318 F60.00
G01 X-17.5539 Y9.8492 F60.00
G01 X-17.5577 Y9.8665 F60.00
G01 X-17.5625 Y9.8835 F60.00
G01 X-17.5680 Y9.9003 F60.00
G01 X-17.5744 Y9.9168 F60.00
G01 X-17.5815 Y9.9329 F60.00
G01 X-17.5895 Y9.9487 F60.00
G01 X-17.5982 Y9.9641 F60.00
G01 X-17.6059 Y9.9764 F60.00
G01 X-17.6159 Y9.9909 F60.00
G01 X-17.6267 Y10.0049 F60.00
G01 X-17.6381 Y10.0184 F60.00
G01 X-17.6479 Y10.0290 F60.00
G01 X-18.4167 Y10.7978 F60.00
G01 X-18.4296 Y10.8099 F60.00
G01 X-18.4456 Y10.8233 F60.00
G01 X-18.4637 Y10.8368 F60.00
G01 X-18.4812 Y10.8482 F60.00
G01 X-18.4993 Y10.8585 F60.00
G01 X-18.5151 Y10.8665 F60.00
G01 X-18.5342 Y10.8748 F60.00
G01 X-18.5520 Y10.8815 F60.00
G01 X-18.5520 Y11.2702 F60.00
G01 X-18.5530 Y11.2893 F60.00
G01 X-18.5553 Y11.3083 F60.00
G01 X-18.5598 Y11.3302 F60.00
G01 X-18.5661 Y11.3516 F60.00
G01 X-18.5743 Y11.3724 F60.00
G01 X-18.5842 Y11.3924 F60.00
G01 X-18.5958 Y11.4114 F60.00
G01 X-18.6090 Y11.4295 F60.00
G01 X-18.6172 Y11.4392 F60.00
G01 X-18.6259 Y11.4486 F60.00
G01 X-18.6422 Y11.4639 F60.00
G01 X-18.6597 Y11.4777 F60.00
G01 X-18.6756 Y11.4884 F60.00
G01 X-18.6923 Y11.4978 F60.00
G01 X-18.7125 Y11.5072 F60.00
G01 X-18.7304 Y11.5139 F60.00
G01 X-18.7519 Y11.5200 F60.00
G01 X-18.7739 Y11.5242 F60.00
G01 X-18.7929 Y11.5263 F60.00
G01 X-18.8120 Y11.5270 F60.00
G01 X-19.4520 Y11.5270 F60.00
G01 X-19.4520 Y21.0820 F60.00
G01 X-19.4522 Y21.0965 F60.00
G01 X-19.4540 Y21.1205 F60.00
G01 X-19.4558 Y21.1348 F60.00
G01 X-19.4583 Y21.1491 F60.00
G01 X-19.4635 Y21.1726 F60.00
G01 X-19.4675 Y21.1865 F60.00
G01 X-19.4719 Y21.2003 F60.00
G01 X-19.4806 Y21.2227 F60.00
G01 X-19.4865 Y21.2359 F60.00
G01 X-19.4930 Y21.2489 F60.00
G01 X-19.5048 Y21.2698 F60.00
G01 X-19.5126 Y21.2820 F60.00
G01 X-19.5209 Y21.2939 F60.00
G01 X-19.5357 Y21.3129 F60.00
G01 X-19.5452 Y21.3238 F60.00
G01 X-19.5552 Y21.3343 F60.00
G01 X-19.8208 Y21.6000 F60.00
G01 X-19.7904 Y21.6002 F60.00
G01 X-19.7682 Y21.6020 F60.00
G01 X-19.7556 Y21.6038 F60.00
G01 X-19.7430 Y21.6063 F60.00
G01 X-19.7307 Y21.6094 F60.00
G01 X-19.7184 Y21.6131 F60.00
G01 X-19.7064 Y21.6174 F60.00
G01 X-19.6946 Y21.6223 F60.00
G01 X-19.6831 Y21.6278 F60.00
G01 X-19.6718 Y21.6338 F60.00
G01 X-19.6609 Y21.6403 F60.00
G01 X-19.6503 Y21.6474 F60.00
G01 X-19.6400 Y21.6550 F60.00
G01 X-19.6302 Y21.6631 F60.00
G01 X-19.6207 Y21.6717 F60.00
G01 X-19.6117 Y21.6807 F60.00
G01 X-19.6031 Y21.6902 F60.00
G01 X-19.5950 Y21.7000 F60.00
G01 X-19.5874 Y21.7103 F60.00
G01 X-19.5803 Y21.7209 F60.00
G01 X-19.5738 Y21.7318 F60.00
G01 X-19.5678 Y21.7431 F60.00
G01 X-19.5623 Y21.7546 F60.00
G01 X-19.5574 Y21.7664 F60.00
G01 X-19.5531 Y21.7784 F60.00
G01 X-19.5494 Y21.7907 F60.00
G01 X-19.5463 Y21.8030 F60.00
G01 X-19.5438 Y21.8156 F60.00
G01 X-19.5420 Y21.8282 F60.00
G01 X-19.5405 Y21.8441 F60.00
G01 X-19.5400 Y21.8600 F60.00
G01 X-19.5400 Y23.8600 F60.00
G01 X-19.5403 Y23.8728 F60.00
G01 X-19.5416 Y23.8887 F60.00
G01 X-19.5438 Y23.9044 F60.00
G01 X-19.5470 Y23.9201 F60.00
G01 X-19.5503 Y23.9324 F60.00
G01 X-19.5552 Y23.9476 F60.00
G01 X-19.5610 Y23.9624 F60.00
G01 X-19.5663 Y23.9740 F60.00
G01 X-19.5738 Y23.9882 F60.00
G01 X-19.5821 Y24.0018 F60.00
G01 X-19.5912 Y24.0149 F60.00
G01 X-19.6011 Y24.0274 F60.00
G01 X-19.6117 Y24.0393 F60.00
G01 X-19.6207 Y24.0483 F60.00
G01 X-19.6326 Y24.0589 F60.00
G01 X-19.6451 Y24.0688 F60.00
G01 X-19.6582 Y24.0779 F60.00
G01 X-19.6746 Y24.0878 F60.00
G01 X-19.6888 Y24.0950 F60.00
G01 X-19.7064 Y24.1026 F60.00
G01 X-19.7215 Y24.1079 F60.00
G01 X-19.7368 Y24.1122 F60.00
G01 X-19.7556 Y24.1162 F60.00
G01 X-19.7745 Y24.1187 F60.00
G01 X-19.7936 Y24.1199 F60.00
G01 X-21.3032 Y24.1200 F60.00
G01 X-21.3223 Y24.1190 F60.00
G01 X-21.3381 Y24.1172 F60.00
G01 X-21.3538 Y24.1144 F60.00
G01 X-21.3724 Y24.1097 F60.00
G01 X-21.3876 Y24.1048 F60.00
G01 X-21.4024 Y24.0990 F60.00
G01 X-21.4169 Y24.0922 F60.00
G01 X-21.4309 Y24.0846 F60.00
G01 X-21.4444 Y24.0762 F60.00
G01 X-21.4574 Y24.0669 F60.00
G01 X-21.4698 Y24.0569 F60.00
G01 X-21.4816 Y24.0461 F60.00
G01 X-21.4926 Y24.0346 F60.00
G01 X-21.5030 Y24.0225 F60.00
G01 X-21.5126 Y24.0097 F60.00
G01 X-21.5214 Y23.9964 F60.00
G01 X-21.5293 Y23.9826 F60.00
G01 X-21.5364 Y23.9683 F60.00
G01 X-21.5426 Y23.9536 F60.00
G01 X-21.5479 Y23.9385 F60.00
G01 X-21.5530 Y23.9201 F60.00
G01 X-21.5567 Y23.9013 F60.00
G01 X-21.5587 Y23.8855 F60.00
G01 X-21.5599 Y23.8664 F60.00
G01 X-21.5600 Y23.5221 F60.00
G01 X-21.5837 Y23.5443 F60.00
G01 X-21.6155 Y23.5717 F60.00
G01 X-21.6511 Y23.5995 F60.00
G01 X-21.6854 Y23.6238 F60.00
G01 X-21.7208 Y23.6464 F60.00
G01 X-21.7318 Y23.6529 F60.00
G01 X-21.7656 Y23.6720 F60.00
G01 X-21.8031 Y23.6909 F60.00
G01 X-21.8414 Y23.7081 F60.00
G01 X-21.8532 Y23.7130 F60.00
G01 X-21.8894 Y23.7269 F60.00
G01 X-21.9323 Y23.7411 F60.00
G01 X-21.9759 Y23.7531 F60.00
G01 X-22.0137 Y23.7617 F60.00
G01 X-22.0582 Y23.7698 F60.00
G01 X-22.0708 Y23.7716 F60.00
G01 X-22.1094 Y23.7763 F60.00
G01 X-22.1481 Y23.7792 F60.00
G01 X-22.1608 Y23.7799 F60.00
G01 X-22.1996 Y23.7807 F60.00
G01 X-23.5204 Y23.7807 F60.00
G01 X-23.5688 Y23.7794 F60.00
G01 X-23.6106 Y23.7763 F60.00
G01 X-23.6492 Y23.7716 F60.00
G01 X-23.6618 Y23.7698 F60.00
G01 X-23.7000 Y23.7630 F60.00
G01 X-23.7379 Y23.7546 F60.00
G01 X-23.7503 Y23.7515 F60.00
G01 X-23.7877 Y23.7411 F60.00
G01 X-23.8246 Y23.7290 F60.00
G01 X-23.8366 Y23.7247 F60.00
G01 X-23.8727 Y23.7106 F60.00
G01 X-23.9083 Y23.6950 F60.00
G01 X-23.9198 Y23.6895 F60.00
G01 X-23.9544 Y23.6720 F60.00
G01 X-23.9910 Y23.6514 F60.00
G01 X-24.0266 Y23.6290 F60.00
G01 X-24.0372 Y23.6219 F60.00
G01 X-24.0689 Y23.5995 F60.00
G01 X-24.0995 Y23.5757 F60.00
G01 X-24.1094 Y23.5676 F60.00
G01 X-24.1387 Y23.5422 F60.00
G01 X-24.1715 Y23.5111 F60.00
G01 X-24.1983 Y23.4830 F60.00
G01 X-24.2068 Y23.4735 F60.00
G01 X-24.2321 Y23.4441 F60.00
G01 X-24.2599 Y23.4085 F60.00
G01 X-24.2823 Y23.3768 F60.00
G01 X-24.2894 Y23.3662 F60.00
G01 X-24.3101 Y23.3333 F60.00
G01 X-24.3293 Y23.2996 F60.00
G01 X-24.3354 Y23.2884 F60.00
G01 X-24.3527 Y23.2537 F60.00
G01 X-24.3677 Y23.2200 F60.00
G01 X-26.6732 Y23.2200 F60.00
G01 X-26.6877 Y23.2196 F60.00
G01 X-26.7053 Y23.2183 F60.00
G01 X-26.7197 Y23.2166 F60.00
G01 X-26.7340 Y23.2143 F60.00
G01 X-26.7606 Y23.2085 F60.00
G01 X-26.7745 Y23.2045 F60.00
G01 X-26.7913 Y23.1990 F60.00
G01 X-26.8078 Y23.1926 F60.00
G01 X-26.8268 Y23.1841 F60.00
G01 X-26.8453 Y23.1745 F60.00
G01 X-26.8647 Y23.1629 F60.00
G01 X-26.8819 Y23.1511 F60.00
G01 X-26.8959 Y23.1403 F60.00
G01 X-26.9118 Y23.1268 F60.00
G01 X-26.9246 Y23.1146 F60.00
G01 X-29.4646 Y20.5746 F60.00
G01 X-29.4746 Y20.5641 F60.00
G01 X-29.4842 Y20.5533 F60.00
G01 X-29.5011 Y20.5319 F60.00
G01 X-29.5094 Y20.5200 F60.00
G01 X-29.5188 Y20.5051 F60.00
G01 X-29.5260 Y20.4925 F60.00
G01 X-29.5327 Y20.4797 F60.00
G01 X-29.5414 Y20.4607 F60.00
G01 X-29.5490 Y20.4413 F60.00
G01 X-29.5545 Y20.4245 F60.00
G01 X-29.5600 Y20.4044 F60.00
G01 X-29.5637 Y20.3871 F60.00
G01 X-29.5670 Y20.3665 F60.00
G01 X-29.5692 Y20.3440 F60.00
G01 X-29.5700 Y20.3232 F60.00
G01 X-29.5701 Y16.2624 F60.00
G01 X-29.9720 Y16.2624 F60.00
G01 X-30.0222 Y16.2611 F60.00
G01 X-30.0722 Y16.2575 F60.00
G01 X-30.1220 Y16.2513 F60.00
G01 X-30.1715 Y16.2427 F60.00
G01 X-30.2173 Y16.2325 F60.00
G01 X-30.2688 Y16.2184 F60.00
G01 X-30.3104 Y16.2047 F60.00
G01 X-30.3224 Y16.2004 F60.00
G01 X-30.3632 Y16.1846 F60.00
G01 X-30.4033 Y16.1669 F60.00
G01 X-30.4149 Y16.1614 F60.00
G01 X-30.4539 Y16.1417 F60.00
G01 X-30.4976 Y16.1169 F60.00
G01 X-30.5347 Y16.0936 F60.00
G01 X-30.5453 Y16.0865 F60.00
G01 X-30.5861 Y16.0573 F60.00
G01 X-30.6206 Y16.0303 F60.00
G01 X-30.6538 Y16.0018 F60.00
G01 X-30.6633 Y15.9932 F60.00
G01 X-30.6949 Y15.9629 F60.00
G01 X-30.7252 Y15.9313 F60.00
G01 X-30.7338 Y15.9218 F60.00
G01 X-30.7623 Y15.8886 F60.00
G01 X-30.7893 Y15.8541 F60.00
G01 X-30.7969 Y15.8439 F60.00
G01 X-30.8221 Y15.8080 F60.00
G01 X-30.8456 Y15.7710 F60.00
G01 X-30.8521 Y15.7601 F60.00
G01 X-30.8737 Y15.7219 F60.00
G01 X-30.8934 Y15.6829 F60.00
G01 X-30.8989 Y15.6713 F60.00
G01 X-30.9166 Y15.6312 F60.00
G01 X-30.9324 Y15.5904 F60.00
G01 X-30.9367 Y15.5784 F60.00
G01 X-30.9504 Y15.5368 F60.00
G01 X-30.9621 Y15.4946 F60.00
G01 X-30.9652 Y15.4822 F60.00
G01 X-30.9747 Y15.4395 F60.00
G01 X-30.9823 Y15.3963 F60.00
G01 X-30.9842 Y15.3837 F60.00
G01 X-30.9895 Y15.3402 F60.00
G01 X-30.9928 Y15.2965 F60.00
G01 X-30.9934 Y15.2838 F60.00
G01 X-30.9944 Y15.2400 F60.00
G01 X-30.9934 Y15.1962 F60.00
G01 X-30.9928 Y15.1835 F60.00
G01 X-30.9895 Y15.1398 F60.00
G01 X-30.9842 Y15.0963 F60.00
G01 X-30.9753 Y15.0437 F60.00
G01 X-30.9652 Y14.9978 F60.00
G01 X-30.9621 Y14.9854 F60.00
G01 X-30.9504 Y14.9432 F60.00
G01 X-30.9367 Y14.9016 F60.00
G01 X-30.9324 Y14.8896 F60.00
G01 X-30.9166 Y14.8488 F60.00
G01 X-30.8989 Y14.8087 F60.00
G01 X-30.8934 Y14.7971 F60.00
G01 X-30.8737 Y14.7581 F60.00
G01 X-30.8521 Y14.7199 F60.00
G01 X-30.8456 Y14.7090 F60.00
G01 X-30.8221 Y14.6720 F60.00
G01 X-30.7969 Y14.6361 F60.00
G01 X-30.7893 Y14.6259 F60.00
G01 X-30.7623 Y14.5914 F60.00
G01 X-30.7295 Y14.5534 F60.00
G01 X-30.6994 Y14.5216 F60.00
G01 X-30.6904 Y14.5126 F60.00
G01 X-30.6586 Y14.4825 F60.00
G01 X-30.6255 Y14.4538 F60.00
G01 X-30.6156 Y14.4457 F60.00
G01 X-30.5810 Y14.4188 F60.00
G01 X-30.5453 Y14.3935 F60.00
G01 X-30.5347 Y14.3864 F60.00
G01 X-30.4976 Y14.3631 F60.00
G01 X-30.4595 Y14.3414 F60.00
G01 X-30.4483 Y14.3354 F60.00
G01 X-30.4091 Y14.3158 F60.00
G01 X-30.3691 Y14.2980 F60.00
G01 X-30.3573 Y14.2931 F60.00
G01 X-30.3164 Y14.2774 F60.00
G01 X-30.2718 Y14.2626 F60.00
G01 X-30.2266 Y14.2499 F60.00
G01 X-30.2142 Y14.2468 F60.00
G01 X-30.1715 Y14.2373 F60.00
G01 X-30.1220 Y14.2287 F60.00
G01 X-30.0786 Y14.2232 F60.00
G01 X-30.0659 Y14.2220 F60.00
G01 X-30.0222 Y14.2189 F60.00
G01 X-29.9784 Y14.2177 F60.00
G01 X-28.4480 Y14.2176 F60.00
G01 X-28.3978 Y14.2189 F60.00
G01 X-28.3478 Y14.2225 F60.00
G01 X-28.2980 Y14.2287 F60.00
G01 X-28.2485 Y14.2373 F60.00
G01 X-28.1996 Y14.2483 F60.00
G01 X-28.1512 Y14.2616 F60.00
G01 X-28.1036 Y14.2774 F60.00
G01 X-28.0568 Y14.2954 F60.00
G01 X-28.0167 Y14.3131 F60.00
G01 X-27.9717 Y14.3354 F60.00
G01 X-27.9605 Y14.3414 F60.00
G01 X-27.9197 Y14.3647 F60.00
G01 X-27.8747 Y14.3935 F60.00
G01 X-27.8390 Y14.4188 F60.00
G01 X-27.7994 Y14.4497 F60.00
G01 X-27.7614 Y14.4825 F60.00
G01 X-27.7251 Y14.5171 F60.00
G01 X-27.6905 Y14.5534 F60.00
G01 X-27.6577 Y14.5914 F60.00
G01 X-27.6268 Y14.6310 F60.00
G01 X-27.5979 Y14.6720 F60.00
G01 X-27.5711 Y14.7144 F60.00
G01 X-27.5463 Y14.7581 F60.00
G01 X-27.5238 Y14.8029 F60.00
G01 X-27.5060 Y14.8429 F60.00
G01 X-27.4865 Y14.8926 F60.00
G01 X-27.4716 Y14.9371 F60.00
G01 X-27.4679 Y14.9493 F60.00
G01 X-27.4548 Y14.9978 F60.00
G01 X-27.4453 Y15.0405 F60.00
G01 X-27.4362 Y15.0931 F60.00
G01 X-27.4305 Y15.1398 F60.00
G01 X-27.4272 Y15.1835 F60.00
G01 X-27.4266 Y15.1962 F60.00
G01 X-27.4257 Y15.2464 F60.00
G01 X-27.4269 Y15.2902 F60.00
G01 X-27.4300 Y15.3339 F60.00
G01 X-27.4312 Y15.3466 F60.00
G01 X-27.4367 Y15.3900 F60.00
G01 X-27.4453 Y15.4395 F60.00
G01 X-27.4563 Y15.4884 F60.00
G01 X-27.4679 Y15.5307 F60.00
G01 X-27.4716 Y15.5429 F60.00
G01 X-27.4854 Y15.5844 F60.00
G01 X-27.5011 Y15.6253 F60.00
G01 X-27.5060 Y15.6371 F60.00
G01 X-27.5238 Y15.6771 F60.00
G01 X-27.5434 Y15.7163 F60.00
G01 X-27.5494 Y15.7275 F60.00
G01 X-27.5711 Y15.7656 F60.00
G01 X-27.5944 Y15.8027 F60.00
G01 X-27.6015 Y15.8133 F60.00
G01 X-27.6268 Y15.8490 F60.00
G01 X-27.6577 Y15.8886 F60.00
G01 X-27.6862 Y15.9218 F60.00
G01 X-27.6948 Y15.9313 F60.00
G01 X-27.7251 Y15.9629 F60.00
G01 X-27.7567 Y15.9932 F60.00
G01 X-27.7662 Y16.0018 F60.00
G01 X-27.7994 Y16.0303 F60.00
G01 X-27.8390 Y16.0612 F60.00
G01 X-27.8800 Y16.0901 F60.00
G01 X-27.9170 Y16.1136 F60.00
G01 X-27.9279 Y16.1201 F60.00
G01 X-27.9717 Y16.1446 F60.00
G01 X-28.0109 Y16.1642 F60.00
G01 X-28.0509 Y16.1820 F60.00
G01 X-28.0627 Y16.1869 F60.00
G01 X-28.1036 Y16.2026 F60.00
G01 X-28.1512 Y16.2184 F60.00
G01 X-28.1996 Y16.2317 F60.00
G01 X-28.2485 Y16.2427 F60.00
G01 X-28.2980 Y16.2513 F60.00
G01 X-28.3414 Y16.2568 F60.00
G01 X-28.3541 Y16.2580 F60.00
G01 X-28.4010 Y16.2613 F60.00
G01 X-28.4480 Y16.2624 F60.00
G01 X-28.8500 Y16.2624 F60.00
G01 X-28.8500 Y20.1709 F60.00
G01 X-28.2000 Y20.8208 F60.00
G01 X-28.2000 Y19.6850 F60.00
G01 X-28.1990 Y19.6627 F60.00
G01 X-28.1962 Y19.6406 F60.00
G01 X-28.1914 Y19.6187 F60.00
G01 X-28.1848 Y19.5974 F60.00
G01 X-28.1777 Y19.5796 F60.00
G01 X-28.1678 Y19.5596 F60.00
G01 X-28.1562 Y19.5406 F60.00
G01 X-28.1450 Y19.5250 F60.00
G01 X-28.1326 Y19.5104 F60.00
G01 X-28.1170 Y19.4945 F60.00
G01 X-28.1000 Y19.4800 F60.00
G01 X-28.0818 Y19.4671 F60.00
G01 X-28.0626 Y19.4557 F60.00
G01 X-28.0454 Y19.4473 F60.00
G01 X-28.0276 Y19.4402 F60.00
G01 X-28.0063 Y19.4336 F60.00
G01 X-27.9844 Y19.4288 F60.00
G01 X-27.9655 Y19.4263 F60.00
G01 X-27.9528 Y19.4253 F60.00
G01 X-27.9400 Y19.4250 F60.00
G01 X-25.4000 Y19.4250 F60.00
G01 X-25.3809 Y19.4257 F60.00
G01 X-25.3619 Y19.4278 F60.00
G01 X-25.3462 Y19.4306 F60.00
G01 X-25.3276 Y19.4353 F60.00
G01 X-25.3124 Y19.4402 F60.00
G01 X-25.2976 Y19.4460 F60.00
G01 X-25.2831 Y19.4528 F60.00
G01 X-25.2691 Y19.4604 F60.00
G01 X-25.2556 Y19.4688 F60.00
G01 X-25.2400 Y19.4800 F60.00
G01 X-25.2278 Y19.4902 F60.00
G01 X-25.2162 Y19.5012 F60.00
G01 X-25.2031 Y19.5152 F60.00
G01 X-25.1931 Y19.5276 F60.00
G01 X-25.1838 Y19.5406 F60.00
G01 X-25.1754 Y19.5541 F60.00
G01 X-25.1678 Y19.5681 F60.00
G01 X-25.1598 Y19.5855 F60.00
G01 X-25.1521 Y19.6065 F60.00
G01 X-25.1463 Y19.6280 F60.00
G01 X-25.1424 Y19.6500 F60.00
G01 X-25.1403 Y19.6722 F60.00
G01 X-25.1400 Y19.6850 F60.00
G01 X-25.1400 Y19.9600 F60.00
G01 X-24.3677 Y19.9600 F60.00
G01 X-24.3527 Y19.9263 F60.00
G01 X-24.3354 Y19.8916 F60.00
G01 X-24.3133 Y19.8522 F60.00
G01 X-24.3068 Y19.8412 F60.00
G01 X-24.2860 Y19.8085 F60.00
G01 X-24.2599 Y19.7715 F60.00
G01 X-24.2321 Y19.7359 F60.00
G01 X-24.2068 Y19.7065 F60.00
G01 X-24.1983 Y19.6970 F60.00
G01 X-24.1669 Y19.6645 F60.00
G01 X-24.1387 Y19.6378 F60.00
G01 X-24.1094 Y19.6124 F60.00
G01 X-24.0995 Y19.6043 F60.00
G01 X-24.0689 Y19.5805 F60.00
G01 X-24.0319 Y19.5544 F60.00
G01 X-23.9937 Y19.5303 F60.00
G01 X-23.9600 Y19.5111 F60.00
G01 X-23.9488 Y19.5050 F60.00
G01 X-23.9141 Y19.4877 F60.00
G01 X-23.8786 Y19.4719 F60.00
G01 X-23.8366 Y19.4553 F60.00
G01 X-23.8246 Y19.4510 F60.00
G01 X-23.7877 Y19.4389 F60.00
G01 X-23.7441 Y19.4269 F60.00
G01 X-23.7000 Y19.4170 F60.00
G01 X-23.6618 Y19.4102 F60.00
G01 X-23.6492 Y19.4084 F60.00
G01 X-23.6106 Y19.4037 F60.00
G01 X-23.5719 Y19.4008 F60.00
G01 X-23.5236 Y19.3993 F60.00
G01 X-22.1996 Y19.3993 F60.00
G01 X-22.1544 Y19.4004 F60.00
G01 X-22.1094 Y19.4037 F60.00
G01 X-22.0708 Y19.4084 F60.00
G01 X-22.0582 Y19.4102 F60.00
G01 X-22.0200 Y19.4170 F60.00
G01 X-21.9759 Y19.4269 F60.00
G01 X-21.9323 Y19.4389 F60.00
G01 X-21.8954 Y19.4510 F60.00
G01 X-21.8532 Y19.4670 F60.00
G01 X-21.8414 Y19.4719 F60.00
G01 X-21.8059 Y19.4877 F60.00
G01 X-21.7656 Y19.5080 F60.00
G01 X-21.7263 Y19.5303 F60.00
G01 X-21.6934 Y19.5510 F60.00
G01 X-21.6828 Y19.5581 F60.00
G01 X-21.6486 Y19.5824 F60.00
G01 X-21.6155 Y19.6083 F60.00
G01 X-21.5861 Y19.6336 F60.00
G01 X-21.5766 Y19.6421 F60.00
G01 X-21.5441 Y19.6735 F60.00
G01 X-21.5174 Y19.7017 F60.00
G01 X-21.4879 Y19.7359 F60.00
G01 X-21.4639 Y19.7664 F60.00
G01 X-21.4563 Y19.7767 F60.00
G01 X-21.4340 Y19.8085 F60.00
G01 X-21.4099 Y19.8467 F60.00
G01 X-21.3876 Y19.8860 F60.00
G01 X-21.3701 Y19.9206 F60.00
G01 X-21.3646 Y19.9321 F60.00
G01 X-21.3490 Y19.9677 F60.00
G01 X-21.3327 Y20.0098 F60.00
G01 X-21.3204 Y20.0466 F60.00
G01 X-21.3081 Y20.0901 F60.00
G01 X-21.3050 Y20.1025 F60.00
G01 X-21.2966 Y20.1404 F60.00
G01 X-21.2884 Y20.1881 F60.00
G01 X-21.2833 Y20.2298 F60.00
G01 X-21.2804 Y20.2685 F60.00
G01 X-21.2797 Y20.2812 F60.00
G01 X-21.2789 Y20.3200 F60.00
G01 X-21.2797 Y20.3588 F60.00
G01 X-21.2828 Y20.4039 F60.00
G01 X-21.2884 Y20.4519 F60.00
G01 X-21.2954 Y20.4934 F60.00
G01 X-21.2979 Y20.5059 F60.00
G01 X-21.3065 Y20.5437 F60.00
G01 X-21.3185 Y20.5873 F60.00
G01 X-21.3327 Y20.6302 F60.00
G01 X-21.3490 Y20.6723 F60.00
G01 X-21.3673 Y20.7137 F60.00
G01 X-21.3876 Y20.7540 F60.00
G01 X-21.4099 Y20.7933 F60.00
G01 X-21.4340 Y20.8315 F60.00
G01 X-21.4601 Y20.8685 F60.00
G01 X-21.4879 Y20.9041 F60.00
G01 X-21.5174 Y20.9383 F60.00
G01 X-21.5485 Y20.9711 F60.00
G01 X-21.5813 Y21.0022 F60.00
G01 X-21.6155 Y21.0317 F60.00
G01 X-21.6511 Y21.0595 F60.00
G01 X-21.6828 Y21.0819 F60.00
G01 X-21.6934 Y21.0890 F60.00
G01 X-21.7263 Y21.1097 F60.00
G01 X-21.7684 Y21.1335 F60.00
G01 X-21.8059 Y21.1523 F60.00
G01 X-21.8414 Y21.1681 F60.00
G01 X-21.8532 Y21.1730 F60.00
G01 X-21.8924 Y21.1880 F60.00
G01 X-21.9385 Y21.2029 F60.00
G01 X-21.9821 Y21.2146 F60.00
G01 X-22.0200 Y21.2230 F60.00
G01 X-22.0582 Y21.2298 F60.00
G01 X-22.0708 Y21.2316 F60.00
G01 X-22.1157 Y21.2368 F60.00
G01 X-22.1544 Y21.2396 F60.00
G01 X-22.1964 Y21.2407 F60.00
G01 X-23.5236 Y21.2407 F60.00
G01 X-23.5656 Y21.2396 F60.00
G01 X-23.6043 Y21.2368 F60.00
G01 X-23.6170 Y21.2356 F60.00
G01 X-23.6555 Y21.2308 F60.00
G01 X-23.6938 Y21.2242 F60.00
G01 X-23.7410 Y21.2139 F60.00
G01 X-23.7877 Y21.2011 F60.00
G01 X-23.8306 Y21.1869 F60.00
G01 X-23.8727 Y21.1706 F60.00
G01 X-23.9083 Y21.1550 F60.00
G01 X-23.9198 Y21.1495 F60.00
G01 X-23.9600 Y21.1289 F60.00
G01 X-23.9937 Y21.1097 F60.00
G01 X-24.0266 Y21.0890 F60.00
G01 X-24.0372 Y21.0819 F60.00
G01 X-24.0689 Y21.0595 F60.00
G01 X-24.1070 Y21.0297 F60.00
G01 X-24.1434 Y20.9979 F60.00
G01 X-24.1715 Y20.9711 F60.00
G01 X-24.1983 Y20.9430 F60.00
G01 X-24.2068 Y20.9335 F60.00
G01 X-24.2321 Y20.9041 F60.00
G01 X-24.2599 Y20.8685 F60.00
G01 X-24.2860 Y20.8315 F60.00
G01 X-24.3068 Y20.7988 F60.00
G01 X-24.3133 Y20.7878 F60.00
G01 X-24.3354 Y20.7484 F60.00
G01 X-24.3527 Y20.7137 F60.00
G01 X-24.3677 Y20.6800 F60.00
G01 X-25.1400 Y20.6800 F60.00
G01 X-25.1400 Y20.9550 F60.00
G01 X-25.1403 Y20.9678 F60.00
G01 X-25.1424 Y20.9900 F60.00
G01 X-25.1463 Y21.0120 F60.00
G01 X-25.1521 Y21.0335 F60.00
G01 X-25.1598 Y21.0545 F60.00
G01 X-25.1678 Y21.0719 F60.00
G01 X-25.1754 Y21.0859 F60.00
G01 X-25.1838 Y21.0994 F60.00
G01 X-25.1931 Y21.1124 F60.00
G01 X-25.2031 Y21.1248 F60.00
G01 X-25.2139 Y21.1366 F60.00
G01 X-25.2254 Y21.1476 F60.00
G01 X-25.2400 Y21.1600 F60.00
G01 X-25.2529 Y21.1694 F60.00
G01 X-25.2663 Y21.1780 F60.00
G01 X-25.2831 Y21.1872 F60.00
G01 X-25.2976 Y21.1940 F60.00
G01 X-25.3124 Y21.1998 F60.00
G01 X-25.3276 Y21.2047 F60.00
G01 X-25.3430 Y21.2087 F60.00
G01 X-25.3587 Y21.2117 F60.00
G01 X-25.3809 Y21.2143 F60.00
G01 X-25.4000 Y21.2150 F60.00
G01 X-27.8058 Y21.2150 F60.00
G01 X-26.5209 Y22.5000 F60.00
G01 X-24.3677 Y22.5000 F60.00
G01 X-24.3527 Y22.4663 F60.00
G01 X-24.3354 Y22.4316 F60.00
G01 X-24.3293 Y22.4204 F60.00
G01 X-24.3101 Y22.3867 F60.00
G01 X-24.2860 Y22.3485 F60.00
G01 X-24.2637 Y22.3167 F60.00
G01 X-24.2561 Y22.3064 F60.00
G01 X-24.2321 Y22.2759 F60.00
G01 X-24.2068 Y22.2465 F60.00
G01 X-24.1983 Y22.2370 F60.00
G01 X-24.1715 Y22.2089 F60.00
G01 X-24.1387 Y22.1778 F60.00
G01 X-24.1094 Y22.1524 F60.00
G01 X-24.0995 Y22.1443 F60.00
G01 X-24.0689 Y22.1205 F60.00
G01 X-24.0372 Y22.0981 F60.00
G01 X-24.0266 Y22.0910 F60.00
G01 X-23.9910 Y22.0686 F60.00
G01 X-23.9544 Y22.0480 F60.00
G01 X-23.9198 Y22.0305 F60.00
G01 X-23.9083 Y22.0250 F60.00
G01 X-23.8727 Y22.0094 F60.00
G01 X-23.8366 Y21.9953 F60.00
G01 X-23.8246 Y21.9910 F60.00
G01 X-23.7877 Y21.9789 F60.00
G01 X-23.7503 Y21.9685 F60.00
G01 X-23.7379 Y21.9654 F60.00
G01 X-23.7000 Y21.9570 F60.00
G01 X-23.6618 Y21.9502 F60.00
G01 X-23.6492 Y21.9484 F60.00
G01 X-23.6106 Y21.9437 F60.00
G01 X-23.5688 Y21.9406 F60.00
G01 X-23.5204 Y21.9393 F60.00
G01 X-22.1996 Y21.9393 F60.00
G01 X-22.1608 Y21.9401 F60.00
G01 X-22.1481 Y21.9408 F60.00
G01 X-22.1094 Y21.9437 F60.00
G01 X-22.0708 Y21.9484 F60.00
G01 X-22.0582 Y21.9502 F60.00
G01 X-22.0137 Y21.9583 F60.00
G01 X-21.9759 Y21.9669 F60.00
G01 X-21.9323 Y21.9789 F60.00
G01 X-21.8894 Y21.9931 F60.00
G01 X-21.8532 Y22.0070 F60.00
G01 X-21.8414 Y22.0119 F60.00
G01 X-21.8031 Y22.0291 F60.00
G01 X-21.7656 Y22.0480 F60.00
G01 X-21.7318 Y22.0671 F60.00
G01 X-21.7208 Y22.0736 F60.00
G01 X-21.6854 Y22.0962 F60.00
G01 X-21.6511 Y22.1205 F60.00
G01 X-21.6155 Y22.1483 F60.00
G01 X-21.5837 Y22.1757 F60.00
G01 X-21.5600 Y22.1979 F60.00
G01 X-21.5600 Y21.8568 F60.00
G01 X-21.5590 Y21.8377 F60.00
G01 X-21.5567 Y21.8187 F60.00
G01 X-21.5522 Y21.7968 F60.00
G01 X-21.5459 Y21.7754 F60.00
G01 X-21.5377 Y21.7546 F60.00
G01 X-21.5278 Y21.7346 F60.00
G01 X-21.5162 Y21.7156 F60.00
G01 X-21.5050 Y21.7000 F60.00
G01 X-21.4905 Y21.6830 F60.00
G01 X-21.4746 Y21.6674 F60.00
G01 X-21.4600 Y21.6550 F60.00
G01 X-21.4444 Y21.6438 F60.00
G01 X-21.4282 Y21.6338 F60.00
G01 X-21.4083 Y21.6236 F60.00
G01 X-21.3876 Y21.6152 F60.00
G01 X-21.3693 Y21.6094 F60.00
G01 X-21.3507 Y21.6050 F60.00
G01 X-21.3287 Y21.6016 F60.00
G01 X-21.3128 Y21.6003 F60.00
G01 X-21.3000 Y21.6000 F60.00
G01 X-20.8350 Y21.6000 F60.00
G01 X-20.8189 Y21.5806 F60.00
G01 X-20.8046 Y21.5654 F60.00
G01 X-20.1720 Y20.9329 F60.00
G01 X-20.1721 Y11.5270 F60.00
G01 X-20.8120 Y11.5270 F60.00
G01 X-20.8343 Y11.5260 F60.00
G01 X-20.8533 Y11.5237 F60.00
G01 X-20.8690 Y11.5207 F60.00
G01 X-20.8844 Y11.5167 F60.00
G01 X-20.8996 Y11.5118 F60.00
G01 X-20.9115 Y11.5072 F60.00
G01 X-20.9260 Y11.5007 F60.00
G01 X-20.9402 Y11.4932 F60.00
G01 X-20.9538 Y11.4849 F60.00
G01 X-20.9669 Y11.4758 F60.00
G01 X-20.9794 Y11.4659 F60.00
G01 X-20.9890 Y11.4575 F60.00
G01 X-21.0003 Y11.4463 F60.00
G01 X-21.0109 Y11.4344 F60.00
G01 X-21.0208 Y11.4219 F60.00
G01 X-21.0299 Y11.4088 F60.00
G01 X-21.0382 Y11.3952 F60.00
G01 X-21.0457 Y11.3810 F60.00
G01 X-21.0522 Y11.3665 F60.00
G01 X-21.0568 Y11.3546 F60.00
G01 X-21.0608 Y11.3425 F60.00
G01 X-21.0650 Y11.3271 F60.00
G01 X-21.0676 Y11.3146 F60.00
G01 X-21.0700 Y11.2988 F60.00
G01 X-21.0713 Y11.2861 F60.00
G01 X-21.0720 Y11.2702 F60.00
G01 X-21.0720 Y9.7670 F60.00
G01 X-21.0710 Y9.7447 F60.00
G01 X-21.0696 Y9.7320 F60.00
G01 X-21.0676 Y9.7194 F60.00
G01 X-21.0626 Y9.6977 F60.00
G01 X-21.0557 Y9.6764 F60.00
G01 X-21.0484 Y9.6587 F60.00
G01 X-21.0382 Y9.6388 F60.00
G01 X-21.0264 Y9.6199 F60.00
G01 X-21.0150 Y9.6045 F60.00
G01 X-21.0025 Y9.5900 F60.00
G01 X-20.9866 Y9.5744 F60.00
G01 X-20.9720 Y9.5620 F60.00
G01 X-20.9538 Y9.5491 F60.00
G01 X-20.9346 Y9.5377 F60.00
G01 X-20.9174 Y9.5293 F60.00
G01 X-20.8996 Y9.5222 F60.00
G01 X-20.8783 Y9.5156 F60.00
G01 X-20.8564 Y9.5108 F60.00
G01 X-20.8375 Y9.5083 F60.00
G01 X-20.8248 Y9.5073 F60.00
G01 X-20.8120 Y9.5070 F60.00
G01 X-18.8120 Y9.5070 F60.00
G01 X-18.7929 Y9.5077 F60.00
G01 X-18.7770 Y9.5094 F60.00
G01 X-18.7613 Y9.5120 F60.00
G01 X-18.7457 Y9.5156 F60.00
G01 X-18.7304 Y9.5201 F60.00
G01 X-18.7155 Y9.5256 F60.00
G01 X-18.7008 Y9.5320 F60.00
G01 X-18.6866 Y9.5392 F60.00
G01 X-18.6756 Y9.5456 F60.00
G01 X-18.6623 Y9.5544 F60.00
G01 X-18.6495 Y9.5640 F60.00
G01 X-18.6374 Y9.5744 F60.00
G01 X-18.6259 Y9.5854 F60.00
G01 X-18.6172 Y9.5948 F60.00
G01 X-18.6070 Y9.6070 F60.00
G01 X-18.5976 Y9.6199 F60.00
G01 X-18.5890 Y9.6333 F60.00
G01 X-18.5827 Y9.6444 F60.00
G01 X-18.5770 Y9.6558 F60.00
G01 X-18.5718 Y9.6675 F60.00
G01 X-18.5672 Y9.6794 F60.00
G01 X-18.5623 Y9.6946 F60.00
G01 X-18.5590 Y9.7069 F60.00
G01 X-18.5564 Y9.7194 F60.00
G01 X-18.5544 Y9.7320 F60.00
G01 X-18.5527 Y9.7479 F60.00
G01 X-18.5520 Y9.7638 F60.00
G01 X-18.5520 Y9.9148 F60.00
G01 X-18.2670 Y9.6299 F60.00
G01 X-18.2670 Y6.7310 F60.00
G01 X-18.2664 Y6.7101 F60.00
G01 X-18.2646 Y6.6894 F60.00
G01 X-18.2613 Y6.6670 F60.00
G01 X-18.2570 Y6.6466 F60.00
G01 X-18.2515 Y6.6265 F60.00
G01 X-18.2438 Y6.6037 F60.00
G01 X-18.2338 Y6.5800 F60.00
G01 X-18.2245 Y6.5613 F60.00
G01 X-18.2125 Y6.5405 F60.00
G01 X-18.1981 Y6.5191 F60.00
G01 X-18.1853 Y6.5026 F60.00
G01 X-18.1694 Y6.4845 F60.00
G01 X-17.3973 Y5.7122 F60.00
G01 X-17.3868 Y5.7022 F60.00
G01 X-17.3759 Y5.6927 F60.00
G01 X-17.3543 Y5.6761 F60.00
G01 X-17.3424 Y5.6679 F60.00
G01 X-17.3301 Y5.6602 F60.00
G01 X-17.3175 Y5.6530 F60.00
G01 X-17.3047 Y5.6463 F60.00
G01 X-17.2857 Y5.6376 F60.00
G01 X-17.2663 Y5.6300 F60.00
G01 X-17.2495 Y5.6245 F60.00
G01 X-17.2294 Y5.6190 F60.00
G01 X-17.2121 Y5.6153 F60.00
G01 X-17.1915 Y5.6120 F60.00
G01 X-17.1690 Y5.6098 F60.00
G01 X-17.1482 Y5.6090 F60.00
G01 X-13.1031 Y5.6090 F60.00
G01 X-12.5736 Y5.0794 F60.00
G01 X-12.5608 Y5.0672 F60.00
G01 X-12.5499 Y5.0577 F60.00
G01 X-12.5283 Y5.0411 F60.00
G01 X-12.5164 Y5.0329 F60.00
G01 X-12.5041 Y5.0252 F60.00
G01 X-12.4915 Y5.0180 F60.00
G01 X-12.4787 Y5.0113 F60.00
G01 X-12.4538 Y5.0002 F60.00
G01 X-12.4403 Y4.9950 F60.00
G01 X-12.4266 Y4.9904 F60.00
G01 X-12.4003 Y4.9833 F60.00
G01 X-12.3861 Y4.9803 F60.00
G01 X-12.3718 Y4.9778 F60.00
G01 X-12.3543 Y4.9757 F60.00
G01 X-12.3399 Y4.9746 F60.00
G01 X-12.3190 Y4.9740 F60.00
G01 X-6.8580 Y4.9740 F60.00
G01 X-6.8340 Y4.9748 F60.00
G01 X-6.8083 Y4.9774 F60.00
G01 X-6.7846 Y4.9815 F60.00
G01 X-6.7596 Y4.9877 F60.00
G01 X-6.7397 Y4.9939 F60.00
G01 X-6.7202 Y5.0014 F60.00
G01 X-6.7041 Y5.0085 F60.00
G01 X-6.6855 Y5.0180 F60.00
G01 X-6.6675 Y5.0285 F60.00
G01 X-6.6487 Y5.0411 F60.00
G01 X-6.6321 Y5.0537 F60.00
G01 X-6.6162 Y5.0672 F60.00
G01 X-6.6034 Y5.0794 F60.00
G01 X-5.9924 Y5.6904 F60.00
G01 X-5.9781 Y5.7056 F60.00
G01 X-5.9617 Y5.7254 F60.00
G01 X-5.9476 Y5.7450 F60.00
G01 X-5.9366 Y5.7626 F60.00
G01 X-5.9243 Y5.7853 F60.00
G01 X-5.9144 Y5.8072 F60.00
G01 X-5.9069 Y5.8267 F60.00
G01 X-5.9025 Y5.8405 F60.00
G01 X-5.8992 Y5.8520 F60.00
G01 X-5.4906 Y5.8521 F60.00
G01 X-5.4715 Y5.8533 F60.00
G01 X-5.4526 Y5.8558 F60.00
G01 X-5.4369 Y5.8590 F60.00
G01 X-5.4185 Y5.8641 F60.00
G01 X-5.4005 Y5.8706 F60.00
G01 X-5.3858 Y5.8770 F60.00
G01 X-5.3716 Y5.8842 F60.00
G01 X-5.3552 Y5.8941 F60.00
G01 X-5.3421 Y5.9032 F60.00
G01 X-5.3272 Y5.9151 F60.00
G01 X-5.3154 Y5.9259 F60.00
G01 X-5.3022 Y5.9398 F60.00
G01 X-5.2901 Y5.9546 F60.00
G01 X-5.2808 Y5.9676 F60.00
G01 X-5.2724 Y5.9811 F60.00
G01 X-5.2648 Y5.9951 F60.00
G01 X-5.2568 Y6.0125 F60.00
G01 X-5.2511 Y6.0274 F60.00
G01 X-5.2456 Y6.0457 F60.00
G01 X-5.2420 Y6.0613 F60.00
G01 X-5.2398 Y6.0739 F60.00
G01 X-5.2383 Y6.0865 F60.00
G01 X-5.2373 Y6.0992 F60.00
G01 X-5.2370 Y6.1120 F60.00
G01 X-5.2370 Y8.1120 F60.00
G01 X-5.2377 Y8.1311 F60.00
G01 X-5.2403 Y8.1533 F60.00
G01 X-5.2440 Y8.1721 F60.00
G01 X-5.2501 Y8.1936 F60.00
G01 X-5.2556 Y8.2085 F60.00
G01 X-5.2633 Y8.2260 F60.00
G01 X-5.2724 Y8.2429 F60.00
G01 X-5.2826 Y8.2591 F60.00
G01 X-5.2920 Y8.2720 F60.00
G01 X-5.3044 Y8.2866 F60.00
G01 X-5.3154 Y8.2981 F60.00
G01 X-5.3296 Y8.3109 F60.00
G01 X-5.3421 Y8.3208 F60.00
G01 X-5.3579 Y8.3317 F60.00
G01 X-5.3744 Y8.3413 F60.00
G01 X-5.3916 Y8.3497 F60.00
G01 X-5.4094 Y8.3568 F60.00
G01 X-5.4246 Y8.3617 F60.00
G01 X-5.4432 Y8.3664 F60.00
G01 X-5.4589 Y8.3692 F60.00
G01 X-5.4779 Y8.3713 F60.00
G01 X-5.4970 Y8.3720 F60.00
G01 X-6.4980 Y8.3720 F60.00
G01 X-6.4979 Y9.8000 F60.00
G01 X-6.2665 Y9.8000 F60.00
G01 X-6.2669 Y9.7850 F60.00
G01 X-6.2669 Y9.5350 F60.00
G01 X-6.2659 Y9.5127 F60.00
G01 X-6.2641 Y9.4969 F60.00
G01 X-6.2619 Y9.4843 F60.00
G01 X-6.2591 Y9.4718 F60.00
G01 X-6.2557 Y9.4595 F60.00
G01 X-6.2517 Y9.4474 F60.00
G01 X-6.2471 Y9.4355 F60.00
G01 X-6.2419 Y9.4238 F60.00
G01 X-6.2349 Y9.4100 F60.00
G01 X-6.2419 Y9.3962 F60.00
G01 X-6.2471 Y9.3845 F60.00
G01 X-6.2528 Y9.3696 F60.00
G01 X-6.2566 Y9.3574 F60.00
G01 X-6.2606 Y9.3420 F60.00
G01 X-6.2631 Y9.3294 F60.00
G01 X-6.2653 Y9.3137 F60.00
G01 X-6.2664 Y9.3009 F60.00
G01 X-6.2669 Y9.2850 F60.00
G01 X-6.2668 Y9.0286 F60.00
G01 X-6.2659 Y9.0127 F60.00
G01 X-6.2645 Y9.0000 F60.00
G01 X-6.2619 Y8.9843 F60.00
G01 X-6.2591 Y8.9718 F60.00
G01 X-6.2538 Y8.9534 F60.00
G01 X-6.2459 Y8.9326 F60.00
G01 X-6.2362 Y8.9124 F60.00
G01 X-6.2248 Y8.8932 F60.00
G01 X-6.2119 Y8.8750 F60.00
G01 X-6.1974 Y8.8580 F60.00
G01 X-6.1839 Y8.8445 F60.00
G01 X-6.1669 Y8.8300 F60.00
G01 X-6.1513 Y8.8188 F60.00
G01 X-6.1323 Y8.8072 F60.00
G01 X-6.1123 Y8.7973 F60.00
G01 X-6.0915 Y8.7891 F60.00
G01 X-6.0701 Y8.7828 F60.00
G01 X-6.0513 Y8.7788 F60.00
G01 X-6.0292 Y8.7760 F60.00
G01 X-6.0069 Y8.7750 F60.00
G00 Z0.5000
G00 X-14.5796 Y8.5407
G01 F25.00
G01 Z-0.0500
G01 F60.00
G01 X-15.9004 Y8.5407 F60.00
G01 X-15.9456 Y8.5396 F60.00
G01 X-15.9875 Y8.5366 F60.00
G01 X-16.0355 Y8.5308 F60.00
G01 X-16.0738 Y8.5242 F60.00
G01 X-16.0863 Y8.5217 F60.00
G01 X-16.1241 Y8.5131 F60.00
G01 X-16.1615 Y8.5029 F60.00
G01 X-16.1738 Y8.4992 F60.00
G01 X-16.2106 Y8.4869 F60.00
G01 X-16.2468 Y8.4730 F60.00
G01 X-16.2586 Y8.4681 F60.00
G01 X-16.2941 Y8.4523 F60.00
G01 X-16.3288 Y8.4350 F60.00
G01 X-16.3400 Y8.4289 F60.00
G01 X-16.3737 Y8.4097 F60.00
G01 X-16.4146 Y8.3838 F60.00
G01 X-16.4489 Y8.3595 F60.00
G01 X-16.4845 Y8.3317 F60.00
G01 X-16.5187 Y8.3022 F60.00
G01 X-16.5515 Y8.2711 F60.00
G01 X-16.5826 Y8.2383 F60.00
G01 X-16.6121 Y8.2041 F60.00
G01 X-16.6399 Y8.1685 F60.00
G01 X-16.6660 Y8.1315 F60.00
G01 X-16.6901 Y8.0933 F60.00
G01 X-16.7124 Y8.0540 F60.00
G01 X-16.7327 Y8.0137 F60.00
G01 X-16.7510 Y7.9723 F60.00
G01 X-16.7673 Y7.9302 F60.00
G01 X-16.7815 Y7.8873 F60.00
G01 X-16.7935 Y7.8437 F60.00
G01 X-16.8034 Y7.7996 F60.00
G01 X-16.8112 Y7.7551 F60.00
G01 X-16.8167 Y7.7102 F60.00
G01 X-16.8200 Y7.6652 F60.00
G01 X-16.8211 Y7.6200 F60.00
G01 X-16.8200 Y7.5748 F60.00
G01 X-16.8167 Y7.5298 F60.00
G01 X-16.8112 Y7.4849 F60.00
G01 X-16.8034 Y7.4404 F60.00
G01 X-16.7935 Y7.3963 F60.00
G01 X-16.7815 Y7.3527 F60.00
G01 X-16.7673 Y7.3098 F60.00
G01 X-16.7510 Y7.2677 F60.00
G01 X-16.7327 Y7.2263 F60.00
G01 X-16.7124 Y7.1860 F60.00
G01 X-16.6901 Y7.1467 F60.00
G01 X-16.6642 Y7.1058 F60.00
G01 X-16.6399 Y7.0715 F60.00
G01 X-16.6161 Y7.0409 F60.00
G01 X-16.6080 Y7.0310 F60.00
G01 X-16.5826 Y7.0017 F60.00
G01 X-16.5559 Y6.9735 F60.00
G01 X-16.5234 Y6.9421 F60.00
G01 X-16.5139 Y6.9336 F60.00
G01 X-16.4845 Y6.9083 F60.00
G01 X-16.4489 Y6.8805 F60.00
G01 X-16.4119 Y6.8544 F60.00
G01 X-16.3737 Y6.8303 F60.00
G01 X-16.3344 Y6.8080 F60.00
G01 X-16.2998 Y6.7905 F60.00
G01 X-16.2883 Y6.7850 F60.00
G01 X-16.2468 Y6.7670 F60.00
G01 X-16.2106 Y6.7531 F60.00
G01 X-16.1738 Y6.7408 F60.00
G01 X-16.1615 Y6.7371 F60.00
G01 X-16.1241 Y6.7269 F60.00
G01 X-16.0800 Y6.7170 F60.00
G01 X-16.0355 Y6.7092 F60.00
G01 X-15.9906 Y6.7037 F60.00
G01 X-15.9456 Y6.7004 F60.00
G01 X-15.9004 Y6.6993 F60.00
G01 X-14.5796 Y6.6993 F60.00
G01 X-14.5344 Y6.7004 F60.00
G01 X-14.4957 Y6.7032 F60.00
G01 X-14.4830 Y6.7044 F60.00
G01 X-14.4445 Y6.7092 F60.00
G01 X-14.4062 Y6.7158 F60.00
G01 X-14.3937 Y6.7183 F60.00
G01 X-14.3559 Y6.7269 F60.00
G01 X-14.3185 Y6.7371 F60.00
G01 X-14.3062 Y6.7408 F60.00
G01 X-14.2694 Y6.7531 F60.00
G01 X-14.2332 Y6.7670 F60.00
G01 X-14.2214 Y6.7719 F60.00
G01 X-14.1859 Y6.7877 F60.00
G01 X-14.1512 Y6.8050 F60.00
G01 X-14.1400 Y6.8111 F60.00
G01 X-14.1063 Y6.8303 F60.00
G01 X-14.0654 Y6.8562 F60.00
G01 X-14.0311 Y6.8805 F60.00
G01 X-14.0005 Y6.9043 F60.00
G01 X-13.9661 Y6.9336 F60.00
G01 X-13.9566 Y6.9421 F60.00
G01 X-13.9285 Y6.9689 F60.00
G01 X-13.8974 Y7.0017 F60.00
G01 X-13.8679 Y7.0359 F60.00
G01 X-13.8439 Y7.0664 F60.00
G01 X-13.8363 Y7.0767 F60.00
G01 X-13.8106 Y7.1138 F60.00
G01 X-13.7899 Y7.1467 F60.00
G01 X-13.7676 Y7.1860 F60.00
G01 X-13.7501 Y7.2206 F60.00
G01 X-13.7446 Y7.2321 F60.00
G01 X-13.7290 Y7.2677 F60.00
G01 X-13.7127 Y7.3098 F60.00
G01 X-13.6985 Y7.3527 F60.00
G01 X-13.6881 Y7.3901 F60.00
G01 X-13.6850 Y7.4025 F60.00
G01 X-13.6754 Y7.4466 F60.00
G01 X-13.6688 Y7.4849 F60.00
G01 X-13.6633 Y7.5298 F60.00
G01 X-13.6600 Y7.5748 F60.00
G01 X-13.6589 Y7.6136 F60.00
G01 X-13.6589 Y7.6264 F60.00
G01 X-13.6604 Y7.6715 F60.00
G01 X-13.6633 Y7.7102 F60.00
G01 X-13.6688 Y7.7551 F60.00
G01 X-13.6766 Y7.7996 F60.00
G01 X-13.6850 Y7.8375 F60.00
G01 X-13.6881 Y7.8499 F60.00
G01 X-13.6985 Y7.8873 F60.00
G01 X-13.7106 Y7.9242 F60.00
G01 X-13.7149 Y7.9362 F60.00
G01 X-13.7290 Y7.9723 F60.00
G01 X-13.7473 Y8.0137 F60.00
G01 X-13.7676 Y8.0540 F60.00
G01 X-13.7867 Y8.0878 F60.00
G01 X-13.7932 Y8.0988 F60.00
G01 X-13.8177 Y8.1368 F60.00
G01 X-13.8401 Y8.1685 F60.00
G01 X-13.8679 Y8.2041 F60.00
G01 X-13.8974 Y8.2383 F60.00
G01 X-13.9241 Y8.2665 F60.00
G01 X-13.9566 Y8.2979 F60.00
G01 X-13.9661 Y8.3064 F60.00
G01 X-13.9955 Y8.3317 F60.00
G01 X-14.0311 Y8.3595 F60.00
G01 X-14.0681 Y8.3856 F60.00
G01 X-14.1008 Y8.4064 F60.00
G01 X-14.1400 Y8.4289 F60.00
G01 X-14.1512 Y8.4350 F60.00
G01 X-14.1859 Y8.4523 F60.00
G01 X-14.2273 Y8.4706 F60.00
G01 X-14.2694 Y8.4869 F60.00
G01 X-14.3062 Y8.4992 F60.00
G01 X-14.3497 Y8.5115 F60.00
G01 X-14.3621 Y8.5146 F60.00
G01 X-14.4000 Y8.5230 F60.00
G01 X-14.4445 Y8.5308 F60.00
G01 X-14.4894 Y8.5363 F60.00
G01 X-14.5281 Y8.5392 F60.00
G01 X-14.5408 Y8.5399 F60.00
G01 X-14.5796 Y8.5407 F60.00
G00 Z0.5000
G00 X-15.9004 Y11.7793
G01 F25.00
G01 Z-0.0500
G01 F60.00
G01 X-14.5796 Y11.7793 F60.00
G01 X-14.5344 Y11.7804 F60.00
G01 X-14.4925 Y11.7834 F60.00
G01 X-14.4445 Y11.7892 F60.00
G01 X-14.4062 Y11.7958 F60.00
G01 X-14.3937 Y11.7983 F60.00
G01 X-14.3559 Y11.8069 F60.00
G01 X-14.3185 Y11.8171 F60.00
G01 X-14.3062 Y11.8208 F60.00
G01 X-14.2694 Y11.8331 F60.00
G01 X-14.2332 Y11.8470 F60.00
G01 X-14.2214 Y11.8519 F60.00
G01 X-14.1859 Y11.8677 F60.00
G01 X-14.1512 Y11.8850 F60.00
G01 X-14.1400 Y11.8911 F60.00
G01 X-14.1063 Y11.9103 F60.00
G01 X-14.0654 Y11.9362 F60.00
G01 X-14.0311 Y11.9605 F60.00
G01 X-13.9955 Y11.9883 F60.00
G01 X-13.9613 Y12.0178 F60.00
G01 X-13.9285 Y12.0489 F60.00
G01 X-13.8974 Y12.0817 F60.00
G01 X-13.8679 Y12.1159 F60.00
G01 X-13.8401 Y12.1515 F60.00
G01 X-13.8140 Y12.1885 F60.00
G01 X-13.7899 Y12.2267 F60.00
G01 X-13.7676 Y12.2660 F60.00
G01 X-13.7473 Y12.3063 F60.00
G01 X-13.7290 Y12.3477 F60.00
G01 X-13.7127 Y12.3898 F60.00
G01 X-13.6985 Y12.4327 F60.00
G01 X-13.6865 Y12.4763 F60.00
G01 X-13.6766 Y12.5204 F60.00
G01 X-13.6688 Y12.5649 F60.00
G01 X-13.6633 Y12.6098 F60.00
G01 X-13.6600 Y12.6548 F60.00
G01 X-13.6589 Y12.7000 F60.00
G01 X-13.6600 Y12.7452 F60.00
G01 X-13.6633 Y12.7902 F60.00
G01 X-13.6688 Y12.8351 F60.00
G01 X-13.6766 Y12.8796 F60.00
G01 X-13.6865 Y12.9237 F60.00
G01 X-13.6985 Y12.9673 F60.00
G01 X-13.7127 Y13.0102 F60.00
G01 X-13.7290 Y13.0523 F60.00
G01 X-13.7473 Y13.0937 F60.00
G01 X-13.7676 Y13.1340 F60.00
G01 X-13.7899 Y13.1733 F60.00
G01 X-13.8158 Y13.2142 F60.00
G01 X-13.8401 Y13.2485 F60.00
G01 X-13.8639 Y13.2791 F60.00
G01 X-13.8720 Y13.2890 F60.00
G01 X-13.9017 Y13.3230 F60.00
G01 X-13.9285 Y13.3511 F60.00
G01 X-13.9566 Y13.3779 F60.00
G01 X-13.9661 Y13.3864 F60.00
G01 X-13.9955 Y13.4117 F60.00
G01 X-14.0311 Y13.4395 F60.00
G01 X-14.0681 Y13.4656 F60.00
G01 X-14.1063 Y13.4897 F60.00
G01 X-14.1456 Y13.5120 F60.00
G01 X-14.1802 Y13.5295 F60.00
G01 X-14.1917 Y13.5350 F60.00
G01 X-14.2273 Y13.5506 F60.00
G01 X-14.2634 Y13.5647 F60.00
G01 X-14.3062 Y13.5792 F60.00
G01 X-14.3185 Y13.5829 F60.00
G01 X-14.3559 Y13.5931 F60.00
G01 X-14.4000 Y13.6030 F60.00
G01 X-14.4445 Y13.6108 F60.00
G01 X-14.4894 Y13.6163 F60.00
G01 X-14.5344 Y13.6196 F60.00
G01 X-14.5796 Y13.6207 F60.00
G01 X-15.9004 Y13.6207 F60.00
G01 X-15.9456 Y13.6196 F60.00
G01 X-15.9843 Y13.6168 F60.00
G01 X-15.9970 Y13.6156 F60.00
G01 X-16.0355 Y13.6108 F60.00
G01 X-16.0738 Y13.6042 F60.00
G01 X-16.0863 Y13.6017 F60.00
G01 X-16.1241 Y13.5931 F60.00
G01 X-16.1615 Y13.5829 F60.00
G01 X-16.1738 Y13.5792 F60.00
G01 X-16.2106 Y13.5669 F60.00
G01 X-16.2468 Y13.5530 F60.00
G01 X-16.2586 Y13.5481 F60.00
G01 X-16.2941 Y13.5323 F60.00
G01 X-16.3288 Y13.5150 F60.00
G01 X-16.3400 Y13.5089 F60.00
G01 X-16.3737 Y13.4897 F60.00
G01 X-16.4146 Y13.4638 F60.00
G01 X-16.4489 Y13.4395 F60.00
G01 X-16.4795 Y13.4157 F60.00
G01 X-16.5139 Y13.3864 F60.00
G01 X-16.5234 Y13.3779 F60.00
G01 X-16.5515 Y13.3511 F60.00
G01 X-16.5826 Y13.3183 F60.00
G01 X-16.6121 Y13.2841 F60.00
G01 X-16.6361 Y13.2536 F60.00
G01 X-16.6437 Y13.2433 F60.00
G01 X-16.6694 Y13.2062 F60.00
G01 X-16.6901 Y13.1733 F60.00
G01 X-16.7124 Y13.1340 F60.00
G01 X-16.7327 Y13.0937 F60.00
G01 X-16.7485 Y13.0582 F60.00
G01 X-16.7534 Y13.0464 F60.00
G01 X-16.7673 Y13.0102 F60.00
G01 X-16.7796 Y12.9734 F60.00
G01 X-16.7833 Y12.9611 F60.00
G01 X-16.7935 Y12.9237 F60.00
G01 X-16.8034 Y12.8796 F60.00
G01 X-16.8112 Y12.8351 F60.00
G01 X-16.8160 Y12.7966 F60.00
G01 X-16.8196 Y12.7515 F60.00
G01 X-16.8203 Y12.7388 F60.00
G01 X-16.8211 Y12.7000 F60.00
G01 X-16.8200 Y12.6548 F60.00
G01 X-16.8167 Y12.6098 F60.00
G01 X-16.8120 Y12.5712 F60.00
G01 X-16.8102 Y12.5586 F60.00
G01 X-16.8021 Y12.5141 F60.00
G01 X-16.7935 Y12.4763 F60.00
G01 X-16.7815 Y12.4327 F60.00
G01 X-16.7673 Y12.3898 F60.00
G01 X-16.7534 Y12.3536 F60.00
G01 X-16.7485 Y12.3418 F60.00
G01 X-16.7327 Y12.3063 F60.00
G01 X-16.7124 Y12.2660 F60.00
G01 X-16.6933 Y12.2322 F60.00
G01 X-16.6694 Y12.1938 F60.00
G01 X-16.6623 Y12.1832 F60.00
G01 X-16.6399 Y12.1515 F60.00
G01 X-16.6121 Y12.1159 F60.00
G01 X-16.5826 Y12.0817 F60.00
G01 X-16.5559 Y12.0535 F60.00
G01 X-16.5234 Y12.0221 F60.00
G01 X-16.5139 Y12.0136 F60.00
G01 X-16.4845 Y11.9883 F60.00
G01 X-16.4489 Y11.9605 F60.00
G01 X-16.4119 Y11.9344 F60.00
G01 X-16.3792 Y11.9136 F60.00
G01 X-16.3682 Y11.9071 F60.00
G01 X-16.3288 Y11.8850 F60.00
G01 X-16.2941 Y11.8677 F60.00
G01 X-16.2527 Y11.8494 F60.00
G01 X-16.2106 Y11.8331 F60.00
G01 X-16.1738 Y11.8208 F60.00
G01 X-16.1615 Y11.8171 F60.00
G01 X-16.1179 Y11.8054 F60.00
G01 X-16.0800 Y11.7970 F60.00
G01 X-16.0355 Y11.7892 F60.00
G01 X-15.9906 Y11.7837 F60.00
G01 X-15.9519 Y11.7808 F60.00
G01 X-15.9392 Y11.7801 F60.00
G01 X-15.9004 Y11.7793 F60.00
G00 Z0.5000
G00 X-15.9004 Y14.3193
G01 F25.00
G01 Z-0.0500
G01 F60.00
G01 X-14.5764 Y14.3193 F60.00
G01 X-14.5344 Y14.3204 F60.00
G01 X-14.4957 Y14.3232 F60.00
G01 X-14.4830 Y14.3244 F60.00
G01 X-14.4445 Y14.3292 F60.00
G01 X-14.4062 Y14.3358 F60.00
G01 X-14.3590 Y14.3461 F60.00
G01 X-14.3123 Y14.3589 F60.00
G01 X-14.2754 Y14.3710 F60.00
G01 X-14.2634 Y14.3753 F60.00
G01 X-14.2273 Y14.3894 F60.00
G01 X-14.1917 Y14.4050 F60.00
G01 X-14.1512 Y14.4250 F60.00
G01 X-14.1400 Y14.4311 F60.00
G01 X-14.1063 Y14.4503 F60.00
G01 X-14.0681 Y14.4744 F60.00
G01 X-14.0311 Y14.5005 F60.00
G01 X-13.9930 Y14.5303 F60.00
G01 X-13.9566 Y14.5621 F60.00
G01 X-13.9285 Y14.5889 F60.00
G01 X-13.9017 Y14.6170 F60.00
G01 X-13.8932 Y14.6265 F60.00
G01 X-13.8679 Y14.6559 F60.00
G01 X-13.8401 Y14.6915 F60.00
G01 X-13.8140 Y14.7285 F60.00
G01 X-13.7932 Y14.7612 F60.00
G01 X-13.7867 Y14.7722 F60.00
G01 X-13.7646 Y14.8116 F60.00
G01 X-13.7473 Y14.8463 F60.00
G01 X-13.7323 Y14.8800 F60.00
G01 X-13.5950 Y14.8800 F60.00
G01 X-13.5950 Y13.9700 F60.00
G01 X-13.5947 Y13.9572 F60.00
G01 X-13.5937 Y13.9445 F60.00
G01 X-13.5922 Y13.9319 F60.00
G01 X-13.5894 Y13.9162 F60.00
G01 X-13.5864 Y13.9037 F60.00
G01 X-13.5829 Y13.8915 F60.00
G01 X-13.5787 Y13.8794 F60.00
G01 X-13.5727 Y13.8646 F60.00
G01 X-13.5658 Y13.8503 F60.00
G01 X-13.5596 Y13.8391 F60.00
G01 X-13.5529 Y13.8282 F60.00
G01 X-13.5438 Y13.8151 F60.00
G01 X-13.5339 Y13.8026 F60.00
G01 X-13.5255 Y13.7930 F60.00
G01 X-13.5166 Y13.7839 F60.00
G01 X-13.5048 Y13.7731 F60.00
G01 X-13.4924 Y13.7631 F60.00
G01 X-13.4821 Y13.7556 F60.00
G01 X-13.4659 Y13.7454 F60.00
G01 X-13.4490 Y13.7363 F60.00
G01 X-13.4315 Y13.7286 F60.00
G01 X-13.4135 Y13.7221 F60.00
G01 X-13.3951 Y13.7170 F60.00
G01 X-13.3763 Y13.7133 F60.00
G01 X-13.3573 Y13.7110 F60.00
G01 X-13.3382 Y13.7100 F60.00
G01 X-12.0586 Y13.7101 F60.00
G01 X-12.0427 Y13.7110 F60.00
G01 X-12.0269 Y13.7128 F60.00
G01 X-12.0112 Y13.7156 F60.00
G01 X-11.9957 Y13.7194 F60.00
G01 X-11.9804 Y13.7241 F60.00
G01 X-11.9655 Y13.7298 F60.00
G01 X-11.9510 Y13.7363 F60.00
G01 X-11.9368 Y13.7438 F60.00
G01 X-11.9232 Y13.7521 F60.00
G01 X-11.9101 Y13.7612 F60.00
G01 X-11.8976 Y13.7711 F60.00
G01 X-11.8857 Y13.7817 F60.00
G01 X-11.8745 Y13.7930 F60.00
G01 X-11.8640 Y13.8051 F60.00
G01 X-11.8543 Y13.8177 F60.00
G01 X-11.8436 Y13.8336 F60.00
G01 X-11.8357 Y13.8474 F60.00
G01 X-11.8286 Y13.8617 F60.00
G01 X-11.8224 Y13.8764 F60.00
G01 X-11.8162 Y13.8945 F60.00
G01 X-11.8120 Y13.9099 F60.00
G01 X-11.8088 Y13.9256 F60.00
G01 X-11.8066 Y13.9413 F60.00
G01 X-11.8052 Y13.9604 F60.00
G01 X-11.8050 Y16.5132 F60.00
G01 X-11.8057 Y16.5291 F60.00
G01 X-11.8074 Y16.5450 F60.00
G01 X-11.8100 Y16.5607 F60.00
G01 X-11.8136 Y16.5763 F60.00
G01 X-11.8191 Y16.5946 F60.00
G01 X-11.8248 Y16.6095 F60.00
G01 X-11.8313 Y16.6240 F60.00
G01 X-11.8388 Y16.6382 F60.00
G01 X-11.8471 Y16.6518 F60.00
G01 X-11.8581 Y16.6674 F60.00
G01 X-11.8681 Y16.6798 F60.00
G01 X-11.8789 Y16.6916 F60.00
G01 X-11.8904 Y16.7026 F60.00
G01 X-11.9025 Y16.7130 F60.00
G01 X-11.9153 Y16.7226 F60.00
G01 X-11.9286 Y16.7314 F60.00
G01 X-11.9424 Y16.7393 F60.00
G01 X-11.9567 Y16.7464 F60.00
G01 X-11.9714 Y16.7526 F60.00
G01 X-11.9865 Y16.7579 F60.00
G01 X-12.0018 Y16.7622 F60.00
G01 X-12.0174 Y16.7656 F60.00
G01 X-12.0332 Y16.7680 F60.00
G01 X-12.0491 Y16.7695 F60.00
G01 X-12.0650 Y16.7700 F60.00
G01 X-13.3414 Y16.7699 F60.00
G01 X-13.3573 Y16.7690 F60.00
G01 X-13.3731 Y16.7672 F60.00
G01 X-13.3920 Y16.7637 F60.00
G01 X-13.4074 Y16.7597 F60.00
G01 X-13.4256 Y16.7537 F60.00
G01 X-13.4404 Y16.7477 F60.00
G01 X-13.4547 Y16.7408 F60.00
G01 X-13.4687 Y16.7330 F60.00
G01 X-13.4794 Y16.7262 F60.00
G01 X-13.4924 Y16.7169 F60.00
G01 X-13.5048 Y16.7069 F60.00
G01 X-13.5143 Y16.6983 F60.00
G01 X-13.5255 Y16.6870 F60.00
G01 X-13.5360 Y16.6749 F60.00
G01 X-13.5457 Y16.6623 F60.00
G01 X-13.5529 Y16.6518 F60.00
G01 X-13.5612 Y16.6382 F60.00
G01 X-13.5672 Y16.6269 F60.00
G01 X-13.5740 Y16.6124 F60.00
G01 X-13.5798 Y16.5976 F60.00
G01 X-13.5847 Y16.5824 F60.00
G01 X-13.5887 Y16.5670 F60.00
G01 X-13.5917 Y16.5513 F60.00
G01 X-13.5934 Y16.5387 F60.00
G01 X-13.5947 Y16.5228 F60.00
G01 X-13.5950 Y16.5100 F60.00
G01 X-13.5950 Y15.6000 F60.00
G01 X-13.7323 Y15.6000 F60.00
G01 X-13.7473 Y15.6337 F60.00
G01 X-13.7646 Y15.6684 F60.00
G01 X-13.7707 Y15.6796 F60.00
G01 X-13.7899 Y15.7133 F60.00
G01 X-13.8140 Y15.7515 F60.00
G01 X-13.8363 Y15.7833 F60.00
G01 X-13.8439 Y15.7936 F60.00
G01 X-13.8699 Y15.8266 F60.00
G01 X-13.8974 Y15.8583 F60.00
G01 X-13.9241 Y15.8865 F60.00
G01 X-13.9331 Y15.8955 F60.00
G01 X-13.9613 Y15.9222 F60.00
G01 X-13.9955 Y15.9517 F60.00
G01 X-14.0260 Y15.9757 F60.00
G01 X-14.0363 Y15.9833 F60.00
G01 X-14.0707 Y16.0073 F60.00
G01 X-14.1063 Y16.0297 F60.00
G01 X-14.1456 Y16.0520 F60.00
G01 X-14.1859 Y16.0723 F60.00
G01 X-14.2214 Y16.0881 F60.00
G01 X-14.2332 Y16.0930 F60.00
G01 X-14.2754 Y16.1090 F60.00
G01 X-14.3123 Y16.1211 F60.00
G01 X-14.3497 Y16.1315 F60.00
G01 X-14.3621 Y16.1346 F60.00
G01 X-14.4000 Y16.1430 F60.00
G01 X-14.4413 Y16.1503 F60.00
G01 X-14.4830 Y16.1556 F60.00
G01 X-14.4957 Y16.1568 F60.00
G01 X-14.5344 Y16.1596 F60.00
G01 X-14.5796 Y16.1607 F60.00
G01 X-15.9004 Y16.1607 F60.00
G01 X-15.9488 Y16.1594 F60.00
G01 X-15.9970 Y16.1556 F60.00
G01 X-16.0355 Y16.1508 F60.00
G01 X-16.0738 Y16.1442 F60.00
G01 X-16.0863 Y16.1417 F60.00
G01 X-16.1241 Y16.1331 F60.00
G01 X-16.1677 Y16.1211 F60.00
G01 X-16.2106 Y16.1069 F60.00
G01 X-16.2468 Y16.0930 F60.00
G01 X-16.2586 Y16.0881 F60.00
G01 X-16.2998 Y16.0695 F60.00
G01 X-16.3344 Y16.0520 F60.00
G01 X-16.3682 Y16.0329 F60.00
G01 X-16.4066 Y16.0090 F60.00
G01 X-16.4172 Y16.0019 F60.00
G01 X-16.4489 Y15.9795 F60.00
G01 X-16.4845 Y15.9517 F60.00
G01 X-16.5187 Y15.9222 F60.00
G01 X-16.5469 Y15.8955 F60.00
G01 X-16.5783 Y15.8630 F60.00
G01 X-16.5868 Y15.8535 F60.00
G01 X-16.6121 Y15.8241 F60.00
G01 X-16.6399 Y15.7885 F60.00
G01 X-16.6660 Y15.7515 F60.00
G01 X-16.6868 Y15.7188 F60.00
G01 X-16.7093 Y15.6796 F60.00
G01 X-16.7154 Y15.6684 F60.00
G01 X-16.7327 Y15.6337 F60.00
G01 X-16.7510 Y15.5923 F60.00
G01 X-16.7673 Y15.5502 F60.00
G01 X-16.7796 Y15.5134 F60.00
G01 X-16.7833 Y15.5011 F60.00
G01 X-16.7950 Y15.4575 F60.00
G01 X-16.8034 Y15.4196 F60.00
G01 X-16.8112 Y15.3751 F60.00
G01 X-16.8167 Y15.3302 F60.00
G01 X-16.8196 Y15.2915 F60.00
G01 X-16.8203 Y15.2788 F60.00
G01 X-16.8211 Y15.2336 F60.00
G01 X-16.8200 Y15.1948 F60.00
G01 X-16.8167 Y15.1498 F60.00
G01 X-16.8112 Y15.1049 F60.00
G01 X-16.8046 Y15.0666 F60.00
G01 X-16.8021 Y15.0541 F60.00
G01 X-16.7919 Y15.0101 F60.00
G01 X-16.7815 Y14.9727 F60.00
G01 X-16.7673 Y14.9298 F60.00
G01 X-16.7510 Y14.8877 F60.00
G01 X-16.7354 Y14.8521 F60.00
G01 X-16.7299 Y14.8406 F60.00
G01 X-16.7093 Y14.8004 F60.00
G01 X-16.6901 Y14.7667 F60.00
G01 X-16.6660 Y14.7285 F60.00
G01 X-16.6399 Y14.6915 F60.00
G01 X-16.6161 Y14.6609 F60.00
G01 X-16.5868 Y14.6265 F60.00
G01 X-16.5783 Y14.6170 F60.00
G01 X-16.5515 Y14.5889 F60.00
G01 X-16.5187 Y14.5578 F60.00
G01 X-16.4845 Y14.5283 F60.00
G01 X-16.4540 Y14.5043 F60.00
G01 X-16.4172 Y14.4781 F60.00
G01 X-16.4066 Y14.4710 F60.00
G01 X-16.3737 Y14.4503 F60.00
G01 X-16.3344 Y14.4280 F60.00
G01 X-16.2941 Y14.4077 F60.00
G01 X-16.2586 Y14.3919 F60.00
G01 X-16.2468 Y14.3870 F60.00
G01 X-16.2046 Y14.3710 F60.00
G01 X-16.1677 Y14.3589 F60.00
G01 X-16.1241 Y14.3469 F60.00
G01 X-16.0800 Y14.3370 F60.00
G01 X-16.0418 Y14.3302 F60.00
G01 X-16.0292 Y14.3284 F60.00
G01 X-15.9843 Y14.3232 F60.00
G01 X-15.9456 Y14.3204 F60.00
G01 X-15.9004 Y14.3193 F60.00
G00 Z0.5000
G00 X-14.5796 Y18.7007
G01 F25.00
G01 Z-0.0500
G01 F60.00
G01 X-15.9004 Y18.7007 F60.00
G01 X-15.9456 Y18.6996 F60.00
G01 X-15.9875 Y18.6966 F60.00
G01 X-16.0355 Y18.6908 F60.00
G01 X-16.0738 Y18.6842 F60.00
G01 X-16.0863 Y18.6817 F60.00
G01 X-16.1241 Y18.6731 F60.00
G01 X-16.1615 Y18.6629 F60.00
G01 X-16.1738 Y18.6592 F60.00
G01 X-16.2106 Y18.6469 F60.00
G01 X-16.2468 Y18.6330 F60.00
G01 X-16.2586 Y18.6281 F60.00
G01 X-16.2941 Y18.6123 F60.00
G01 X-16.3288 Y18.5950 F60.00
G01 X-16.3400 Y18.5889 F60.00
G01 X-16.3737 Y18.5697 F60.00
G01 X-16.4146 Y18.5438 F60.00
G01 X-16.4489 Y18.5195 F60.00
G01 X-16.4845 Y18.4917 F60.00
G01 X-16.5187 Y18.4622 F60.00
G01 X-16.5515 Y18.4311 F60.00
G01 X-16.5826 Y18.3983 F60.00
G01 X-16.6121 Y18.3641 F60.00
G01 X-16.6399 Y18.3285 F60.00
G01 X-16.6660 Y18.2915 F60.00
G01 X-16.6901 Y18.2533 F60.00
G01 X-16.7124 Y18.2140 F60.00
G01 X-16.7327 Y18.1737 F60.00
G01 X-16.7510 Y18.1323 F60.00
G01 X-16.7673 Y18.0902 F60.00
G01 X-16.7815 Y18.0473 F60.00
G01 X-16.7935 Y18.0037 F60.00
G01 X-16.8034 Y17.9596 F60.00
G01 X-16.8112 Y17.9151 F60.00
G01 X-16.8167 Y17.8702 F60.00
G01 X-16.8200 Y17.8252 F60.00
G01 X-16.8211 Y17.7800 F60.00
G01 X-16.8200 Y17.7348 F60.00
G01 X-16.8167 Y17.6898 F60.00
G01 X-16.8112 Y17.6449 F60.00
G01 X-16.8034 Y17.6004 F60.00
G01 X-16.7935 Y17.5563 F60.00
G01 X-16.7815 Y17.5127 F60.00
G01 X-16.7673 Y17.4698 F60.00
G01 X-16.7510 Y17.4277 F60.00
G01 X-16.7327 Y17.3863 F60.00
G01 X-16.7124 Y17.3460 F60.00
G01 X-16.6901 Y17.3067 F60.00
G01 X-16.6642 Y17.2658 F60.00
G01 X-16.6399 Y17.2315 F60.00
G01 X-16.6161 Y17.2009 F60.00
G01 X-16.6080 Y17.1910 F60.00
G01 X-16.5783 Y17.1570 F60.00
G01 X-16.5515 Y17.1289 F60.00
G01 X-16.5234 Y17.1021 F60.00
G01 X-16.5139 Y17.0936 F60.00
G01 X-16.4845 Y17.0683 F60.00
G01 X-16.4489 Y17.0405 F60.00
G01 X-16.4119 Y17.0144 F60.00
G01 X-16.3737 Y16.9903 F60.00
G01 X-16.3344 Y16.9680 F60.00
G01 X-16.2998 Y16.9505 F60.00
G01 X-16.2883 Y16.9450 F60.00
G01 X-16.2468 Y16.9270 F60.00
G01 X-16.2106 Y16.9131 F60.00
G01 X-16.1738 Y16.9008 F60.00
G01 X-16.1615 Y16.8971 F60.00
G01 X-16.1241 Y16.8869 F60.00
G01 X-16.0800 Y16.8770 F60.00
G01 X-16.0355 Y16.8692 F60.00
G01 X-15.9906 Y16.8637 F60.00
G01 X-15.9456 Y16.8604 F60.00
G01 X-15.9004 Y16.8593 F60.00
G01 X-14.5796 Y16.8593 F60.00
G01 X-14.5344 Y16.8604 F60.00
G01 X-14.4957 Y16.8632 F60.00
G01 X-14.4830 Y16.8644 F60.00
G01 X-14.4445 Y16.8692 F60.00
G01 X-14.4062 Y16.8758 F60.00
G01 X-14.3937 Y16.8783 F60.00
G01 X-14.3559 Y16.8869 F60.00
G01 X-14.3185 Y16.8971 F60.00
G01 X-14.3062 Y16.9008 F60.00
G01 X-14.2694 Y16.9131 F60.00
G01 X-14.2332 Y16.9270 F60.00
G01 X-14.2214 Y16.9319 F60.00
G01 X-14.1859 Y16.9477 F60.00
G01 X-14.1512 Y16.9650 F60.00
G01 X-14.1400 Y16.9711 F60.00
G01 X-14.1063 Y16.9903 F60.00
G01 X-14.0654 Y17.0162 F60.00
G01 X-14.0311 Y17.0405 F60.00
G01 X-14.0005 Y17.0643 F60.00
G01 X-13.9661 Y17.0936 F60.00
G01 X-13.9566 Y17.1021 F60.00
G01 X-13.9285 Y17.1289 F60.00
G01 X-13.8974 Y17.1617 F60.00
G01 X-13.8679 Y17.1959 F60.00
G01 X-13.8439 Y17.2264 F60.00
G01 X-13.8177 Y17.2632 F60.00
G01 X-13.8106 Y17.2738 F60.00
G01 X-13.7899 Y17.3067 F60.00
G01 X-13.7676 Y17.3460 F60.00
G01 X-13.7501 Y17.3806 F60.00
G01 X-13.7446 Y17.3921 F60.00
G01 X-13.7290 Y17.4277 F60.00
G01 X-13.7127 Y17.4698 F60.00
G01 X-13.6985 Y17.5127 F60.00
G01 X-13.6881 Y17.5501 F60.00
G01 X-13.6850 Y17.5625 F60.00
G01 X-13.6766 Y17.6004 F60.00
G01 X-13.6688 Y17.6449 F60.00
G01 X-13.6640 Y17.6834 F60.00
G01 X-13.6604 Y17.7285 F60.00
G01 X-13.6597 Y17.7412 F60.00
G01 X-13.6589 Y17.7800 F60.00
G01 X-13.6600 Y17.8252 F60.00
G01 X-13.6633 Y17.8702 F60.00
G01 X-13.6680 Y17.9088 F60.00
G01 X-13.6754 Y17.9534 F60.00
G01 X-13.6779 Y17.9659 F60.00
G01 X-13.6865 Y18.0037 F60.00
G01 X-13.6985 Y18.0473 F60.00
G01 X-13.7127 Y18.0902 F60.00
G01 X-13.7266 Y18.1264 F60.00
G01 X-13.7315 Y18.1382 F60.00
G01 X-13.7501 Y18.1794 F60.00
G01 X-13.7676 Y18.2140 F60.00
G01 X-13.7899 Y18.2533 F60.00
G01 X-13.8140 Y18.2915 F60.00
G01 X-13.8363 Y18.3233 F60.00
G01 X-13.8439 Y18.3336 F60.00
G01 X-13.8720 Y18.3690 F60.00
G01 X-13.8974 Y18.3983 F60.00
G01 X-13.9285 Y18.4311 F60.00
G01 X-13.9566 Y18.4579 F60.00
G01 X-13.9661 Y18.4664 F60.00
G01 X-13.9955 Y18.4917 F60.00
G01 X-14.0311 Y18.5195 F60.00
G01 X-14.0681 Y18.5456 F60.00
G01 X-14.1008 Y18.5664 F60.00
G01 X-14.1400 Y18.5889 F60.00
G01 X-14.1512 Y18.5950 F60.00
G01 X-14.1859 Y18.6123 F60.00
G01 X-14.2273 Y18.6306 F60.00
G01 X-14.2694 Y18.6469 F60.00
G01 X-14.3062 Y18.6592 F60.00
G01 X-14.3185 Y18.6629 F60.00
G01 X-14.3621 Y18.6746 F60.00
G01 X-14.4000 Y18.6830 F60.00
G01 X-14.4445 Y18.6908 F60.00
G01 X-14.4894 Y18.6963 F60.00
G01 X-14.5281 Y18.6992 F60.00
G01 X-14.5408 Y18.6999 F60.00
G01 X-14.5796 Y18.7007 F60.00
G00 Z0.5000
G00 X-15.9004 Y19.3993
G01 F25.00
G01 Z-0.0500
G01 F60.00
G01 X-14.5796 Y19.3993 F60.00
G01 X-14.5344 Y19.4004 F60.00
G01 X-14.4925 Y19.4034 F60.00
G01 X-14.4445 Y19.4092 F60.00
G01 X-14.4062 Y19.4158 F60.00
G01 X-14.3937 Y19.4183 F60.00
G01 X-14.3559 Y19.4269 F60.00
G01 X-14.3185 Y19.4371 F60.00
G01 X-14.3062 Y19.4408 F60.00
G01 X-14.2694 Y19.4531 F60.00
G01 X-14.2332 Y19.4670 F60.00
G01 X-14.2214 Y19.4719 F60.00
G01 X-14.1859 Y19.4877 F60.00
G01 X-14.1512 Y19.5050 F60.00
G01 X-14.1400 Y19.5111 F60.00
G01 X-14.1063 Y19.5303 F60.00
G01 X-14.0654 Y19.5562 F60.00
G01 X-14.0311 Y19.5805 F60.00
G01 X-13.9955 Y19.6083 F60.00
G01 X-13.9613 Y19.6378 F60.00
G01 X-13.9285 Y19.6689 F60.00
G01 X-13.8974 Y19.7017 F60.00
G01 X-13.8679 Y19.7359 F60.00
G01 X-13.8401 Y19.7715 F60.00
G01 X-13.8140 Y19.8085 F60.00
G01 X-13.7899 Y19.8467 F60.00
G01 X-13.7676 Y19.8860 F60.00
G01 X-13.7473 Y19.9263 F60.00
G01 X-13.7290 Y19.9677 F60.00
G01 X-13.7127 Y20.0098 F60.00
G01 X-13.6985 Y20.0527 F60.00
G01 X-13.6865 Y20.0963 F60.00
G01 X-13.6766 Y20.1404 F60.00
G01 X-13.6688 Y20.1849 F60.00
G01 X-13.6633 Y20.2298 F60.00
G01 X-13.6600 Y20.2748 F60.00
G01 X-13.6589 Y20.3200 F60.00
G01 X-13.6600 Y20.3652 F60.00
G01 X-13.6633 Y20.4102 F60.00
G01 X-13.6688 Y20.4551 F60.00
G01 X-13.6766 Y20.4996 F60.00
G01 X-13.6865 Y20.5437 F60.00
G01 X-13.6985 Y20.5873 F60.00
G01 X-13.7127 Y20.6302 F60.00
G01 X-13.7290 Y20.6723 F60.00
G01 X-13.7473 Y20.7137 F60.00
G01 X-13.7676 Y20.7540 F60.00
G01 X-13.7899 Y20.7933 F60.00
G01 X-13.8158 Y20.8342 F60.00
G01 X-13.8401 Y20.8685 F60.00
G01 X-13.8639 Y20.8991 F60.00
G01 X-13.8720 Y20.9090 F60.00
G01 X-13.9017 Y20.9430 F60.00
G01 X-13.9285 Y20.9711 F60.00
G01 X-13.9566 Y20.9979 F60.00
G01 X-13.9661 Y21.0064 F60.00
G01 X-13.9955 Y21.0317 F60.00
G01 X-14.0311 Y21.0595 F60.00
G01 X-14.0681 Y21.0856 F60.00
G01 X-14.1063 Y21.1097 F60.00
G01 X-14.1456 Y21.1320 F60.00
G01 X-14.1859 Y21.1523 F60.00
G01 X-14.2273 Y21.1706 F60.00
G01 X-14.2634 Y21.1847 F60.00
G01 X-14.2754 Y21.1890 F60.00
G01 X-14.3185 Y21.2029 F60.00
G01 X-14.3559 Y21.2131 F60.00
G01 X-14.3937 Y21.2217 F60.00
G01 X-14.4062 Y21.2242 F60.00
G01 X-14.4445 Y21.2308 F60.00
G01 X-14.4894 Y21.2363 F60.00
G01 X-14.5344 Y21.2396 F60.00
G01 X-14.5796 Y21.2407 F60.00
G01 X-15.9004 Y21.2407 F60.00
G01 X-15.9456 Y21.2396 F60.00
G01 X-15.9843 Y21.2368 F60.00
G01 X-15.9970 Y21.2356 F60.00
G01 X-16.0355 Y21.2308 F60.00
G01 X-16.0738 Y21.2242 F60.00
G01 X-16.0863 Y21.2217 F60.00
G01 X-16.1241 Y21.2131 F60.00
G01 X-16.1615 Y21.2029 F60.00
G01 X-16.1738 Y21.1992 F60.00
G01 X-16.2106 Y21.1869 F60.00
G01 X-16.2468 Y21.1730 F60.00
G01 X-16.2586 Y21.1681 F60.00
G01 X-16.2941 Y21.1523 F60.00
G01 X-16.3288 Y21.1350 F60.00
G01 X-16.3400 Y21.1289 F60.00
G01 X-16.3737 Y21.1097 F60.00
G01 X-16.4146 Y21.0838 F60.00
G01 X-16.4489 Y21.0595 F60.00
G01 X-16.4795 Y21.0357 F60.00
G01 X-16.5139 Y21.0064 F60.00
G01 X-16.5234 Y20.9979 F60.00
G01 X-16.5515 Y20.9711 F60.00
G01 X-16.5826 Y20.9383 F60.00
G01 X-16.6121 Y20.9041 F60.00
G01 X-16.6361 Y20.8736 F60.00
G01 X-16.6623 Y20.8368 F60.00
G01 X-16.6694 Y20.8262 F60.00
G01 X-16.6901 Y20.7933 F60.00
G01 X-16.7124 Y20.7540 F60.00
G01 X-16.7327 Y20.7137 F60.00
G01 X-16.7485 Y20.6782 F60.00
G01 X-16.7534 Y20.6664 F60.00
G01 X-16.7673 Y20.6302 F60.00
G01 X-16.7815 Y20.5873 F60.00
G01 X-16.7919 Y20.5499 F60.00
G01 X-16.7950 Y20.5375 F60.00
G01 X-16.8034 Y20.4996 F60.00
G01 X-16.8112 Y20.4551 F60.00
G01 X-16.8160 Y20.4166 F60.00
G01 X-16.8196 Y20.3715 F60.00
G01 X-16.8203 Y20.3588 F60.00
G01 X-16.8211 Y20.3200 F60.00
G01 X-16.8200 Y20.2748 F60.00
G01 X-16.8167 Y20.2298 F60.00
G01 X-16.8120 Y20.1912 F60.00
G01 X-16.8102 Y20.1786 F60.00
G01 X-16.8021 Y20.1341 F60.00
G01 X-16.7935 Y20.0963 F60.00
G01 X-16.7815 Y20.0527 F60.00
G01 X-16.7673 Y20.0098 F60.00
G01 X-16.7534 Y19.9736 F60.00
G01 X-16.7354 Y19.9321 F60.00
G01 X-16.7299 Y19.9206 F60.00
G01 X-16.7124 Y19.8860 F60.00
G01 X-16.6901 Y19.8467 F60.00
G01 X-16.6660 Y19.8085 F60.00
G01 X-16.6437 Y19.7767 F60.00
G01 X-16.6361 Y19.7664 F60.00
G01 X-16.6080 Y19.7310 F60.00
G01 X-16.5826 Y19.7017 F60.00
G01 X-16.5515 Y19.6689 F60.00
G01 X-16.5187 Y19.6378 F60.00
G01 X-16.4894 Y19.6124 F60.00
G01 X-16.4795 Y19.6043 F60.00
G01 X-16.4489 Y19.5805 F60.00
G01 X-16.4119 Y19.5544 F60.00
G01 X-16.3792 Y19.5336 F60.00
G01 X-16.3682 Y19.5271 F60.00
G01 X-16.3288 Y19.5050 F60.00
G01 X-16.2941 Y19.4877 F60.00
G01 X-16.2527 Y19.4694 F60.00
G01 X-16.2106 Y19.4531 F60.00
G01 X-16.1738 Y19.4408 F60.00
G01 X-16.1303 Y19.4285 F60.00
G01 X-16.1179 Y19.4254 F60.00
G01 X-16.0800 Y19.4170 F60.00
G01 X-16.0355 Y19.4092 F60.00
G01 X-15.9906 Y19.4037 F60.00
G01 X-15.9519 Y19.4008 F60.00
G01 X-15.9392 Y19.4001 F60.00
G01 X-15.9004 Y19.3993 F60.00
G00 Z0.5000
G00 X-7.9800 Y17.4335
G01 F25.00
G01 Z-0.0500
G01 F60.00
G01 X-7.9848 Y17.4189 F60.00
G01 X-7.9906 Y17.4040 F60.00
G01 X-7.9974 Y17.3896 F60.00
G01 X-8.0050 Y17.3755 F60.00
G01 X-8.0134 Y17.3620 F60.00
G01 X-8.0227 Y17.3490 F60.00
G01 X-8.0327 Y17.3366 F60.00
G01 X-8.0435 Y17.3249 F60.00
G01 X-8.4372 Y16.9313 F60.00
G01 X-8.4540 Y16.9166 F60.00
G01 X-8.4720 Y16.9034 F60.00
G01 X-8.4828 Y16.8966 F60.00
G01 X-8.4939 Y16.8903 F60.00
G01 X-8.5140 Y16.8806 F60.00
G01 X-8.5349 Y16.8727 F60.00
G01 X-8.5471 Y16.8690 F60.00
G01 X-8.5595 Y16.8659 F60.00
G01 X-8.5720 Y16.8634 F60.00
G01 X-8.5846 Y16.8616 F60.00
G01 X-8.6069 Y16.8598 F60.00
G01 X-9.1635 Y16.8596 F60.00
G01 X-9.1763 Y16.8599 F60.00
G01 X-9.1922 Y16.8612 F60.00
G01 X-9.2048 Y16.8629 F60.00
G01 X-9.2205 Y16.8659 F60.00
G01 X-9.2329 Y16.8690 F60.00
G01 X-9.2481 Y16.8737 F60.00
G01 X-9.2630 Y16.8794 F60.00
G01 X-9.2757 Y16.8851 F60.00
G01 X-10.5620 Y15.5989 F60.00
G01 X-10.5620 Y11.7061 F60.00
G01 X-10.3759 Y11.5200 F60.00
G01 X-10.3442 Y11.5200 F60.00
G01 X-10.3296 Y11.5264 F60.00
G01 X-10.3177 Y11.5309 F60.00
G01 X-10.3055 Y11.5347 F60.00
G01 X-10.2901 Y11.5387 F60.00
G01 X-10.2744 Y11.5417 F60.00
G01 X-10.2618 Y11.5434 F60.00
G01 X-10.2490 Y11.5445 F60.00
G01 X-10.2331 Y11.5450 F60.00
G01 X-9.2267 Y11.5449 F60.00
G01 X-9.2140 Y11.5443 F60.00
G01 X-9.2013 Y11.5430 F60.00
G01 X-9.1887 Y11.5412 F60.00
G01 X-9.1761 Y11.5387 F60.00
G01 X-9.1638 Y11.5356 F60.00
G01 X-9.1515 Y11.5319 F60.00
G01 X-9.1307 Y11.5240 F60.00
