(G-CODE GENERATED BY FLATCAM v8.993 - www.flatcam.org - Version Date: 2020/06/05)

(Name: copper_bottom.gbr_0.2000_iso1_cnc)
(Type: G-code from Geometry)
(Units: MM)

(Created on Saturday, 10 October 2020 at 20:01)

(This preprocessor is used with a motion controller loaded with GRBL firmware.)
(It is configured to be compatible with almost any version of GRBL firmware.)

(TOOL DIAMETER: 0.2 mm)
(Feedrate_XY: 60.0 mm/min)
(Feedrate_Z: 25.0 mm/min)
(Feedrate rapids 1500.0 mm/min)

(Z_Cut: -0.05 mm)
(Z_Move: 0.5 mm)
(Z Start: None mm)
(Z End: 0.5 mm)
(Steps per circle: 64)
(Preprocessor Geometry: grbl_11)

(X range:  -30.8344 ...   -1.1700  mm)
(Y range:    1.5780 ...   23.9600  mm)

(Spindle Speed: 1000 RPM)
G21
G90
G17
G94




G01 F60.00
G00 Z0.5000

M03 S1000
G4 P1.5
G00 X-6.0069 Y8.9350
G01 F25.00
G01 Z-0.0500
G01 F60.00
G01 X-5.0044 Y8.9350 F60.00
G01 X-4.9959 Y8.9356 F60.00
G01 X-4.9874 Y8.9369 F60.00
G01 X-4.9790 Y8.9390 F60.00
G01 X-4.9709 Y8.9417 F60.00
G01 X-4.9630 Y8.9451 F60.00
G01 X-4.9555 Y8.9492 F60.00
G01 X-4.9483 Y8.9540 F60.00
G01 X-4.9408 Y8.9600 F60.00
G01 X-4.7979 Y8.9600 F60.00
G01 X-3.9100 Y8.0721 F60.00
G01 X-3.9099 Y6.9801 F60.00
G01 X-3.9083 Y6.9667 F60.00
G01 X-3.9067 Y6.9595 F60.00
G01 X-3.9046 Y6.9525 F60.00
G01 X-3.8993 Y6.9400 F60.00
G01 X-3.8958 Y6.9336 F60.00
G01 X-3.8918 Y6.9274 F60.00
G01 X-3.8833 Y6.9169 F60.00
G01 X-3.8781 Y6.9117 F60.00
G01 X-3.8725 Y6.9069 F60.00
G01 X-3.8614 Y6.8992 F60.00
G01 X-3.8550 Y6.8957 F60.00
G01 X-3.8483 Y6.8926 F60.00
G01 X-3.8390 Y6.8893 F60.00
G01 X-3.8295 Y6.8869 F60.00
G01 X-3.8198 Y6.8855 F60.00
G01 X-3.8100 Y6.8850 F60.00
G01 X-1.2675 Y6.8850 F60.00
G01 X-1.2602 Y6.8855 F60.00
G01 X-1.2529 Y6.8865 F60.00
G01 X-1.2457 Y6.8880 F60.00
G01 X-1.2386 Y6.8900 F60.00
G01 X-1.2317 Y6.8926 F60.00
G01 X-1.2250 Y6.8957 F60.00
G01 X-1.2134 Y6.9025 F60.00
G01 X-1.2075 Y6.9069 F60.00
G01 X-1.2019 Y6.9117 F60.00
G01 X-1.1927 Y6.9216 F60.00
G01 X-1.1882 Y6.9274 F60.00
G01 X-1.1842 Y6.9336 F60.00
G01 X-1.1807 Y6.9400 F60.00
G01 X-1.1776 Y6.9467 F60.00
G01 X-1.1743 Y6.9560 F60.00
G01 X-1.1719 Y6.9655 F60.00
G01 X-1.1705 Y6.9752 F60.00
G01 X-1.1700 Y6.9850 F60.00
G01 X-1.1701 Y8.2587 F60.00
G01 X-1.1715 Y8.2721 F60.00
G01 X-1.1730 Y8.2793 F60.00
G01 X-1.1750 Y8.2864 F60.00
G01 X-1.1776 Y8.2933 F60.00
G01 X-1.1807 Y8.3000 F60.00
G01 X-1.1875 Y8.3116 F60.00
G01 X-1.1919 Y8.3175 F60.00
G01 X-1.1967 Y8.3231 F60.00
G01 X-1.2019 Y8.3283 F60.00
G01 X-1.2075 Y8.3331 F60.00
G01 X-1.2186 Y8.3408 F60.00
G01 X-1.2250 Y8.3443 F60.00
G01 X-1.2317 Y8.3474 F60.00
G01 X-1.2410 Y8.3507 F60.00
G01 X-1.2505 Y8.3531 F60.00
G01 X-1.2602 Y8.3545 F60.00
G01 X-1.2700 Y8.3550 F60.00
G01 X-3.6271 Y8.3550 F60.00
G01 X-4.5789 Y9.3066 F60.00
G01 X-4.5890 Y9.3154 F60.00
G01 X-4.6039 Y9.3263 F60.00
G01 X-4.6185 Y9.3352 F60.00
G01 X-4.6306 Y9.3414 F60.00
G01 X-4.6465 Y9.3479 F60.00
G01 X-4.6593 Y9.3521 F60.00
G01 X-4.6760 Y9.3562 F60.00
G01 X-4.6930 Y9.3588 F60.00
G01 X-4.7040 Y9.3597 F60.00
G01 X-4.7150 Y9.3600 F60.00
G01 X-4.9408 Y9.3601 F60.00
G01 X-4.9483 Y9.3660 F60.00
G01 X-4.9555 Y9.3708 F60.00
G01 X-4.9630 Y9.3749 F60.00
G01 X-4.9709 Y9.3783 F60.00
G01 X-4.9790 Y9.3810 F60.00
G01 X-4.9874 Y9.3831 F60.00
G01 X-4.9971 Y9.3845 F60.00
G01 X-5.0057 Y9.3850 F60.00
G01 X-6.0069 Y9.3850 F60.00
G01 X-6.0155 Y9.3846 F60.00
G01 X-6.0228 Y9.3837 F60.00
G01 X-6.0300 Y9.3823 F60.00
G01 X-6.0371 Y9.3803 F60.00
G01 X-6.0497 Y9.3754 F60.00
G01 X-6.0614 Y9.3688 F60.00
G01 X-6.0722 Y9.3607 F60.00
G01 X-6.0818 Y9.3512 F60.00
G01 X-6.0900 Y9.3406 F60.00
G01 X-6.0962 Y9.3300 F60.00
G01 X-6.1015 Y9.3175 F60.00
G01 X-6.1050 Y9.3045 F60.00
G01 X-6.1064 Y9.2948 F60.00
G01 X-6.1069 Y9.2850 F60.00
G01 X-6.1069 Y9.0350 F60.00
G01 X-6.1066 Y9.0276 F60.00
G01 X-6.1056 Y9.0191 F60.00
G01 X-6.1036 Y9.0095 F60.00
G01 X-6.1006 Y9.0002 F60.00
G01 X-6.0968 Y8.9911 F60.00
G01 X-6.0920 Y8.9825 F60.00
G01 X-6.0872 Y8.9754 F60.00
G01 X-6.0818 Y8.9688 F60.00
G01 X-6.0750 Y8.9617 F60.00
G01 X-6.0675 Y8.9554 F60.00
G01 X-6.0604 Y8.9505 F60.00
G01 X-6.0530 Y8.9462 F60.00
G01 X-6.0440 Y8.9421 F60.00
G01 X-6.0348 Y8.9390 F60.00
G01 X-6.0264 Y8.9369 F60.00
G01 X-6.0167 Y8.9355 F60.00
G01 X-6.0069 Y8.9350 F60.00
G00 Z0.5000
G00 X-6.0069 Y9.4350
G01 F25.00
G01 Z-0.0500
G01 F60.00
G01 X-5.0057 Y9.4350 F60.00
G01 X-4.9983 Y9.4354 F60.00
G01 X-4.9910 Y9.4363 F60.00
G01 X-4.9838 Y9.4377 F60.00
G01 X-4.9767 Y9.4397 F60.00
G01 X-4.9698 Y9.4421 F60.00
G01 X-4.9630 Y9.4451 F60.00
G01 X-4.9512 Y9.4520 F60.00
G01 X-3.9358 Y9.4520 F60.00
G01 X-3.9247 Y9.4523 F60.00
G01 X-3.9089 Y9.4539 F60.00
G01 X-3.8968 Y9.4560 F60.00
G01 X-3.8850 Y9.4589 F60.00
G01 X-3.8781 Y9.4517 F60.00
G01 X-3.8696 Y9.4447 F60.00
G01 X-3.8604 Y9.4386 F60.00
G01 X-3.8516 Y9.4341 F60.00
G01 X-3.8414 Y9.4300 F60.00
G01 X-3.8319 Y9.4274 F60.00
G01 X-3.8222 Y9.4258 F60.00
G01 X-3.8112 Y9.4250 F60.00
G01 X-1.2700 Y9.4250 F60.00
G01 X-1.2626 Y9.4253 F60.00
G01 X-1.2553 Y9.4261 F60.00
G01 X-1.2421 Y9.4290 F60.00
G01 X-1.2340 Y9.4317 F60.00
G01 X-1.2272 Y9.4346 F60.00
G01 X-1.2207 Y9.4380 F60.00
G01 X-1.2144 Y9.4419 F60.00
G01 X-1.2085 Y9.4462 F60.00
G01 X-1.2019 Y9.4517 F60.00
G01 X-1.1959 Y9.4578 F60.00
G01 X-1.1912 Y9.4635 F60.00
G01 X-1.1869 Y9.4694 F60.00
G01 X-1.1824 Y9.4768 F60.00
G01 X-1.1791 Y9.4834 F60.00
G01 X-1.1763 Y9.4902 F60.00
G01 X-1.1736 Y9.4983 F60.00
G01 X-1.1719 Y9.5055 F60.00
G01 X-1.1708 Y9.5128 F60.00
G01 X-1.1701 Y9.5201 F60.00
G01 X-1.1700 Y10.7950 F60.00
G01 X-1.1709 Y10.8085 F60.00
G01 X-1.1722 Y10.8157 F60.00
G01 X-1.1740 Y10.8229 F60.00
G01 X-1.1763 Y10.8298 F60.00
G01 X-1.1796 Y10.8378 F60.00
G01 X-1.1830 Y10.8443 F60.00
G01 X-1.1875 Y10.8516 F60.00
G01 X-1.1919 Y10.8575 F60.00
G01 X-1.1976 Y10.8640 F60.00
G01 X-1.2038 Y10.8699 F60.00
G01 X-1.2094 Y10.8746 F60.00
G01 X-1.2165 Y10.8795 F60.00
G01 X-1.2229 Y10.8832 F60.00
G01 X-1.2306 Y10.8869 F60.00
G01 X-1.2375 Y10.8896 F60.00
G01 X-1.2445 Y10.8917 F60.00
G01 X-1.2517 Y10.8933 F60.00
G01 X-1.2590 Y10.8944 F60.00
G01 X-1.2675 Y10.8950 F60.00
G01 X-3.8100 Y10.8950 F60.00
G01 X-3.8174 Y10.8947 F60.00
G01 X-3.8247 Y10.8939 F60.00
G01 X-3.8379 Y10.8910 F60.00
G01 X-3.8460 Y10.8883 F60.00
G01 X-3.8528 Y10.8854 F60.00
G01 X-3.8593 Y10.8820 F60.00
G01 X-3.8656 Y10.8781 F60.00
G01 X-3.8715 Y10.8738 F60.00
G01 X-3.8772 Y10.8691 F60.00
G01 X-3.8833 Y10.8631 F60.00
G01 X-3.8881 Y10.8575 F60.00
G01 X-3.8925 Y10.8516 F60.00
G01 X-3.8964 Y10.8454 F60.00
G01 X-3.8999 Y10.8389 F60.00
G01 X-3.9029 Y10.8321 F60.00
G01 X-3.9053 Y10.8252 F60.00
G01 X-3.9076 Y10.8169 F60.00
G01 X-3.9089 Y10.8097 F60.00
G01 X-3.9097 Y10.8024 F60.00
G01 X-3.9100 Y10.7950 F60.00
G01 X-3.9100 Y9.9619 F60.00
G01 X-4.0199 Y9.8520 F60.00
G01 X-4.9327 Y9.8521 F60.00
G01 X-4.9397 Y9.8591 F60.00
G01 X-4.9473 Y9.8653 F60.00
G01 X-4.9565 Y9.8714 F60.00
G01 X-4.9653 Y9.8759 F60.00
G01 X-4.9744 Y9.8796 F60.00
G01 X-4.9850 Y9.8826 F60.00
G01 X-4.9947 Y9.8842 F60.00
G01 X-5.0057 Y9.8850 F60.00
G01 X-6.0069 Y9.8850 F60.00
G01 X-6.0167 Y9.8845 F60.00
G01 X-6.0276 Y9.8828 F60.00
G01 X-6.0348 Y9.8810 F60.00
G01 X-6.0417 Y9.8787 F60.00
G01 X-6.0485 Y9.8759 F60.00
G01 X-6.0551 Y9.8726 F60.00
G01 X-6.0665 Y9.8653 F60.00
G01 X-6.0722 Y9.8607 F60.00
G01 X-6.0776 Y9.8557 F60.00
G01 X-6.0826 Y9.8503 F60.00
G01 X-6.0872 Y9.8446 F60.00
G01 X-6.0945 Y9.8332 F60.00
G01 X-6.1002 Y9.8210 F60.00
G01 X-6.1026 Y9.8140 F60.00
G01 X-6.1045 Y9.8069 F60.00
G01 X-6.1063 Y9.7960 F60.00
G01 X-6.1069 Y9.7862 F60.00
G01 X-6.1068 Y9.5301 F60.00
G01 X-6.1058 Y9.5203 F60.00
G01 X-6.1039 Y9.5107 F60.00
G01 X-6.1015 Y9.5025 F60.00
G01 X-6.0978 Y9.4934 F60.00
G01 X-6.0933 Y9.4846 F60.00
G01 X-6.0879 Y9.4764 F60.00
G01 X-6.0818 Y9.4688 F60.00
G01 X-6.0759 Y9.4626 F60.00
G01 X-6.0684 Y9.4562 F60.00
G01 X-6.0614 Y9.4512 F60.00
G01 X-6.0530 Y9.4462 F60.00
G01 X-6.0440 Y9.4421 F60.00
G01 X-6.0348 Y9.4390 F60.00
G01 X-6.0264 Y9.4369 F60.00
G01 X-6.0167 Y9.4355 F60.00
G01 X-6.0069 Y9.4350 F60.00
G00 Z0.5000
G00 X-6.0069 Y10.4350
G01 F25.00
G01 Z-0.0500
G01 F60.00
G01 X-5.0069 Y10.4350 F60.00
G01 X-4.9995 Y10.4353 F60.00
G01 X-4.9910 Y10.4363 F60.00
G01 X-4.9826 Y10.4380 F60.00
G01 X-4.9744 Y10.4404 F60.00
G01 X-4.9619 Y10.4457 F60.00
G01 X-4.9503 Y10.4525 F60.00
G01 X-4.9397 Y10.4609 F60.00
G01 X-4.9304 Y10.4706 F60.00
G01 X-4.9224 Y10.4815 F60.00
G01 X-4.9160 Y10.4934 F60.00
G01 X-4.9112 Y10.5060 F60.00
G01 X-4.9082 Y10.5191 F60.00
G01 X-4.9073 Y10.5264 F60.00
G01 X-4.9069 Y10.5350 F60.00
G01 X-4.9069 Y10.7862 F60.00
G01 X-4.9073 Y10.7936 F60.00
G01 X-4.9084 Y10.8021 F60.00
G01 X-4.9102 Y10.8105 F60.00
G01 X-4.9123 Y10.8175 F60.00
G01 X-4.9150 Y10.8244 F60.00
G01 X-4.9181 Y10.8311 F60.00
G01 X-4.9218 Y10.8375 F60.00
G01 X-4.9259 Y10.8436 F60.00
G01 X-4.9304 Y10.8494 F60.00
G01 X-4.9353 Y10.8548 F60.00
G01 X-4.9407 Y10.8599 F60.00
G01 X-4.9463 Y10.8646 F60.00
G01 X-4.9524 Y10.8688 F60.00
G01 X-4.9587 Y10.8726 F60.00
G01 X-4.9653 Y10.8759 F60.00
G01 X-4.9721 Y10.8787 F60.00
G01 X-4.9802 Y10.8814 F60.00
G01 X-4.9874 Y10.8831 F60.00
G01 X-4.9947 Y10.8842 F60.00
G01 X-5.0020 Y10.8849 F60.00
G01 X-6.0069 Y10.8850 F60.00
G01 X-6.0155 Y10.8846 F60.00
G01 X-6.0228 Y10.8837 F60.00
G01 X-6.0312 Y10.8820 F60.00
G01 X-6.0394 Y10.8796 F60.00
G01 X-6.0519 Y10.8743 F60.00
G01 X-6.0635 Y10.8675 F60.00
G01 X-6.0741 Y10.8591 F60.00
G01 X-6.0826 Y10.8503 F60.00
G01 X-6.0900 Y10.8406 F60.00
G01 X-6.0968 Y10.8289 F60.00
G01 X-6.1019 Y10.8164 F60.00
G01 X-6.1052 Y10.8033 F60.00
G01 X-6.1064 Y10.7948 F60.00
G01 X-6.1069 Y10.7850 F60.00
G01 X-6.1069 Y10.5350 F60.00
G01 X-6.1066 Y10.5276 F60.00
G01 X-6.1056 Y10.5191 F60.00
G01 X-6.1036 Y10.5095 F60.00
G01 X-6.1006 Y10.5002 F60.00
G01 X-6.0968 Y10.4911 F60.00
G01 X-6.0920 Y10.4825 F60.00
G01 X-6.0872 Y10.4754 F60.00
G01 X-6.0818 Y10.4688 F60.00
G01 X-6.0750 Y10.4617 F60.00
G01 X-6.0675 Y10.4554 F60.00
G01 X-6.0604 Y10.4505 F60.00
G01 X-6.0530 Y10.4462 F60.00
G01 X-6.0440 Y10.4421 F60.00
G01 X-6.0348 Y10.4390 F60.00
G01 X-6.0264 Y10.4369 F60.00
G01 X-6.0167 Y10.4355 F60.00
G01 X-6.0069 Y10.4350 F60.00
G00 Z0.5000
G00 X-6.0069 Y10.9350
G01 F25.00
G01 Z-0.0500
G01 F60.00
G01 X-5.0069 Y10.9350 F60.00
G01 X-4.9995 Y10.9353 F60.00
G01 X-4.9910 Y10.9363 F60.00
G01 X-4.9826 Y10.9380 F60.00
G01 X-4.9744 Y10.9404 F60.00
G01 X-4.9619 Y10.9457 F60.00
G01 X-4.9503 Y10.9525 F60.00
G01 X-4.9397 Y10.9609 F60.00
G01 X-4.9304 Y10.9706 F60.00
G01 X-4.9224 Y10.9815 F60.00
G01 X-4.9160 Y10.9934 F60.00
G01 X-4.9112 Y11.0060 F60.00
G01 X-4.9082 Y11.0191 F60.00
G01 X-4.9073 Y11.0264 F60.00
G01 X-4.9069 Y11.0350 F60.00
G01 X-4.9069 Y11.2862 F60.00
G01 X-4.9073 Y11.2936 F60.00
G01 X-4.9084 Y11.3021 F60.00
G01 X-4.9102 Y11.3105 F60.00
G01 X-4.9123 Y11.3175 F60.00
G01 X-4.9150 Y11.3244 F60.00
G01 X-4.9181 Y11.3311 F60.00
G01 X-4.9218 Y11.3375 F60.00
G01 X-4.9259 Y11.3436 F60.00
G01 X-4.9304 Y11.3494 F60.00
G01 X-4.9353 Y11.3548 F60.00
G01 X-4.9407 Y11.3599 F60.00
G01 X-4.9463 Y11.3646 F60.00
G01 X-4.9524 Y11.3688 F60.00
G01 X-4.9587 Y11.3726 F60.00
G01 X-4.9653 Y11.3759 F60.00
G01 X-4.9721 Y11.3787 F60.00
G01 X-4.9802 Y11.3814 F60.00
G01 X-4.9874 Y11.3831 F60.00
G01 X-4.9947 Y11.3842 F60.00
G01 X-5.0020 Y11.3849 F60.00
G01 X-6.0069 Y11.3850 F60.00
G01 X-6.0155 Y11.3846 F60.00
G01 X-6.0228 Y11.3837 F60.00
G01 X-6.0312 Y11.3820 F60.00
G01 X-6.0394 Y11.3796 F60.00
G01 X-6.0519 Y11.3743 F60.00
G01 X-6.0635 Y11.3675 F60.00
G01 X-6.0741 Y11.3591 F60.00
G01 X-6.0826 Y11.3503 F60.00
G01 X-6.0900 Y11.3406 F60.00
G01 X-6.0968 Y11.3289 F60.00
G01 X-6.1019 Y11.3164 F60.00
G01 X-6.1052 Y11.3033 F60.00
G01 X-6.1064 Y11.2948 F60.00
G01 X-6.1069 Y11.2850 F60.00
G01 X-6.1069 Y11.0350 F60.00
G01 X-6.1066 Y11.0276 F60.00
G01 X-6.1056 Y11.0191 F60.00
G01 X-6.1036 Y11.0095 F60.00
G01 X-6.1006 Y11.0002 F60.00
G01 X-6.0968 Y10.9911 F60.00
G01 X-6.0920 Y10.9825 F60.00
G01 X-6.0872 Y10.9754 F60.00
G01 X-6.0818 Y10.9688 F60.00
G01 X-6.0750 Y10.9617 F60.00
G01 X-6.0675 Y10.9554 F60.00
G01 X-6.0604 Y10.9505 F60.00
G01 X-6.0530 Y10.9462 F60.00
G01 X-6.0440 Y10.9421 F60.00
G01 X-6.0348 Y10.9390 F60.00
G01 X-6.0264 Y10.9369 F60.00
G01 X-6.0167 Y10.9355 F60.00
G01 X-6.0069 Y10.9350 F60.00
G00 Z0.5000
G00 X-10.2331 Y9.9350
G01 F25.00
G01 Z-0.0500
G01 F60.00
G01 X-9.2331 Y9.9350 F60.00
G01 X-9.2257 Y9.9353 F60.00
G01 X-9.2172 Y9.9363 F60.00
G01 X-9.2088 Y9.9380 F60.00
G01 X-9.2006 Y9.9404 F60.00
G01 X-9.1881 Y9.9457 F60.00
G01 X-9.1765 Y9.9525 F60.00
G01 X-9.1659 Y9.9609 F60.00
G01 X-9.1566 Y9.9706 F60.00
G01 X-9.1486 Y9.9815 F60.00
G01 X-9.1422 Y9.9934 F60.00
G01 X-9.1374 Y10.0060 F60.00
G01 X-9.1344 Y10.0191 F60.00
G01 X-9.1334 Y10.0276 F60.00
G01 X-9.1331 Y10.0350 F60.00
G01 X-9.1331 Y10.2862 F60.00
G01 X-9.1335 Y10.2936 F60.00
G01 X-9.1346 Y10.3021 F60.00
G01 X-9.1364 Y10.3105 F60.00
G01 X-9.1385 Y10.3175 F60.00
G01 X-9.1412 Y10.3244 F60.00
G01 X-9.1443 Y10.3311 F60.00
G01 X-9.1480 Y10.3375 F60.00
G01 X-9.1521 Y10.3436 F60.00
G01 X-9.1566 Y10.3494 F60.00
G01 X-9.1615 Y10.3548 F60.00
G01 X-9.1669 Y10.3599 F60.00
G01 X-9.1725 Y10.3646 F60.00
G01 X-9.1786 Y10.3688 F60.00
G01 X-9.1849 Y10.3726 F60.00
G01 X-9.1915 Y10.3759 F60.00
G01 X-9.1983 Y10.3787 F60.00
G01 X-9.2052 Y10.3810 F60.00
G01 X-9.2124 Y10.3828 F60.00
G01 X-9.2196 Y10.3841 F60.00
G01 X-9.2282 Y10.3849 F60.00
G01 X-10.2331 Y10.3850 F60.00
G01 X-10.2417 Y10.3846 F60.00
G01 X-10.2502 Y10.3835 F60.00
G01 X-10.2574 Y10.3820 F60.00
G01 X-10.2656 Y10.3796 F60.00
G01 X-10.2770 Y10.3749 F60.00
G01 X-10.2887 Y10.3681 F60.00
G01 X-10.2993 Y10.3599 F60.00
G01 X-10.3088 Y10.3503 F60.00
G01 X-10.3169 Y10.3395 F60.00
G01 X-10.3235 Y10.3278 F60.00
G01 X-10.3281 Y10.3164 F60.00
G01 X-10.3314 Y10.3033 F60.00
G01 X-10.3326 Y10.2948 F60.00
G01 X-10.3331 Y10.2850 F60.00
G01 X-10.3331 Y10.0350 F60.00
G01 X-10.3328 Y10.0276 F60.00
G01 X-10.3318 Y10.0191 F60.00
G01 X-10.3298 Y10.0095 F60.00
G01 X-10.3268 Y10.0002 F60.00
G01 X-10.3235 Y9.9922 F60.00
G01 X-10.3189 Y9.9836 F60.00
G01 X-10.3134 Y9.9754 F60.00
G01 X-10.3080 Y9.9688 F60.00
G01 X-10.3012 Y9.9617 F60.00
G01 X-10.2937 Y9.9554 F60.00
G01 X-10.2856 Y9.9499 F60.00
G01 X-10.2770 Y9.9451 F60.00
G01 X-10.2691 Y9.9417 F60.00
G01 X-10.2598 Y9.9386 F60.00
G01 X-10.2514 Y9.9367 F60.00
G01 X-10.2417 Y9.9354 F60.00
G01 X-10.2331 Y9.9350 F60.00
G00 Z0.5000
G00 X-10.2331 Y8.9350
G01 F25.00
G01 Z-0.0500
G01 F60.00
G01 X-9.9331 Y8.9350 F60.00
G01 X-9.9332 Y8.2120 F60.00
G01 X-9.9982 Y8.2120 F60.00
G01 X-10.0092 Y8.2112 F60.00
G01 X-10.0189 Y8.2096 F60.00
G01 X-10.0295 Y8.2066 F60.00
G01 X-10.0386 Y8.2029 F60.00
G01 X-10.0474 Y8.1984 F60.00
G01 X-10.0576 Y8.1916 F60.00
G01 X-10.0677 Y8.1827 F60.00
G01 X-10.0758 Y8.1735 F60.00
G01 X-10.0828 Y8.1634 F60.00
G01 X-10.0884 Y8.1525 F60.00
G01 X-10.0927 Y8.1410 F60.00
G01 X-10.0955 Y8.1291 F60.00
G01 X-10.0969 Y8.1169 F60.00
G01 X-10.0970 Y6.1108 F60.00
G01 X-10.0959 Y6.0973 F60.00
G01 X-10.0930 Y6.0841 F60.00
G01 X-10.0884 Y6.0715 F60.00
G01 X-10.0821 Y6.0595 F60.00
G01 X-10.0751 Y6.0495 F60.00
G01 X-10.0668 Y6.0404 F60.00
G01 X-10.0576 Y6.0324 F60.00
G01 X-10.0463 Y6.0250 F60.00
G01 X-10.0353 Y6.0196 F60.00
G01 X-10.0237 Y6.0156 F60.00
G01 X-10.0117 Y6.0131 F60.00
G01 X-9.9995 Y6.0120 F60.00
G01 X-8.4958 Y6.0120 F60.00
G01 X-8.4823 Y6.0131 F60.00
G01 X-8.4691 Y6.0160 F60.00
G01 X-8.4565 Y6.0206 F60.00
G01 X-8.4445 Y6.0269 F60.00
G01 X-8.4345 Y6.0339 F60.00
G01 X-8.4254 Y6.0422 F60.00
G01 X-8.4167 Y6.0524 F60.00
G01 X-8.4100 Y6.0627 F60.00
G01 X-8.4046 Y6.0737 F60.00
G01 X-8.4006 Y6.0853 F60.00
G01 X-8.3979 Y6.0985 F60.00
G01 X-8.3970 Y6.1108 F60.00
G01 X-8.3970 Y8.1132 F60.00
G01 X-8.3981 Y8.1267 F60.00
G01 X-8.4010 Y8.1399 F60.00
G01 X-8.4056 Y8.1525 F60.00
G01 X-8.4119 Y8.1645 F60.00
G01 X-8.4189 Y8.1745 F60.00
G01 X-8.4272 Y8.1836 F60.00
G01 X-8.4364 Y8.1916 F60.00
G01 X-8.4466 Y8.1984 F60.00
G01 X-8.4576 Y8.2039 F60.00
G01 X-8.4691 Y8.2080 F60.00
G01 X-8.4811 Y8.2107 F60.00
G01 X-8.4933 Y8.2119 F60.00
G01 X-9.5331 Y8.2120 F60.00
G01 X-9.5330 Y8.9350 F60.00
G01 X-9.2331 Y8.9350 F60.00
G01 X-9.2233 Y8.9355 F60.00
G01 X-9.2136 Y8.9369 F60.00
G01 X-9.2029 Y8.9397 F60.00
G01 X-9.1926 Y8.9436 F60.00
G01 X-9.1838 Y8.9480 F60.00
G01 X-9.1755 Y8.9532 F60.00
G01 X-9.1669 Y8.9601 F60.00
G01 X-9.1598 Y8.9669 F60.00
G01 X-9.1535 Y8.9744 F60.00
G01 X-9.1493 Y8.9805 F60.00
G01 X-9.1455 Y8.9868 F60.00
G01 X-9.1422 Y8.9934 F60.00
G01 X-9.1394 Y9.0002 F60.00
G01 X-9.1371 Y9.0071 F60.00
G01 X-9.1353 Y9.0143 F60.00
G01 X-9.1340 Y9.0215 F60.00
G01 X-9.1333 Y9.0289 F60.00
G01 X-9.1331 Y9.2850 F60.00
G01 X-9.1336 Y9.2948 F60.00
G01 X-9.1358 Y9.3081 F60.00
G01 X-9.1398 Y9.3210 F60.00
G01 X-9.1455 Y9.3332 F60.00
G01 X-9.1528 Y9.3446 F60.00
G01 X-9.1615 Y9.3548 F60.00
G01 X-9.1716 Y9.3638 F60.00
G01 X-9.1827 Y9.3714 F60.00
G01 X-9.1937 Y9.3769 F60.00
G01 X-9.2029 Y9.3803 F60.00
G01 X-9.2124 Y9.3828 F60.00
G01 X-9.2221 Y9.3844 F60.00
G01 X-9.2319 Y9.3850 F60.00
G01 X-10.2331 Y9.3850 F60.00
G01 X-10.2429 Y9.3845 F60.00
G01 X-10.2526 Y9.3831 F60.00
G01 X-10.2621 Y9.3807 F60.00
G01 X-10.2725 Y9.3769 F60.00
G01 X-10.2835 Y9.3714 F60.00
G01 X-10.2937 Y9.3646 F60.00
G01 X-10.3029 Y9.3566 F60.00
G01 X-10.3112 Y9.3475 F60.00
G01 X-10.3189 Y9.3364 F60.00
G01 X-10.3245 Y9.3255 F60.00
G01 X-10.3288 Y9.3140 F60.00
G01 X-10.3316 Y9.3021 F60.00
G01 X-10.3327 Y9.2936 F60.00
G01 X-10.3331 Y9.2850 F60.00
G01 X-10.3331 Y9.0350 F60.00
G01 X-10.3327 Y9.0264 F60.00
G01 X-10.3314 Y9.0167 F60.00
G01 X-10.3295 Y9.0083 F60.00
G01 X-10.3268 Y9.0002 F60.00
G01 X-10.3230 Y8.9911 F60.00
G01 X-10.3182 Y8.9825 F60.00
G01 X-10.3134 Y8.9754 F60.00
G01 X-10.3072 Y8.9678 F60.00
G01 X-10.3003 Y8.9609 F60.00
G01 X-10.2927 Y8.9547 F60.00
G01 X-10.2856 Y8.9499 F60.00
G01 X-10.2781 Y8.9457 F60.00
G01 X-10.2691 Y8.9417 F60.00
G01 X-10.2598 Y8.9386 F60.00
G01 X-10.2514 Y8.9367 F60.00
G01 X-10.2417 Y8.9354 F60.00
G01 X-10.2331 Y8.9350 F60.00
G00 Z0.5000
G00 X-14.5796 Y8.3807
G01 F25.00
G01 Z-0.0500
G01 F60.00
G01 X-15.9004 Y8.3807 F60.00
G01 X-15.9390 Y8.3797 F60.00
G01 X-15.9774 Y8.3768 F60.00
G01 X-16.0120 Y8.3725 F60.00
G01 X-16.0464 Y8.3666 F60.00
G01 X-16.0852 Y8.3579 F60.00
G01 X-16.1212 Y8.3480 F60.00
G01 X-16.1567 Y8.3363 F60.00
G01 X-16.1938 Y8.3219 F60.00
G01 X-16.2257 Y8.3077 F60.00
G01 X-16.2568 Y8.2920 F60.00
G01 X-16.2904 Y8.2731 F60.00
G01 X-16.3230 Y8.2525 F60.00
G01 X-16.3536 Y8.2310 F60.00
G01 X-16.3830 Y8.2081 F60.00
G01 X-16.4113 Y8.1837 F60.00
G01 X-16.4383 Y8.1579 F60.00
G01 X-16.4641 Y8.1309 F60.00
G01 X-16.4885 Y8.1026 F60.00
G01 X-16.5114 Y8.0732 F60.00
G01 X-16.5329 Y8.0426 F60.00
G01 X-16.5529 Y8.0111 F60.00
G01 X-16.5713 Y7.9786 F60.00
G01 X-16.5881 Y7.9453 F60.00
G01 X-16.6032 Y7.9111 F60.00
G01 X-16.6167 Y7.8763 F60.00
G01 X-16.6284 Y7.8408 F60.00
G01 X-16.6383 Y7.8048 F60.00
G01 X-16.6465 Y7.7684 F60.00
G01 X-16.6529 Y7.7316 F60.00
G01 X-16.6575 Y7.6946 F60.00
G01 X-16.6602 Y7.6573 F60.00
G01 X-16.6611 Y7.6200 F60.00
G01 X-16.6602 Y7.5827 F60.00
G01 X-16.6575 Y7.5454 F60.00
G01 X-16.6529 Y7.5084 F60.00
G01 X-16.6465 Y7.4716 F60.00
G01 X-16.6383 Y7.4352 F60.00
G01 X-16.6284 Y7.3992 F60.00
G01 X-16.6167 Y7.3637 F60.00
G01 X-16.6032 Y7.3289 F60.00
G01 X-16.5881 Y7.2947 F60.00
G01 X-16.5713 Y7.2614 F60.00
G01 X-16.5535 Y7.2300 F60.00
G01 X-16.5329 Y7.1974 F60.00
G01 X-16.5099 Y7.1649 F60.00
G01 X-16.4869 Y7.1355 F60.00
G01 X-16.4641 Y7.1091 F60.00
G01 X-16.4400 Y7.0838 F60.00
G01 X-16.4113 Y7.0563 F60.00
G01 X-16.3830 Y7.0319 F60.00
G01 X-16.3536 Y7.0090 F60.00
G01 X-16.3210 Y6.9861 F60.00
G01 X-16.2894 Y6.9663 F60.00
G01 X-16.2590 Y6.9491 F60.00
G01 X-16.2279 Y6.9334 F60.00
G01 X-16.1915 Y6.9172 F60.00
G01 X-16.1567 Y6.9037 F60.00
G01 X-16.1212 Y6.8920 F60.00
G01 X-16.0829 Y6.8815 F60.00
G01 X-16.0488 Y6.8739 F60.00
G01 X-16.0144 Y6.8679 F60.00
G01 X-15.9762 Y6.8631 F60.00
G01 X-15.9377 Y6.8602 F60.00
G01 X-15.9004 Y6.8593 F60.00
G01 X-14.5796 Y6.8593 F60.00
G01 X-14.5410 Y6.8603 F60.00
G01 X-14.5026 Y6.8632 F60.00
G01 X-14.4680 Y6.8675 F60.00
G01 X-14.4336 Y6.8734 F60.00
G01 X-14.3948 Y6.8821 F60.00
G01 X-14.3588 Y6.8920 F60.00
G01 X-14.3233 Y6.9037 F60.00
G01 X-14.2862 Y6.9181 F60.00
G01 X-14.2543 Y6.9323 F60.00
G01 X-14.2232 Y6.9480 F60.00
G01 X-14.1896 Y6.9669 F60.00
G01 X-14.1549 Y6.9889 F60.00
G01 X-14.1264 Y7.0090 F60.00
G01 X-14.0970 Y7.0319 F60.00
G01 X-14.0687 Y7.0563 F60.00
G01 X-14.0434 Y7.0804 F60.00
G01 X-14.0143 Y7.1110 F60.00
G01 X-13.9915 Y7.1374 F60.00
G01 X-13.9686 Y7.1668 F60.00
G01 X-13.9471 Y7.1974 F60.00
G01 X-13.9284 Y7.2268 F60.00
G01 X-13.9076 Y7.2636 F60.00
G01 X-13.8919 Y7.2947 F60.00
G01 X-13.8768 Y7.3289 F60.00
G01 X-13.8633 Y7.3637 F60.00
G01 X-13.8524 Y7.3968 F60.00
G01 X-13.8411 Y7.4375 F60.00
G01 X-13.8335 Y7.4716 F60.00
G01 X-13.8271 Y7.5084 F60.00
G01 X-13.8225 Y7.5454 F60.00
G01 X-13.8199 Y7.5802 F60.00
G01 X-13.8189 Y7.6225 F60.00
G01 X-13.8198 Y7.6573 F60.00
G01 X-13.8225 Y7.6946 F60.00
G01 X-13.8271 Y7.7316 F60.00
G01 X-13.8330 Y7.7660 F60.00
G01 X-13.8423 Y7.8072 F60.00
G01 X-13.8516 Y7.8408 F60.00
G01 X-13.8633 Y7.8763 F60.00
G01 X-13.8768 Y7.9111 F60.00
G01 X-13.8909 Y7.9430 F60.00
G01 X-13.9099 Y7.9808 F60.00
G01 X-13.9271 Y8.0111 F60.00
G01 X-13.9471 Y8.0426 F60.00
G01 X-13.9686 Y8.0732 F60.00
G01 X-13.9900 Y8.1007 F60.00
G01 X-14.0176 Y8.1327 F60.00
G01 X-14.0417 Y8.1579 F60.00
G01 X-14.0687 Y8.1837 F60.00
G01 X-14.0970 Y8.2081 F60.00
G01 X-14.1245 Y8.2295 F60.00
G01 X-14.1590 Y8.2539 F60.00
G01 X-14.1885 Y8.2725 F60.00
G01 X-14.2210 Y8.2909 F60.00
G01 X-14.2543 Y8.3077 F60.00
G01 X-14.2862 Y8.3219 F60.00
G01 X-14.3256 Y8.3371 F60.00
G01 X-14.3588 Y8.3480 F60.00
G01 X-14.3948 Y8.3579 F60.00
G01 X-14.4312 Y8.3661 F60.00
G01 X-14.4656 Y8.3721 F60.00
G01 X-14.5075 Y8.3773 F60.00
G01 X-14.5423 Y8.3798 F60.00
G01 X-14.5796 Y8.3807 F60.00
G00 Z0.5000
G00 X-14.5796 Y10.9207
G01 F25.00
G01 Z-0.0500
G01 F60.00
G01 X-15.9004 Y10.9207 F60.00
G01 X-15.9390 Y10.9197 F60.00
G01 X-15.9774 Y10.9168 F60.00
G01 X-16.0120 Y10.9125 F60.00
G01 X-16.0464 Y10.9066 F60.00
G01 X-16.0852 Y10.8979 F60.00
G01 X-16.1212 Y10.8880 F60.00
G01 X-16.1567 Y10.8763 F60.00
G01 X-16.1938 Y10.8619 F60.00
G01 X-16.2257 Y10.8477 F60.00
G01 X-16.2568 Y10.8320 F60.00
G01 X-16.2904 Y10.8131 F60.00
G01 X-16.3230 Y10.7925 F60.00
G01 X-16.3536 Y10.7710 F60.00
G01 X-16.3830 Y10.7481 F60.00
G01 X-16.4113 Y10.7237 F60.00
G01 X-16.4383 Y10.6979 F60.00
G01 X-16.4641 Y10.6709 F60.00
G01 X-16.4885 Y10.6426 F60.00
G01 X-16.5114 Y10.6132 F60.00
G01 X-16.5329 Y10.5826 F60.00
G01 X-16.5529 Y10.5511 F60.00
G01 X-16.5713 Y10.5186 F60.00
G01 X-16.5881 Y10.4853 F60.00
G01 X-16.6032 Y10.4511 F60.00
G01 X-16.6167 Y10.4163 F60.00
G01 X-16.6284 Y10.3808 F60.00
G01 X-16.6383 Y10.3448 F60.00
G01 X-16.6465 Y10.3084 F60.00
G01 X-16.6529 Y10.2716 F60.00
G01 X-16.6575 Y10.2346 F60.00
G01 X-16.6602 Y10.1973 F60.00
G01 X-16.6611 Y10.1600 F60.00
G01 X-16.6602 Y10.1227 F60.00
G01 X-16.6575 Y10.0854 F60.00
G01 X-16.6529 Y10.0484 F60.00
G01 X-16.6465 Y10.0116 F60.00
G01 X-16.6383 Y9.9752 F60.00
G01 X-16.6284 Y9.9392 F60.00
G01 X-16.6167 Y9.9037 F60.00
G01 X-16.6032 Y9.8689 F60.00
G01 X-16.5881 Y9.8347 F60.00
G01 X-16.5713 Y9.8014 F60.00
G01 X-16.5535 Y9.7700 F60.00
G01 X-16.5329 Y9.7374 F60.00
G01 X-16.5099 Y9.7049 F60.00
G01 X-16.4885 Y9.6774 F60.00
G01 X-16.4657 Y9.6510 F60.00
G01 X-16.4383 Y9.6221 F60.00
G01 X-16.4094 Y9.5947 F60.00
G01 X-16.3830 Y9.5719 F60.00
G01 X-16.3555 Y9.5505 F60.00
G01 X-16.3230 Y9.5275 F60.00
G01 X-16.2915 Y9.5075 F60.00
G01 X-16.2590 Y9.4891 F60.00
G01 X-16.2234 Y9.4713 F60.00
G01 X-16.1915 Y9.4572 F60.00
G01 X-16.1590 Y9.4446 F60.00
G01 X-16.1212 Y9.4320 F60.00
G01 X-16.0829 Y9.4215 F60.00
G01 X-16.0488 Y9.4139 F60.00
G01 X-16.0144 Y9.4079 F60.00
G01 X-15.9750 Y9.4029 F60.00
G01 X-15.9365 Y9.4001 F60.00
G01 X-15.9004 Y9.3993 F60.00
G01 X-14.5784 Y9.3993 F60.00
G01 X-14.5398 Y9.4003 F60.00
G01 X-14.5050 Y9.4029 F60.00
G01 X-14.4704 Y9.4072 F60.00
G01 X-14.4312 Y9.4139 F60.00
G01 X-14.3936 Y9.4224 F60.00
G01 X-14.3564 Y9.4328 F60.00
G01 X-14.3233 Y9.4437 F60.00
G01 X-14.2908 Y9.4563 F60.00
G01 X-14.2543 Y9.4723 F60.00
G01 X-14.2188 Y9.4903 F60.00
G01 X-14.1885 Y9.5075 F60.00
G01 X-14.1590 Y9.5261 F60.00
G01 X-14.1264 Y9.5490 F60.00
G01 X-14.0951 Y9.5735 F60.00
G01 X-14.0687 Y9.5963 F60.00
G01 X-14.0426 Y9.6212 F60.00
G01 X-14.0159 Y9.6491 F60.00
G01 X-13.9900 Y9.6793 F60.00
G01 X-13.9686 Y9.7068 F60.00
G01 X-13.9485 Y9.7353 F60.00
G01 X-13.9265 Y9.7700 F60.00
G01 X-13.9076 Y9.8036 F60.00
G01 X-13.8919 Y9.8347 F60.00
G01 X-13.8773 Y9.8678 F60.00
G01 X-13.8629 Y9.9049 F60.00
G01 X-13.8520 Y9.9380 F60.00
G01 X-13.8458 Y9.9600 F60.00
G01 X-12.7829 Y9.9600 F60.00
G01 X-12.3415 Y9.5185 F60.00
G01 X-12.3334 Y9.5110 F60.00
G01 X-12.3202 Y9.5001 F60.00
G01 X-12.3091 Y9.4923 F60.00
G01 X-12.2943 Y9.4836 F60.00
G01 X-12.2788 Y9.4761 F60.00
G01 X-12.2662 Y9.4712 F60.00
G01 X-12.2498 Y9.4663 F60.00
G01 X-12.2366 Y9.4633 F60.00
G01 X-12.2196 Y9.4609 F60.00
G01 X-12.2000 Y9.4600 F60.00
G01 X-10.2992 Y9.4599 F60.00
G01 X-10.2917 Y9.4540 F60.00
G01 X-10.2845 Y9.4492 F60.00
G01 X-10.2770 Y9.4451 F60.00
G01 X-10.2691 Y9.4417 F60.00
G01 X-10.2610 Y9.4390 F60.00
G01 X-10.2526 Y9.4369 F60.00
G01 X-10.2441 Y9.4356 F60.00
G01 X-10.2356 Y9.4350 F60.00
G01 X-9.2319 Y9.4350 F60.00
G01 X-9.2233 Y9.4355 F60.00
G01 X-9.2160 Y9.4365 F60.00
G01 X-9.2076 Y9.4383 F60.00
G01 X-9.2006 Y9.4404 F60.00
G01 X-9.1926 Y9.4436 F60.00
G01 X-9.1860 Y9.4468 F60.00
G01 X-9.1786 Y9.4512 F60.00
G01 X-9.1716 Y9.4562 F60.00
G01 X-9.1659 Y9.4609 F60.00
G01 X-9.1598 Y9.4669 F60.00
G01 X-9.1543 Y9.4735 F60.00
G01 X-9.1493 Y9.4805 F60.00
G01 X-9.1455 Y9.4868 F60.00
G01 X-9.1417 Y9.4945 F60.00
G01 X-9.1389 Y9.5013 F60.00
G01 X-9.1364 Y9.5095 F60.00
G01 X-9.1340 Y9.5215 F60.00
G01 X-9.1331 Y9.5350 F60.00
G01 X-9.1331 Y9.7862 F60.00
G01 X-9.1339 Y9.7972 F60.00
G01 X-9.1355 Y9.8069 F60.00
G01 X-9.1374 Y9.8140 F60.00
G01 X-9.1398 Y9.8210 F60.00
G01 X-9.1427 Y9.8278 F60.00
G01 X-9.1467 Y9.8354 F60.00
G01 X-9.1506 Y9.8416 F60.00
G01 X-9.1550 Y9.8475 F60.00
G01 X-9.1598 Y9.8531 F60.00
G01 X-9.1659 Y9.8591 F60.00
G01 X-9.1716 Y9.8638 F60.00
G01 X-9.1786 Y9.8688 F60.00
G01 X-9.1849 Y9.8726 F60.00
G01 X-9.1915 Y9.8759 F60.00
G01 X-9.1983 Y9.8787 F60.00
G01 X-9.2052 Y9.8810 F60.00
G01 X-9.2124 Y9.8828 F60.00
G01 X-9.2209 Y9.8842 F60.00
G01 X-9.2331 Y9.8850 F60.00
G01 X-10.2356 Y9.8850 F60.00
G01 X-10.2441 Y9.8844 F60.00
G01 X-10.2526 Y9.8831 F60.00
G01 X-10.2610 Y9.8810 F60.00
G01 X-10.2691 Y9.8783 F60.00
G01 X-10.2770 Y9.8749 F60.00
G01 X-10.2845 Y9.8708 F60.00
G01 X-10.2917 Y9.8660 F60.00
G01 X-10.2992 Y9.8600 F60.00
G01 X-12.1171 Y9.8600 F60.00
G01 X-12.5603 Y10.3032 F60.00
G01 X-12.5731 Y10.3146 F60.00
G01 X-12.5889 Y10.3263 F60.00
G01 X-12.6057 Y10.3364 F60.00
G01 X-12.6223 Y10.3443 F60.00
G01 X-12.6326 Y10.3484 F60.00
G01 X-12.6419 Y10.3514 F60.00
G01 X-12.6610 Y10.3562 F60.00
G01 X-12.6804 Y10.3591 F60.00
G01 X-12.6988 Y10.3600 F60.00
G01 X-13.8458 Y10.3601 F60.00
G01 X-13.8520 Y10.3820 F60.00
G01 X-13.8638 Y10.4174 F60.00
G01 X-13.8768 Y10.4511 F60.00
G01 X-13.8914 Y10.4841 F60.00
G01 X-13.9087 Y10.5186 F60.00
G01 X-13.9259 Y10.5490 F60.00
G01 X-13.9478 Y10.5837 F60.00
G01 X-13.9686 Y10.6132 F60.00
G01 X-13.9915 Y10.6426 F60.00
G01 X-14.0159 Y10.6709 F60.00
G01 X-14.0400 Y10.6962 F60.00
G01 X-14.0706 Y10.7253 F60.00
G01 X-14.0970 Y10.7481 F60.00
G01 X-14.1255 Y10.7703 F60.00
G01 X-14.1590 Y10.7939 F60.00
G01 X-14.1885 Y10.8125 F60.00
G01 X-14.2210 Y10.8309 F60.00
G01 X-14.2543 Y10.8477 F60.00
G01 X-14.2862 Y10.8619 F60.00
G01 X-14.3256 Y10.8771 F60.00
G01 X-14.3588 Y10.8880 F60.00
G01 X-14.3948 Y10.8979 F60.00
G01 X-14.4312 Y10.9061 F60.00
G01 X-14.4656 Y10.9121 F60.00
G01 X-14.5075 Y10.9173 F60.00
G01 X-14.5423 Y10.9198 F60.00
G01 X-14.5796 Y10.9207 F60.00
G00 Z0.5000
G00 X-15.9004 Y11.9393
G01 F25.00
G01 Z-0.0500
G01 F60.00
G01 X-14.5796 Y11.9393 F60.00
G01 X-14.5410 Y11.9403 F60.00
G01 X-14.5026 Y11.9432 F60.00
G01 X-14.4680 Y11.9475 F60.00
G01 X-14.4336 Y11.9534 F60.00
G01 X-14.3948 Y11.9621 F60.00
G01 X-14.3588 Y11.9720 F60.00
G01 X-14.3233 Y11.9837 F60.00
G01 X-14.2862 Y11.9981 F60.00
G01 X-14.2543 Y12.0123 F60.00
G01 X-14.2232 Y12.0280 F60.00
G01 X-14.1896 Y12.0469 F60.00
G01 X-14.1570 Y12.0675 F60.00
G01 X-14.1264 Y12.0890 F60.00
G01 X-14.0970 Y12.1119 F60.00
G01 X-14.0687 Y12.1363 F60.00
G01 X-14.0417 Y12.1621 F60.00
G01 X-14.0159 Y12.1891 F60.00
G01 X-13.9915 Y12.2174 F60.00
G01 X-13.9686 Y12.2468 F60.00
G01 X-13.9471 Y12.2774 F60.00
G01 X-13.9271 Y12.3089 F60.00
G01 X-13.9087 Y12.3414 F60.00
G01 X-13.8919 Y12.3747 F60.00
G01 X-13.8768 Y12.4089 F60.00
G01 X-13.8633 Y12.4437 F60.00
G01 X-13.8516 Y12.4792 F60.00
G01 X-13.8417 Y12.5152 F60.00
G01 X-13.8335 Y12.5516 F60.00
G01 X-13.8271 Y12.5884 F60.00
G01 X-13.8225 Y12.6254 F60.00
G01 X-13.8198 Y12.6627 F60.00
G01 X-13.8189 Y12.7000 F60.00
G01 X-13.8198 Y12.7373 F60.00
G01 X-13.8225 Y12.7746 F60.00
G01 X-13.8271 Y12.8116 F60.00
G01 X-13.8335 Y12.8484 F60.00
G01 X-13.8417 Y12.8848 F60.00
G01 X-13.8516 Y12.9208 F60.00
G01 X-13.8633 Y12.9563 F60.00
G01 X-13.8768 Y12.9911 F60.00
G01 X-13.8919 Y13.0253 F60.00
G01 X-13.9087 Y13.0586 F60.00
G01 X-13.9265 Y13.0900 F60.00
G01 X-13.9471 Y13.1226 F60.00
G01 X-13.9701 Y13.1551 F60.00
G01 X-13.9915 Y13.1826 F60.00
G01 X-14.0143 Y13.2090 F60.00
G01 X-14.0400 Y13.2362 F60.00
G01 X-14.0687 Y13.2637 F60.00
G01 X-14.0970 Y13.2881 F60.00
G01 X-14.1264 Y13.3110 F60.00
G01 X-14.1590 Y13.3339 F60.00
G01 X-14.1885 Y13.3525 F60.00
G01 X-14.2188 Y13.3697 F60.00
G01 X-14.2521 Y13.3866 F60.00
G01 X-14.2885 Y13.4028 F60.00
G01 X-14.3233 Y13.4163 F60.00
G01 X-14.3588 Y13.4280 F60.00
G01 X-14.3971 Y13.4385 F60.00
G01 X-14.4312 Y13.4461 F60.00
G01 X-14.4656 Y13.4521 F60.00
G01 X-14.5038 Y13.4569 F60.00
G01 X-14.5423 Y13.4598 F60.00
G01 X-14.5796 Y13.4607 F60.00
G01 X-15.9004 Y13.4607 F60.00
G01 X-15.9390 Y13.4597 F60.00
G01 X-15.9774 Y13.4568 F60.00
G01 X-16.0120 Y13.4525 F60.00
G01 X-16.0464 Y13.4466 F60.00
G01 X-16.0852 Y13.4379 F60.00
G01 X-16.1212 Y13.4280 F60.00
G01 X-16.1567 Y13.4163 F60.00
G01 X-16.1938 Y13.4019 F60.00
G01 X-16.2257 Y13.3877 F60.00
G01 X-16.2568 Y13.3720 F60.00
G01 X-16.2904 Y13.3531 F60.00
G01 X-16.3251 Y13.3311 F60.00
G01 X-16.3536 Y13.3110 F60.00
G01 X-16.3830 Y13.2881 F60.00
G01 X-16.4113 Y13.2637 F60.00
G01 X-16.4366 Y13.2396 F60.00
G01 X-16.4657 Y13.2090 F60.00
G01 X-16.4885 Y13.1826 F60.00
G01 X-16.5114 Y13.1532 F60.00
G01 X-16.5329 Y13.1226 F60.00
G01 X-16.5516 Y13.0932 F60.00
G01 X-16.5724 Y13.0564 F60.00
G01 X-16.5881 Y13.0253 F60.00
G01 X-16.6032 Y12.9911 F60.00
G01 X-16.6167 Y12.9563 F60.00
G01 X-16.6276 Y12.9232 F60.00
G01 X-16.6389 Y12.8825 F60.00
G01 X-16.6465 Y12.8484 F60.00
G01 X-16.6529 Y12.8116 F60.00
G01 X-16.6575 Y12.7746 F60.00
G01 X-16.6601 Y12.7398 F60.00
G01 X-16.6611 Y12.6975 F60.00
G01 X-16.6602 Y12.6627 F60.00
G01 X-16.6575 Y12.6254 F60.00
G01 X-16.6529 Y12.5884 F60.00
G01 X-16.6470 Y12.5540 F60.00
G01 X-16.6377 Y12.5128 F60.00
G01 X-16.6284 Y12.4792 F60.00
G01 X-16.6167 Y12.4437 F60.00
G01 X-16.6032 Y12.4089 F60.00
G01 X-16.5891 Y12.3770 F60.00
G01 X-16.5701 Y12.3392 F60.00
G01 X-16.5529 Y12.3089 F60.00
G01 X-16.5329 Y12.2774 F60.00
G01 X-16.5114 Y12.2468 F60.00
G01 X-16.4900 Y12.2193 F60.00
G01 X-16.4624 Y12.1873 F60.00
G01 X-16.4383 Y12.1621 F60.00
G01 X-16.4113 Y12.1363 F60.00
G01 X-16.3830 Y12.1119 F60.00
G01 X-16.3555 Y12.0905 F60.00
G01 X-16.3210 Y12.0661 F60.00
G01 X-16.2915 Y12.0475 F60.00
G01 X-16.2590 Y12.0291 F60.00
G01 X-16.2257 Y12.0123 F60.00
G01 X-16.1938 Y11.9981 F60.00
G01 X-16.1544 Y11.9829 F60.00
G01 X-16.1212 Y11.9720 F60.00
G01 X-16.0852 Y11.9621 F60.00
G01 X-16.0488 Y11.9539 F60.00
G01 X-16.0144 Y11.9479 F60.00
G01 X-15.9725 Y11.9427 F60.00
G01 X-15.9377 Y11.9402 F60.00
G01 X-15.9004 Y11.9393 F60.00
G00 Z0.5000
G00 X-15.9004 Y14.4793
G01 F25.00
G01 Z-0.0500
G01 F60.00
G01 X-14.5784 Y14.4793 F60.00
G01 X-14.5423 Y14.4802 F60.00
G01 X-14.5026 Y14.4832 F60.00
G01 X-14.4680 Y14.4875 F60.00
G01 X-14.4336 Y14.4934 F60.00
G01 X-14.3971 Y14.5015 F60.00
G01 X-14.3588 Y14.5120 F60.00
G01 X-14.3210 Y14.5246 F60.00
G01 X-14.2885 Y14.5372 F60.00
G01 X-14.2566 Y14.5513 F60.00
G01 X-14.2188 Y14.5703 F60.00
G01 X-14.1885 Y14.5875 F60.00
G01 X-14.1590 Y14.6061 F60.00
G01 X-14.1264 Y14.6290 F60.00
G01 X-14.0951 Y14.6535 F60.00
G01 X-14.0687 Y14.6763 F60.00
G01 X-14.0426 Y14.7012 F60.00
G01 X-14.0159 Y14.7291 F60.00
G01 X-13.9900 Y14.7593 F60.00
G01 X-13.9686 Y14.7868 F60.00
G01 X-13.9485 Y14.8153 F60.00
G01 X-13.9265 Y14.8500 F60.00
G01 X-13.9076 Y14.8836 F60.00
G01 X-13.8919 Y14.9147 F60.00
G01 X-13.8773 Y14.9478 F60.00
G01 X-13.8629 Y14.9849 F60.00
G01 X-13.8520 Y15.0180 F60.00
G01 X-13.8458 Y15.0400 F60.00
G01 X-13.4350 Y15.0399 F60.00
G01 X-13.4349 Y13.9663 F60.00
G01 X-13.4339 Y13.9553 F60.00
G01 X-13.4320 Y13.9457 F60.00
G01 X-13.4287 Y13.9352 F60.00
G01 X-13.4243 Y13.9250 F60.00
G01 X-13.4188 Y13.9155 F60.00
G01 X-13.4131 Y13.9075 F60.00
G01 X-13.4057 Y13.8993 F60.00
G01 X-13.3984 Y13.8927 F60.00
G01 X-13.3916 Y13.8875 F60.00
G01 X-13.3843 Y13.8830 F60.00
G01 X-13.3766 Y13.8791 F60.00
G01 X-13.3687 Y13.8758 F60.00
G01 X-13.3605 Y13.8733 F60.00
G01 X-13.3533 Y13.8717 F60.00
G01 X-13.3448 Y13.8705 F60.00
G01 X-13.3362 Y13.8700 F60.00
G01 X-12.0638 Y13.8700 F60.00
G01 X-12.0528 Y13.8708 F60.00
G01 X-12.0407 Y13.8730 F60.00
G01 X-12.0290 Y13.8767 F60.00
G01 X-12.0179 Y13.8818 F60.00
G01 X-12.0064 Y13.8890 F60.00
G01 X-11.9960 Y13.8976 F60.00
G01 X-11.9869 Y13.9075 F60.00
G01 X-11.9792 Y13.9186 F60.00
G01 X-11.9731 Y13.9306 F60.00
G01 X-11.9686 Y13.9433 F60.00
G01 X-11.9659 Y13.9565 F60.00
G01 X-11.9650 Y13.9688 F60.00
G01 X-11.9650 Y16.5100 F60.00
G01 X-11.9658 Y16.5222 F60.00
G01 X-11.9680 Y16.5343 F60.00
G01 X-11.9717 Y16.5460 F60.00
G01 X-11.9768 Y16.5571 F60.00
G01 X-11.9840 Y16.5686 F60.00
G01 X-11.9926 Y16.5790 F60.00
G01 X-12.0016 Y16.5873 F60.00
G01 X-12.0125 Y16.5951 F60.00
G01 X-12.0245 Y16.6014 F60.00
G01 X-12.0371 Y16.6060 F60.00
G01 X-12.0503 Y16.6089 F60.00
G01 X-12.0625 Y16.6100 F60.00
G01 X-13.3362 Y16.6100 F60.00
G01 X-13.3436 Y16.6096 F60.00
G01 X-13.3521 Y16.6085 F60.00
G01 X-13.3605 Y16.6067 F60.00
G01 X-13.3675 Y16.6046 F60.00
G01 X-13.3744 Y16.6019 F60.00
G01 X-13.3821 Y16.5982 F60.00
G01 X-13.3895 Y16.5938 F60.00
G01 X-13.3956 Y16.5896 F60.00
G01 X-13.4040 Y16.5824 F60.00
G01 X-13.4115 Y16.5744 F60.00
G01 X-13.4181 Y16.5656 F60.00
G01 X-13.4238 Y16.5561 F60.00
G01 X-13.4283 Y16.5460 F60.00
G01 X-13.4317 Y16.5355 F60.00
G01 X-13.4339 Y16.5247 F60.00
G01 X-13.4349 Y16.5137 F60.00
G01 X-13.4350 Y15.4400 F60.00
G01 X-13.8458 Y15.4400 F60.00
G01 X-13.8520 Y15.4620 F60.00
G01 X-13.8629 Y15.4951 F60.00
G01 X-13.8773 Y15.5322 F60.00
G01 X-13.8919 Y15.5653 F60.00
G01 X-13.9076 Y15.5964 F60.00
G01 X-13.9277 Y15.6321 F60.00
G01 X-13.9471 Y15.6626 F60.00
G01 X-13.9671 Y15.6912 F60.00
G01 X-13.9915 Y15.7226 F60.00
G01 X-14.0159 Y15.7509 F60.00
G01 X-14.0400 Y15.7762 F60.00
G01 X-14.0696 Y15.8045 F60.00
G01 X-14.0970 Y15.8281 F60.00
G01 X-14.1245 Y15.8495 F60.00
G01 X-14.1570 Y15.8725 F60.00
G01 X-14.1885 Y15.8925 F60.00
G01 X-14.2188 Y15.9097 F60.00
G01 X-14.2543 Y15.9277 F60.00
G01 X-14.2885 Y15.9428 F60.00
G01 X-14.3210 Y15.9554 F60.00
G01 X-14.3588 Y15.9680 F60.00
G01 X-14.3971 Y15.9785 F60.00
G01 X-14.4312 Y15.9861 F60.00
G01 X-14.4668 Y15.9923 F60.00
G01 X-14.5075 Y15.9973 F60.00
G01 X-14.5423 Y15.9998 F60.00
G01 X-14.5796 Y16.0007 F60.00
G01 X-15.9004 Y16.0007 F60.00
G01 X-15.9377 Y15.9998 F60.00
G01 X-15.9750 Y15.9971 F60.00
G01 X-16.0144 Y15.9921 F60.00
G01 X-16.0512 Y15.9856 F60.00
G01 X-16.0852 Y15.9779 F60.00
G01 X-16.1189 Y15.9687 F60.00
G01 X-16.1567 Y15.9563 F60.00
G01 X-16.1915 Y15.9428 F60.00
G01 X-16.2257 Y15.9277 F60.00
G01 X-16.2590 Y15.9109 F60.00
G01 X-16.2915 Y15.8925 F60.00
G01 X-16.3230 Y15.8725 F60.00
G01 X-16.3536 Y15.8510 F60.00
G01 X-16.3811 Y15.8296 F60.00
G01 X-16.4131 Y15.8020 F60.00
G01 X-16.4383 Y15.7779 F60.00
G01 X-16.4641 Y15.7509 F60.00
G01 X-16.4885 Y15.7226 F60.00
G01 X-16.5099 Y15.6951 F60.00
G01 X-16.5343 Y15.6606 F60.00
G01 X-16.5529 Y15.6311 F60.00
G01 X-16.5713 Y15.5986 F60.00
G01 X-16.5881 Y15.5653 F60.00
G01 X-16.6023 Y15.5334 F60.00
G01 X-16.6175 Y15.4940 F60.00
G01 X-16.6284 Y15.4608 F60.00
G01 X-16.6383 Y15.4248 F60.00
G01 X-16.6465 Y15.3884 F60.00
G01 X-16.6525 Y15.3540 F60.00
G01 X-16.6577 Y15.3121 F60.00
G01 X-16.6602 Y15.2773 F60.00
G01 X-16.6611 Y15.2400 F60.00
G01 X-16.6602 Y15.2027 F60.00
G01 X-16.6577 Y15.1679 F60.00
G01 X-16.6525 Y15.1260 F60.00
G01 X-16.6465 Y15.0916 F60.00
G01 X-16.6383 Y15.0552 F60.00
G01 X-16.6284 Y15.0192 F60.00
G01 X-16.6175 Y14.9860 F60.00
G01 X-16.6023 Y14.9466 F60.00
G01 X-16.5881 Y14.9147 F60.00
G01 X-16.5713 Y14.8814 F60.00
G01 X-16.5529 Y14.8489 F60.00
G01 X-16.5329 Y14.8174 F60.00
G01 X-16.5114 Y14.7868 F60.00
G01 X-16.4900 Y14.7593 F60.00
G01 X-16.4624 Y14.7273 F60.00
G01 X-16.4383 Y14.7021 F60.00
G01 X-16.4113 Y14.6763 F60.00
G01 X-16.3830 Y14.6519 F60.00
G01 X-16.3555 Y14.6305 F60.00
G01 X-16.3210 Y14.6061 F60.00
G01 X-16.2915 Y14.5875 F60.00
G01 X-16.2590 Y14.5691 F60.00
G01 X-16.2257 Y14.5523 F60.00
G01 X-16.1938 Y14.5381 F60.00
G01 X-16.1544 Y14.5229 F60.00
G01 X-16.1212 Y14.5120 F60.00
G01 X-16.0852 Y14.5021 F60.00
G01 X-16.0488 Y14.4939 F60.00
G01 X-16.0144 Y14.4879 F60.00
G01 X-15.9725 Y14.4827 F60.00
G01 X-15.9377 Y14.4802 F60.00
G01 X-15.9004 Y14.4793 F60.00
G00 Z0.5000
G00 X-14.5796 Y18.5407
G01 F25.00
G01 Z-0.0500
G01 F60.00
G01 X-15.9004 Y18.5407 F60.00
G01 X-15.9390 Y18.5397 F60.00
G01 X-15.9774 Y18.5368 F60.00
G01 X-16.0120 Y18.5325 F60.00
G01 X-16.0464 Y18.5266 F60.00
G01 X-16.0852 Y18.5179 F60.00
G01 X-16.1212 Y18.5080 F60.00
G01 X-16.1567 Y18.4963 F60.00
G01 X-16.1938 Y18.4819 F60.00
G01 X-16.2257 Y18.4677 F60.00
G01 X-16.2568 Y18.4520 F60.00
G01 X-16.2904 Y18.4331 F60.00
G01 X-16.3230 Y18.4125 F60.00
G01 X-16.3536 Y18.3910 F60.00
G01 X-16.3830 Y18.3681 F60.00
G01 X-16.4113 Y18.3437 F60.00
G01 X-16.4383 Y18.3179 F60.00
G01 X-16.4641 Y18.2909 F60.00
G01 X-16.4885 Y18.2626 F60.00
G01 X-16.5114 Y18.2332 F60.00
G01 X-16.5329 Y18.2026 F60.00
G01 X-16.5529 Y18.1711 F60.00
G01 X-16.5713 Y18.1386 F60.00
G01 X-16.5881 Y18.1053 F60.00
G01 X-16.6032 Y18.0711 F60.00
G01 X-16.6167 Y18.0363 F60.00
G01 X-16.6284 Y18.0008 F60.00
G01 X-16.6383 Y17.9648 F60.00
G01 X-16.6465 Y17.9284 F60.00
G01 X-16.6529 Y17.8916 F60.00
G01 X-16.6575 Y17.8546 F60.00
G01 X-16.6602 Y17.8173 F60.00
G01 X-16.6611 Y17.7800 F60.00
G01 X-16.6602 Y17.7427 F60.00
G01 X-16.6575 Y17.7054 F60.00
G01 X-16.6529 Y17.6684 F60.00
G01 X-16.6465 Y17.6316 F60.00
G01 X-16.6383 Y17.5952 F60.00
G01 X-16.6284 Y17.5592 F60.00
G01 X-16.6167 Y17.5237 F60.00
G01 X-16.6032 Y17.4889 F60.00
G01 X-16.5881 Y17.4547 F60.00
G01 X-16.5713 Y17.4214 F60.00
G01 X-16.5535 Y17.3900 F60.00
G01 X-16.5329 Y17.3574 F60.00
G01 X-16.5099 Y17.3249 F60.00
G01 X-16.4885 Y17.2974 F60.00
G01 X-16.4657 Y17.2710 F60.00
G01 X-16.4400 Y17.2438 F60.00
G01 X-16.4113 Y17.2163 F60.00
G01 X-16.3830 Y17.1919 F60.00
G01 X-16.3536 Y17.1690 F60.00
G01 X-16.3210 Y17.1461 F60.00
G01 X-16.2894 Y17.1263 F60.00
G01 X-16.2590 Y17.1091 F60.00
G01 X-16.2279 Y17.0934 F60.00
G01 X-16.1915 Y17.0772 F60.00
G01 X-16.1567 Y17.0637 F60.00
G01 X-16.1212 Y17.0520 F60.00
G01 X-16.0829 Y17.0415 F60.00
G01 X-16.0488 Y17.0339 F60.00
G01 X-16.0144 Y17.0279 F60.00
G01 X-15.9762 Y17.0231 F60.00
G01 X-15.9377 Y17.0202 F60.00
G01 X-15.9004 Y17.0193 F60.00
G01 X-14.5796 Y17.0193 F60.00
G01 X-14.5410 Y17.0203 F60.00
G01 X-14.5026 Y17.0232 F60.00
G01 X-14.4680 Y17.0275 F60.00
G01 X-14.4336 Y17.0334 F60.00
G01 X-14.3948 Y17.0421 F60.00
G01 X-14.3588 Y17.0520 F60.00
G01 X-14.3233 Y17.0637 F60.00
G01 X-14.2862 Y17.0781 F60.00
G01 X-14.2543 Y17.0923 F60.00
G01 X-14.2232 Y17.1080 F60.00
G01 X-14.1896 Y17.1269 F60.00
G01 X-14.1549 Y17.1489 F60.00
G01 X-14.1264 Y17.1690 F60.00
G01 X-14.0970 Y17.1919 F60.00
G01 X-14.0687 Y17.2163 F60.00
G01 X-14.0434 Y17.2404 F60.00
G01 X-14.0143 Y17.2710 F60.00
G01 X-13.9915 Y17.2974 F60.00
G01 X-13.9686 Y17.3268 F60.00
G01 X-13.9471 Y17.3574 F60.00
G01 X-13.9284 Y17.3868 F60.00
G01 X-13.9076 Y17.4236 F60.00
G01 X-13.8919 Y17.4547 F60.00
G01 X-13.8768 Y17.4889 F60.00
G01 X-13.8633 Y17.5237 F60.00
G01 X-13.8524 Y17.5568 F60.00
G01 X-13.8411 Y17.5975 F60.00
G01 X-13.8335 Y17.6316 F60.00
G01 X-13.8271 Y17.6684 F60.00
G01 X-13.8225 Y17.7054 F60.00
G01 X-13.8199 Y17.7402 F60.00
G01 X-13.8189 Y17.7825 F60.00
G01 X-13.8198 Y17.8173 F60.00
G01 X-13.8225 Y17.8546 F60.00
G01 X-13.8271 Y17.8916 F60.00
G01 X-13.8330 Y17.9260 F60.00
G01 X-13.8423 Y17.9672 F60.00
G01 X-13.8516 Y18.0008 F60.00
G01 X-13.8633 Y18.0363 F60.00
G01 X-13.8768 Y18.0711 F60.00
G01 X-13.8909 Y18.1030 F60.00
G01 X-13.9099 Y18.1408 F60.00
G01 X-13.9271 Y18.1711 F60.00
G01 X-13.9471 Y18.2026 F60.00
G01 X-13.9686 Y18.2332 F60.00
G01 X-13.9900 Y18.2607 F60.00
G01 X-14.0176 Y18.2927 F60.00
G01 X-14.0417 Y18.3179 F60.00
G01 X-14.0687 Y18.3437 F60.00
G01 X-14.0970 Y18.3681 F60.00
G01 X-14.1245 Y18.3895 F60.00
G01 X-14.1590 Y18.4139 F60.00
G01 X-14.1885 Y18.4325 F60.00
G01 X-14.2210 Y18.4509 F60.00
G01 X-14.2543 Y18.4677 F60.00
G01 X-14.2862 Y18.4819 F60.00
G01 X-14.3256 Y18.4971 F60.00
G01 X-14.3588 Y18.5080 F60.00
G01 X-14.3948 Y18.5179 F60.00
G01 X-14.4312 Y18.5261 F60.00
G01 X-14.4656 Y18.5321 F60.00
G01 X-14.5075 Y18.5373 F60.00
G01 X-14.5423 Y18.5398 F60.00
G01 X-14.5796 Y18.5407 F60.00
G00 Z0.5000
G00 X-15.9004 Y19.5593
G01 F25.00
G01 Z-0.0500
G01 F60.00
G01 X-14.5796 Y19.5593 F60.00
G01 X-14.5410 Y19.5603 F60.00
G01 X-14.5026 Y19.5632 F60.00
G01 X-14.4680 Y19.5675 F60.00
G01 X-14.4336 Y19.5734 F60.00
G01 X-14.3948 Y19.5821 F60.00
G01 X-14.3588 Y19.5920 F60.00
G01 X-14.3233 Y19.6037 F60.00
G01 X-14.2862 Y19.6181 F60.00
G01 X-14.2543 Y19.6323 F60.00
G01 X-14.2232 Y19.6480 F60.00
G01 X-14.1896 Y19.6669 F60.00
G01 X-14.1570 Y19.6875 F60.00
G01 X-14.1264 Y19.7090 F60.00
G01 X-14.0970 Y19.7319 F60.00
G01 X-14.0687 Y19.7563 F60.00
G01 X-14.0417 Y19.7821 F60.00
G01 X-14.0159 Y19.8091 F60.00
G01 X-13.9915 Y19.8374 F60.00
G01 X-13.9686 Y19.8668 F60.00
G01 X-13.9471 Y19.8974 F60.00
G01 X-13.9271 Y19.9289 F60.00
G01 X-13.9087 Y19.9614 F60.00
G01 X-13.8919 Y19.9947 F60.00
G01 X-13.8768 Y20.0289 F60.00
G01 X-13.8633 Y20.0637 F60.00
G01 X-13.8516 Y20.0992 F60.00
G01 X-13.8417 Y20.1352 F60.00
G01 X-13.8335 Y20.1716 F60.00
G01 X-13.8271 Y20.2084 F60.00
G01 X-13.8225 Y20.2454 F60.00
G01 X-13.8198 Y20.2827 F60.00
G01 X-13.8189 Y20.3200 F60.00
G01 X-13.8198 Y20.3573 F60.00
G01 X-13.8225 Y20.3946 F60.00
G01 X-13.8271 Y20.4316 F60.00
G01 X-13.8335 Y20.4684 F60.00
G01 X-13.8417 Y20.5048 F60.00
G01 X-13.8516 Y20.5408 F60.00
G01 X-13.8633 Y20.5763 F60.00
G01 X-13.8768 Y20.6111 F60.00
G01 X-13.8919 Y20.6453 F60.00
G01 X-13.9087 Y20.6786 F60.00
G01 X-13.9265 Y20.7100 F60.00
G01 X-13.9471 Y20.7426 F60.00
G01 X-13.9701 Y20.7751 F60.00
G01 X-13.9915 Y20.8026 F60.00
G01 X-14.0143 Y20.8290 F60.00
G01 X-14.0400 Y20.8562 F60.00
G01 X-14.0687 Y20.8837 F60.00
G01 X-14.0970 Y20.9081 F60.00
G01 X-14.1264 Y20.9310 F60.00
G01 X-14.1590 Y20.9539 F60.00
G01 X-14.1906 Y20.9737 F60.00
G01 X-14.2210 Y20.9909 F60.00
G01 X-14.2521 Y21.0066 F60.00
G01 X-14.2885 Y21.0228 F60.00
G01 X-14.3233 Y21.0363 F60.00
G01 X-14.3588 Y21.0480 F60.00
G01 X-14.3971 Y21.0585 F60.00
G01 X-14.4312 Y21.0661 F60.00
G01 X-14.4656 Y21.0721 F60.00
G01 X-14.5038 Y21.0769 F60.00
G01 X-14.5423 Y21.0798 F60.00
G01 X-14.5796 Y21.0807 F60.00
G01 X-15.9004 Y21.0807 F60.00
G01 X-15.9390 Y21.0797 F60.00
G01 X-15.9774 Y21.0768 F60.00
G01 X-16.0120 Y21.0725 F60.00
G01 X-16.0464 Y21.0666 F60.00
G01 X-16.0852 Y21.0579 F60.00
G01 X-16.1212 Y21.0480 F60.00
G01 X-16.1567 Y21.0363 F60.00
G01 X-16.1938 Y21.0219 F60.00
G01 X-16.2257 Y21.0077 F60.00
G01 X-16.2568 Y20.9920 F60.00
G01 X-16.2904 Y20.9731 F60.00
G01 X-16.3251 Y20.9511 F60.00
G01 X-16.3536 Y20.9310 F60.00
G01 X-16.3830 Y20.9081 F60.00
G01 X-16.4113 Y20.8837 F60.00
G01 X-16.4366 Y20.8596 F60.00
G01 X-16.4657 Y20.8290 F60.00
G01 X-16.4885 Y20.8026 F60.00
G01 X-16.5114 Y20.7732 F60.00
G01 X-16.5329 Y20.7426 F60.00
G01 X-16.5516 Y20.7132 F60.00
G01 X-16.5724 Y20.6764 F60.00
G01 X-16.5881 Y20.6453 F60.00
G01 X-16.6032 Y20.6111 F60.00
G01 X-16.6167 Y20.5763 F60.00
G01 X-16.6276 Y20.5432 F60.00
G01 X-16.6389 Y20.5025 F60.00
G01 X-16.6465 Y20.4684 F60.00
G01 X-16.6529 Y20.4316 F60.00
G01 X-16.6575 Y20.3946 F60.00
G01 X-16.6601 Y20.3598 F60.00
G01 X-16.6611 Y20.3175 F60.00
G01 X-16.6602 Y20.2827 F60.00
G01 X-16.6575 Y20.2454 F60.00
G01 X-16.6529 Y20.2084 F60.00
G01 X-16.6470 Y20.1740 F60.00
G01 X-16.6377 Y20.1328 F60.00
G01 X-16.6284 Y20.0992 F60.00
G01 X-16.6167 Y20.0637 F60.00
G01 X-16.6032 Y20.0289 F60.00
G01 X-16.5891 Y19.9970 F60.00
G01 X-16.5701 Y19.9592 F60.00
G01 X-16.5529 Y19.9289 F60.00
G01 X-16.5329 Y19.8974 F60.00
G01 X-16.5114 Y19.8668 F60.00
G01 X-16.4900 Y19.8393 F60.00
G01 X-16.4624 Y19.8073 F60.00
G01 X-16.4383 Y19.7821 F60.00
G01 X-16.4113 Y19.7563 F60.00
G01 X-16.3830 Y19.7319 F60.00
G01 X-16.3555 Y19.7105 F60.00
G01 X-16.3210 Y19.6861 F60.00
G01 X-16.2915 Y19.6675 F60.00
G01 X-16.2590 Y19.6491 F60.00
G01 X-16.2257 Y19.6323 F60.00
G01 X-16.1938 Y19.6181 F60.00
G01 X-16.1544 Y19.6029 F60.00
G01 X-16.1212 Y19.5920 F60.00
G01 X-16.0852 Y19.5821 F60.00
G01 X-16.0488 Y19.5739 F60.00
G01 X-16.0144 Y19.5679 F60.00
G01 X-15.9725 Y19.5627 F60.00
G01 X-15.9377 Y19.5602 F60.00
G01 X-15.9004 Y19.5593 F60.00
G00 Z0.5000
G00 X-18.3000 Y21.7600
G01 F25.00
G01 Z-0.0500
G01 F60.00
G01 X-16.7988 Y21.7600 F60.00
G01 X-16.7853 Y21.7611 F60.00
G01 X-16.7733 Y21.7636 F60.00
G01 X-16.7617 Y21.7676 F60.00
G01 X-16.7507 Y21.7730 F60.00
G01 X-16.7404 Y21.7797 F60.00
G01 X-16.7310 Y21.7876 F60.00
G01 X-16.7219 Y21.7975 F60.00
G01 X-16.7149 Y21.8075 F60.00
G01 X-16.7091 Y21.8184 F60.00
G01 X-16.7047 Y21.8298 F60.00
G01 X-16.7017 Y21.8417 F60.00
G01 X-16.7002 Y21.8539 F60.00
G01 X-16.7000 Y22.6600 F60.00
G01 X-16.6342 Y22.6600 F60.00
G01 X-16.6280 Y22.6380 F60.00
G01 X-16.6162 Y22.6026 F60.00
G01 X-16.6032 Y22.5689 F60.00
G01 X-16.5876 Y22.5336 F60.00
G01 X-16.5713 Y22.5014 F60.00
G01 X-16.5529 Y22.4689 F60.00
G01 X-16.5329 Y22.4374 F60.00
G01 X-16.5121 Y22.4078 F60.00
G01 X-16.4885 Y22.3774 F60.00
G01 X-16.4657 Y22.3510 F60.00
G01 X-16.4366 Y22.3204 F60.00
G01 X-16.4113 Y22.2963 F60.00
G01 X-16.3830 Y22.2719 F60.00
G01 X-16.3536 Y22.2490 F60.00
G01 X-16.3251 Y22.2289 F60.00
G01 X-16.2894 Y22.2063 F60.00
G01 X-16.2590 Y22.1891 F60.00
G01 X-16.2257 Y22.1723 F60.00
G01 X-16.1892 Y22.1563 F60.00
G01 X-16.1567 Y22.1437 F60.00
G01 X-16.1212 Y22.1320 F60.00
G01 X-16.0829 Y22.1215 F60.00
G01 X-16.0488 Y22.1139 F60.00
G01 X-16.0120 Y22.1075 F60.00
G01 X-15.9750 Y22.1029 F60.00
G01 X-15.9402 Y22.1003 F60.00
G01 X-15.9004 Y22.0993 F60.00
G01 X-14.5784 Y22.0993 F60.00
G01 X-14.5398 Y22.1003 F60.00
G01 X-14.5050 Y22.1029 F60.00
G01 X-14.4704 Y22.1072 F60.00
G01 X-14.4312 Y22.1139 F60.00
G01 X-14.3924 Y22.1227 F60.00
G01 X-14.3588 Y22.1320 F60.00
G01 X-14.3256 Y22.1429 F60.00
G01 X-14.2885 Y22.1572 F60.00
G01 X-14.2521 Y22.1734 F60.00
G01 X-14.2210 Y22.1891 F60.00
G01 X-14.1906 Y22.2063 F60.00
G01 X-14.1570 Y22.2275 F60.00
G01 X-14.1245 Y22.2505 F60.00
G01 X-14.0970 Y22.2719 F60.00
G01 X-14.0706 Y22.2947 F60.00
G01 X-14.0426 Y22.3212 F60.00
G01 X-14.0143 Y22.3510 F60.00
G01 X-13.9915 Y22.3774 F60.00
G01 X-13.9701 Y22.4049 F60.00
G01 X-13.9471 Y22.4374 F60.00
G01 X-13.9265 Y22.4700 F60.00
G01 X-13.9087 Y22.5014 F60.00
G01 X-13.8930 Y22.5325 F60.00
G01 X-13.8773 Y22.5678 F60.00
G01 X-13.8629 Y22.6049 F60.00
G01 X-13.8520 Y22.6380 F60.00
G01 X-13.8458 Y22.6600 F60.00
G01 X-7.8200 Y22.6599 F60.00
G01 X-7.8200 Y14.4099 F60.00
G01 X-8.1907 Y14.0392 F60.00
G01 X-8.2025 Y14.0454 F60.00
G01 X-8.2151 Y14.0500 F60.00
G01 X-8.2283 Y14.0529 F60.00
G01 X-8.2418 Y14.0540 F60.00
G01 X-9.7479 Y14.0539 F60.00
G01 X-9.7577 Y14.0529 F60.00
G01 X-9.7661 Y14.0513 F60.00
G01 X-9.7755 Y14.0486 F60.00
G01 X-9.7835 Y14.0454 F60.00
G01 X-9.7912 Y14.0416 F60.00
G01 X-9.7996 Y14.0365 F60.00
G01 X-9.8074 Y14.0305 F60.00
G01 X-9.8137 Y14.0247 F60.00
G01 X-9.8195 Y14.0184 F60.00
G01 X-9.8255 Y14.0106 F60.00
G01 X-9.8300 Y14.0033 F60.00
G01 X-9.8344 Y13.9945 F60.00
G01 X-9.8376 Y13.9865 F60.00
G01 X-9.8403 Y13.9771 F60.00
G01 X-9.8421 Y13.9675 F60.00
G01 X-9.8429 Y13.9589 F60.00
G01 X-9.8430 Y11.9540 F60.00
G01 X-9.8425 Y11.9442 F60.00
G01 X-9.8408 Y11.9333 F60.00
G01 X-9.8383 Y11.9238 F60.00
G01 X-9.8344 Y11.9135 F60.00
G01 X-9.8281 Y11.9015 F60.00
G01 X-9.8203 Y11.8906 F60.00
G01 X-9.8154 Y11.8850 F60.00
G01 X-9.8102 Y11.8799 F60.00
G01 X-9.7996 Y11.8715 F60.00
G01 X-9.7880 Y11.8647 F60.00
G01 X-9.7813 Y11.8616 F60.00
G01 X-9.7744 Y11.8590 F60.00
G01 X-9.7613 Y11.8557 F60.00
G01 X-9.7479 Y11.8541 F60.00
G01 X-8.4550 Y11.8540 F60.00
G01 X-8.4550 Y10.8779 F60.00
G01 X-8.4729 Y10.8600 F60.00
G01 X-9.1670 Y10.8601 F60.00
G01 X-9.1745 Y10.8660 F60.00
G01 X-9.1817 Y10.8708 F60.00
G01 X-9.1892 Y10.8749 F60.00
G01 X-9.1971 Y10.8783 F60.00
G01 X-9.2052 Y10.8810 F60.00
G01 X-9.2136 Y10.8831 F60.00
G01 X-9.2221 Y10.8844 F60.00
G01 X-9.2306 Y10.8850 F60.00
G01 X-10.2331 Y10.8850 F60.00
G01 X-10.2453 Y10.8842 F60.00
G01 X-10.2562 Y10.8823 F60.00
G01 X-10.2645 Y10.8800 F60.00
G01 X-10.2725 Y10.8769 F60.00
G01 X-10.2792 Y10.8738 F60.00
G01 X-10.2866 Y10.8695 F60.00
G01 X-10.2937 Y10.8646 F60.00
G01 X-10.2993 Y10.8599 F60.00
G01 X-10.3047 Y10.8548 F60.00
G01 X-10.3104 Y10.8484 F60.00
G01 X-10.3149 Y10.8426 F60.00
G01 X-10.3195 Y10.8354 F60.00
G01 X-10.3235 Y10.8278 F60.00
G01 X-10.3264 Y10.8210 F60.00
G01 X-10.3291 Y10.8129 F60.00
G01 X-10.3312 Y10.8045 F60.00
G01 X-10.3323 Y10.7972 F60.00
G01 X-10.3330 Y10.7887 F60.00
G01 X-10.3331 Y10.5350 F60.00
G01 X-10.3327 Y10.5264 F60.00
G01 X-10.3316 Y10.5179 F60.00
G01 X-10.3284 Y10.5048 F60.00
G01 X-10.3240 Y10.4934 F60.00
G01 X-10.3182 Y10.4825 F60.00
G01 X-10.3112 Y10.4725 F60.00
G01 X-10.3029 Y10.4634 F60.00
G01 X-10.2937 Y10.4554 F60.00
G01 X-10.2835 Y10.4486 F60.00
G01 X-10.2714 Y10.4426 F60.00
G01 X-10.2621 Y10.4393 F60.00
G01 X-10.2538 Y10.4372 F60.00
G01 X-10.2441 Y10.4356 F60.00
G01 X-10.2343 Y10.4350 F60.00
G01 X-9.2319 Y10.4350 F60.00
G01 X-9.2233 Y10.4355 F60.00
G01 X-9.2148 Y10.4367 F60.00
G01 X-9.2052 Y10.4390 F60.00
G01 X-9.1971 Y10.4417 F60.00
G01 X-9.1892 Y10.4451 F60.00
G01 X-9.1817 Y10.4492 F60.00
G01 X-9.1745 Y10.4540 F60.00
G01 X-9.1670 Y10.4600 F60.00
G01 X-8.3900 Y10.4600 F60.00
G01 X-8.3777 Y10.4603 F60.00
G01 X-8.3619 Y10.4619 F60.00
G01 X-8.3486 Y10.4643 F60.00
G01 X-8.3319 Y10.4686 F60.00
G01 X-8.3203 Y10.4725 F60.00
G01 X-8.3045 Y10.4792 F60.00
G01 X-8.2893 Y10.4872 F60.00
G01 X-8.2778 Y10.4944 F60.00
G01 X-8.2640 Y10.5046 F60.00
G01 X-8.2539 Y10.5134 F60.00
G01 X-8.1135 Y10.6535 F60.00
G01 X-8.1004 Y10.6681 F60.00
G01 X-8.0936 Y10.6768 F60.00
G01 X-8.0873 Y10.6859 F60.00
G01 X-8.0798 Y10.6985 F60.00
G01 X-8.0752 Y10.7073 F60.00
G01 X-8.0707 Y10.7173 F60.00
G01 X-8.0666 Y10.7276 F60.00
G01 X-8.0636 Y10.7369 F60.00
G01 X-8.0607 Y10.7476 F60.00
G01 X-8.0583 Y10.7584 F60.00
G01 X-8.0562 Y10.7730 F60.00
G01 X-8.0553 Y10.7840 F60.00
G01 X-8.0550 Y10.7950 F60.00
G01 X-8.0551 Y12.0724 F60.00
G01 X-8.0558 Y12.0834 F60.00
G01 X-8.0571 Y12.0944 F60.00
G01 X-8.0588 Y12.1040 F60.00
G01 X-8.0613 Y12.1148 F60.00
G01 X-8.0643 Y12.1254 F60.00
G01 X-8.0693 Y12.1393 F60.00
G01 X-8.0736 Y12.1494 F60.00
G01 X-8.0786 Y12.1593 F60.00
G01 X-8.0887 Y12.1761 F60.00
G01 X-8.0943 Y12.1842 F60.00
G01 X-8.1011 Y12.1929 F60.00
G01 X-8.1127 Y12.2056 F60.00
G01 X-8.1430 Y12.2359 F60.00
G01 X-8.1430 Y13.5211 F60.00
G01 X-7.4718 Y14.1927 F60.00
G01 X-7.4601 Y14.2068 F60.00
G01 X-7.4523 Y14.2179 F60.00
G01 X-7.4436 Y14.2327 F60.00
G01 X-7.4352 Y14.2504 F60.00
G01 X-7.4289 Y14.2678 F60.00
G01 X-7.4254 Y14.2808 F60.00
G01 X-7.4221 Y14.2976 F60.00
G01 X-7.4202 Y14.3172 F60.00
G01 X-7.4199 Y22.6600 F60.00
G01 X-3.8929 Y22.6600 F60.00
G01 X-2.7400 Y21.5071 F60.00
G01 X-2.7401 Y15.9750 F60.00
G01 X-3.8137 Y15.9749 F60.00
G01 X-3.8235 Y15.9741 F60.00
G01 X-3.8343 Y15.9720 F60.00
G01 X-3.8448 Y15.9687 F60.00
G01 X-3.8539 Y15.9649 F60.00
G01 X-3.8635 Y15.9595 F60.00
G01 X-3.8715 Y15.9538 F60.00
G01 X-3.8798 Y15.9466 F60.00
G01 X-3.8865 Y15.9394 F60.00
G01 X-3.8918 Y15.9326 F60.00
G01 X-3.8964 Y15.9254 F60.00
G01 X-3.9004 Y15.9178 F60.00
G01 X-3.9037 Y15.9098 F60.00
G01 X-3.9064 Y15.9017 F60.00
G01 X-3.9083 Y15.8933 F60.00
G01 X-3.9095 Y15.8848 F60.00
G01 X-3.9100 Y15.8762 F60.00
G01 X-3.9100 Y14.6050 F60.00
G01 X-3.9094 Y14.5940 F60.00
G01 X-3.9076 Y14.5831 F60.00
G01 X-3.9053 Y14.5748 F60.00
G01 X-3.9024 Y14.5667 F60.00
G01 X-3.8988 Y14.5589 F60.00
G01 X-3.8945 Y14.5515 F60.00
G01 X-3.8896 Y14.5444 F60.00
G01 X-3.8849 Y14.5388 F60.00
G01 X-3.8790 Y14.5326 F60.00
G01 X-3.8725 Y14.5269 F60.00
G01 X-3.8656 Y14.5219 F60.00
G01 X-3.8582 Y14.5174 F60.00
G01 X-3.8505 Y14.5136 F60.00
G01 X-3.8425 Y14.5104 F60.00
G01 X-3.8343 Y14.5080 F60.00
G01 X-3.8259 Y14.5063 F60.00
G01 X-3.8186 Y14.5054 F60.00
G01 X-3.8100 Y14.5050 F60.00
G01 X-1.2675 Y14.5050 F60.00
G01 X-1.2602 Y14.5055 F60.00
G01 X-1.2529 Y14.5065 F60.00
G01 X-1.2457 Y14.5080 F60.00
G01 X-1.2386 Y14.5100 F60.00
G01 X-1.2261 Y14.5151 F60.00
G01 X-1.2196 Y14.5186 F60.00
G01 X-1.2134 Y14.5225 F60.00
G01 X-1.2028 Y14.5309 F60.00
G01 X-1.1976 Y14.5360 F60.00
G01 X-1.1927 Y14.5416 F60.00
G01 X-1.1882 Y14.5474 F60.00
G01 X-1.1842 Y14.5536 F60.00
G01 X-1.1807 Y14.5600 F60.00
G01 X-1.1776 Y14.5667 F60.00
G01 X-1.1743 Y14.5760 F60.00
G01 X-1.1719 Y14.5855 F60.00
G01 X-1.1705 Y14.5952 F60.00
G01 X-1.1700 Y14.6050 F60.00
G01 X-1.1700 Y15.8762 F60.00
G01 X-1.1705 Y15.8848 F60.00
G01 X-1.1717 Y15.8933 F60.00
G01 X-1.1736 Y15.9017 F60.00
G01 X-1.1763 Y15.9098 F60.00
G01 X-1.1791 Y15.9166 F60.00
G01 X-1.1830 Y15.9243 F60.00
G01 X-1.1875 Y15.9316 F60.00
G01 X-1.1927 Y15.9384 F60.00
G01 X-1.2002 Y15.9466 F60.00
G01 X-1.2085 Y15.9538 F60.00
G01 X-1.2175 Y15.9601 F60.00
G01 X-1.2261 Y15.9649 F60.00
G01 X-1.2363 Y15.9692 F60.00
G01 X-1.2457 Y15.9720 F60.00
G01 X-1.2565 Y15.9741 F60.00
G01 X-1.2663 Y15.9749 F60.00
G01 X-2.3400 Y15.9750 F60.00
G01 X-2.3400 Y21.5900 F60.00
G01 X-2.3403 Y21.6023 F60.00
G01 X-2.3421 Y21.6194 F60.00
G01 X-2.3454 Y21.6362 F60.00
G01 X-2.3486 Y21.6481 F60.00
G01 X-2.3521 Y21.6585 F60.00
G01 X-2.3561 Y21.6688 F60.00
G01 X-2.3624 Y21.6821 F60.00
G01 X-2.3684 Y21.6928 F60.00
G01 X-2.3751 Y21.7032 F60.00
G01 X-2.3838 Y21.7150 F60.00
G01 X-2.3910 Y21.7234 F60.00
G01 X-2.3985 Y21.7315 F60.00
G01 X-3.6694 Y23.0023 F60.00
G01 X-3.6831 Y23.0146 F60.00
G01 X-3.6989 Y23.0263 F60.00
G01 X-3.7157 Y23.0364 F60.00
G01 X-3.7334 Y23.0448 F60.00
G01 X-3.7519 Y23.0514 F60.00
G01 X-3.7710 Y23.0562 F60.00
G01 X-3.7904 Y23.0591 F60.00
G01 X-3.8100 Y23.0600 F60.00
G01 X-13.8458 Y23.0601 F60.00
G01 X-13.8520 Y23.0820 F60.00
G01 X-13.8638 Y23.1174 F60.00
G01 X-13.8768 Y23.1511 F60.00
G01 X-13.8914 Y23.1841 F60.00
G01 X-13.9099 Y23.2208 F60.00
G01 X-13.9271 Y23.2511 F60.00
G01 X-13.9478 Y23.2837 F60.00
G01 X-13.9686 Y23.3132 F60.00
G01 X-13.9900 Y23.3407 F60.00
G01 X-14.0176 Y23.3727 F60.00
G01 X-14.0417 Y23.3979 F60.00
G01 X-14.0687 Y23.4237 F60.00
G01 X-14.0970 Y23.4481 F60.00
G01 X-14.1255 Y23.4703 F60.00
G01 X-14.1590 Y23.4939 F60.00
G01 X-14.1885 Y23.5125 F60.00
G01 X-14.2210 Y23.5309 F60.00
G01 X-14.2543 Y23.5477 F60.00
G01 X-14.2862 Y23.5619 F60.00
G01 X-14.3256 Y23.5771 F60.00
G01 X-14.3588 Y23.5880 F60.00
G01 X-14.3948 Y23.5979 F60.00
G01 X-14.4312 Y23.6061 F60.00
G01 X-14.4656 Y23.6121 F60.00
G01 X-14.5075 Y23.6173 F60.00
G01 X-14.5423 Y23.6198 F60.00
G01 X-14.5796 Y23.6207 F60.00
G01 X-15.9016 Y23.6207 F60.00
G01 X-15.9402 Y23.6197 F60.00
G01 X-15.9750 Y23.6171 F60.00
G01 X-16.0096 Y23.6128 F60.00
G01 X-16.0488 Y23.6061 F60.00
G01 X-16.0864 Y23.5976 F60.00
G01 X-16.1236 Y23.5872 F60.00
G01 X-16.1567 Y23.5763 F60.00
G01 X-16.1892 Y23.5637 F60.00
G01 X-16.2257 Y23.5477 F60.00
G01 X-16.2590 Y23.5309 F60.00
G01 X-16.2915 Y23.5125 F60.00
G01 X-16.3251 Y23.4911 F60.00
G01 X-16.3536 Y23.4710 F60.00
G01 X-16.3811 Y23.4496 F60.00
G01 X-16.4104 Y23.4245 F60.00
G01 X-16.4400 Y23.3962 F60.00
G01 X-16.4641 Y23.3709 F60.00
G01 X-16.4885 Y23.3426 F60.00
G01 X-16.5129 Y23.3112 F60.00
G01 X-16.5329 Y23.2826 F60.00
G01 X-16.5523 Y23.2521 F60.00
G01 X-16.5724 Y23.2164 F60.00
G01 X-16.5881 Y23.1853 F60.00
G01 X-16.6027 Y23.1522 F60.00
G01 X-16.6171 Y23.1151 F60.00
G01 X-16.6280 Y23.0820 F60.00
G01 X-16.6342 Y23.0600 F60.00
G01 X-16.7000 Y23.0600 F60.00
G01 X-16.7002 Y23.8661 F60.00
G01 X-16.7017 Y23.8783 F60.00
G01 X-16.7047 Y23.8902 F60.00
G01 X-16.7091 Y23.9016 F60.00
G01 X-16.7149 Y23.9125 F60.00
G01 X-16.7227 Y23.9234 F60.00
G01 X-16.7310 Y23.9324 F60.00
G01 X-16.7404 Y23.9403 F60.00
G01 X-16.7507 Y23.9470 F60.00
G01 X-16.7617 Y23.9524 F60.00
G01 X-16.7733 Y23.9564 F60.00
G01 X-16.7865 Y23.9591 F60.00
G01 X-16.7988 Y23.9600 F60.00
G01 X-18.3000 Y23.9600 F60.00
G01 X-18.3086 Y23.9596 F60.00
G01 X-18.3171 Y23.9585 F60.00
G01 X-18.3255 Y23.9567 F60.00
G01 X-18.3348 Y23.9537 F60.00
G01 X-18.3428 Y23.9504 F60.00
G01 X-18.3514 Y23.9458 F60.00
G01 X-18.3586 Y23.9410 F60.00
G01 X-18.3653 Y23.9357 F60.00
G01 X-18.3716 Y23.9298 F60.00
G01 X-18.3773 Y23.9234 F60.00
G01 X-18.3831 Y23.9156 F60.00
G01 X-18.3876 Y23.9082 F60.00
G01 X-18.3914 Y23.9005 F60.00
G01 X-18.3946 Y23.8925 F60.00
G01 X-18.3973 Y23.8831 F60.00
G01 X-18.3989 Y23.8747 F60.00
G01 X-18.3999 Y23.8649 F60.00
G01 X-18.4000 Y21.8600 F60.00
G01 X-18.3995 Y21.8502 F60.00
G01 X-18.3981 Y21.8405 F60.00
G01 X-18.3957 Y21.8310 F60.00
G01 X-18.3924 Y21.8217 F60.00
G01 X-18.3882 Y21.8129 F60.00
G01 X-18.3831 Y21.8044 F60.00
G01 X-18.3773 Y21.7966 F60.00
G01 X-18.3707 Y21.7893 F60.00
G01 X-18.3634 Y21.7827 F60.00
G01 X-18.3556 Y21.7769 F60.00
G01 X-18.3471 Y21.7718 F60.00
G01 X-18.3383 Y21.7676 F60.00
G01 X-18.3290 Y21.7643 F60.00
G01 X-18.3195 Y21.7619 F60.00
G01 X-18.3098 Y21.7605 F60.00
G01 X-18.3000 Y21.7600 F60.00
G00 Z0.5000
G00 X-23.5204 Y14.4793
G01 F25.00
G01 Z-0.0500
G01 F60.00
G01 X-22.1996 Y14.4793 F60.00
G01 X-22.1610 Y14.4803 F60.00
G01 X-22.1226 Y14.4832 F60.00
G01 X-22.0880 Y14.4875 F60.00
G01 X-22.0536 Y14.4934 F60.00
G01 X-22.0148 Y14.5021 F60.00
G01 X-21.9788 Y14.5120 F60.00
G01 X-21.9433 Y14.5237 F60.00
G01 X-21.9062 Y14.5381 F60.00
G01 X-21.8743 Y14.5523 F60.00
G01 X-21.8432 Y14.5680 F60.00
G01 X-21.8096 Y14.5869 F60.00
G01 X-21.7770 Y14.6075 F60.00
G01 X-21.7464 Y14.6290 F60.00
G01 X-21.7170 Y14.6519 F60.00
G01 X-21.6887 Y14.6763 F60.00
G01 X-21.6617 Y14.7021 F60.00
G01 X-21.6359 Y14.7291 F60.00
G01 X-21.6115 Y14.7574 F60.00
G01 X-21.5886 Y14.7868 F60.00
G01 X-21.5671 Y14.8174 F60.00
G01 X-21.5471 Y14.8489 F60.00
G01 X-21.5287 Y14.8814 F60.00
G01 X-21.5119 Y14.9147 F60.00
G01 X-21.4968 Y14.9489 F60.00
G01 X-21.4833 Y14.9837 F60.00
G01 X-21.4716 Y15.0192 F60.00
G01 X-21.4617 Y15.0552 F60.00
G01 X-21.4535 Y15.0916 F60.00
G01 X-21.4471 Y15.1284 F60.00
G01 X-21.4425 Y15.1654 F60.00
G01 X-21.4398 Y15.2027 F60.00
G01 X-21.4389 Y15.2400 F60.00
G01 X-21.4398 Y15.2773 F60.00
G01 X-21.4425 Y15.3146 F60.00
G01 X-21.4471 Y15.3516 F60.00
G01 X-21.4535 Y15.3884 F60.00
G01 X-21.4617 Y15.4248 F60.00
G01 X-21.4716 Y15.4608 F60.00
G01 X-21.4833 Y15.4963 F60.00
G01 X-21.4968 Y15.5311 F60.00
G01 X-21.5119 Y15.5653 F60.00
G01 X-21.5287 Y15.5986 F60.00
G01 X-21.5465 Y15.6300 F60.00
G01 X-21.5671 Y15.6626 F60.00
G01 X-21.5901 Y15.6951 F60.00
G01 X-21.6115 Y15.7226 F60.00
G01 X-21.6343 Y15.7490 F60.00
G01 X-21.6600 Y15.7762 F60.00
G01 X-21.6887 Y15.8037 F60.00
G01 X-21.7170 Y15.8281 F60.00
G01 X-21.7464 Y15.8510 F60.00
G01 X-21.7790 Y15.8739 F60.00
G01 X-21.8106 Y15.8937 F60.00
G01 X-21.8410 Y15.9109 F60.00
G01 X-21.8721 Y15.9266 F60.00
G01 X-21.9085 Y15.9428 F60.00
G01 X-21.9433 Y15.9563 F60.00
G01 X-21.9788 Y15.9680 F60.00
G01 X-22.0171 Y15.9785 F60.00
G01 X-22.0512 Y15.9861 F60.00
G01 X-22.0856 Y15.9921 F60.00
G01 X-22.1238 Y15.9969 F60.00
G01 X-22.1623 Y15.9998 F60.00
G01 X-22.1996 Y16.0007 F60.00
G01 X-23.5204 Y16.0007 F60.00
G01 X-23.5590 Y15.9997 F60.00
G01 X-23.5974 Y15.9968 F60.00
G01 X-23.6320 Y15.9925 F60.00
G01 X-23.6664 Y15.9866 F60.00
G01 X-23.7052 Y15.9779 F60.00
G01 X-23.7412 Y15.9680 F60.00
G01 X-23.7767 Y15.9563 F60.00
G01 X-23.8138 Y15.9419 F60.00
G01 X-23.8457 Y15.9277 F60.00
G01 X-23.8768 Y15.9120 F60.00
G01 X-23.9104 Y15.8931 F60.00
G01 X-23.9451 Y15.8711 F60.00
G01 X-23.9736 Y15.8510 F60.00
G01 X-24.0030 Y15.8281 F60.00
G01 X-24.0313 Y15.8037 F60.00
G01 X-24.0566 Y15.7796 F60.00
G01 X-24.0857 Y15.7490 F60.00
G01 X-24.1085 Y15.7226 F60.00
G01 X-24.1314 Y15.6932 F60.00
G01 X-24.1529 Y15.6626 F60.00
G01 X-24.1716 Y15.6332 F60.00
G01 X-24.1924 Y15.5964 F60.00
G01 X-24.2081 Y15.5653 F60.00
G01 X-24.2232 Y15.5311 F60.00
G01 X-24.2367 Y15.4963 F60.00
G01 X-24.2476 Y15.4632 F60.00
G01 X-24.2589 Y15.4225 F60.00
G01 X-24.2665 Y15.3884 F60.00
G01 X-24.2729 Y15.3516 F60.00
G01 X-24.2775 Y15.3146 F60.00
G01 X-24.2801 Y15.2798 F60.00
G01 X-24.2811 Y15.2375 F60.00
G01 X-24.2802 Y15.2027 F60.00
G01 X-24.2775 Y15.1654 F60.00
G01 X-24.2729 Y15.1284 F60.00
G01 X-24.2670 Y15.0940 F60.00
G01 X-24.2577 Y15.0528 F60.00
G01 X-24.2484 Y15.0192 F60.00
G01 X-24.2367 Y14.9837 F60.00
G01 X-24.2232 Y14.9489 F60.00
G01 X-24.2091 Y14.9170 F60.00
G01 X-24.1901 Y14.8792 F60.00
G01 X-24.1729 Y14.8489 F60.00
G01 X-24.1529 Y14.8174 F60.00
G01 X-24.1314 Y14.7868 F60.00
G01 X-24.1100 Y14.7593 F60.00
G01 X-24.0824 Y14.7273 F60.00
G01 X-24.0583 Y14.7021 F60.00
G01 X-24.0313 Y14.6763 F60.00
G01 X-24.0030 Y14.6519 F60.00
G01 X-23.9755 Y14.6305 F60.00
G01 X-23.9410 Y14.6061 F60.00
G01 X-23.9115 Y14.5875 F60.00
G01 X-23.8790 Y14.5691 F60.00
G01 X-23.8457 Y14.5523 F60.00
G01 X-23.8138 Y14.5381 F60.00
G01 X-23.7744 Y14.5229 F60.00
G01 X-23.7412 Y14.5120 F60.00
G01 X-23.7052 Y14.5021 F60.00
G01 X-23.6688 Y14.4939 F60.00
G01 X-23.6344 Y14.4879 F60.00
G01 X-23.5925 Y14.4827 F60.00
G01 X-23.5577 Y14.4802 F60.00
G01 X-23.5204 Y14.4793 F60.00
G00 Z0.5000
G00 X-24.2542 Y9.9600
G01 F25.00
G01 Z-0.0500
G01 F60.00
G01 X-24.2480 Y9.9380 F60.00
G01 X-24.2371 Y9.9049 F60.00
G01 X-24.2227 Y9.8678 F60.00
G01 X-24.2070 Y9.8325 F60.00
G01 X-24.1913 Y9.8014 F60.00
G01 X-24.1735 Y9.7700 F60.00
G01 X-24.1529 Y9.7374 F60.00
G01 X-24.1299 Y9.7049 F60.00
G01 X-24.1085 Y9.6774 F60.00
G01 X-24.0857 Y9.6510 F60.00
G01 X-24.0574 Y9.6212 F60.00
G01 X-24.0294 Y9.5947 F60.00
G01 X-24.0030 Y9.5719 F60.00
G01 X-23.9755 Y9.5505 F60.00
G01 X-23.9430 Y9.5275 F60.00
G01 X-23.9094 Y9.5063 F60.00
G01 X-23.8790 Y9.4891 F60.00
G01 X-23.8479 Y9.4734 F60.00
G01 X-23.8115 Y9.4572 F60.00
G01 X-23.7744 Y9.4429 F60.00
G01 X-23.7412 Y9.4320 F60.00
G01 X-23.7064 Y9.4224 F60.00
G01 X-23.6688 Y9.4139 F60.00
G01 X-23.6296 Y9.4072 F60.00
G01 X-23.5950 Y9.4029 F60.00
G01 X-23.5602 Y9.4003 F60.00
G01 X-23.5216 Y9.3993 F60.00
G01 X-22.1996 Y9.3993 F60.00
G01 X-22.1623 Y9.4002 F60.00
G01 X-22.1250 Y9.4029 F60.00
G01 X-22.0880 Y9.4075 F60.00
G01 X-22.0512 Y9.4139 F60.00
G01 X-22.0148 Y9.4221 F60.00
G01 X-21.9788 Y9.4320 F60.00
G01 X-21.9433 Y9.4437 F60.00
G01 X-21.9085 Y9.4572 F60.00
G01 X-21.8743 Y9.4723 F60.00
G01 X-21.8410 Y9.4891 F60.00
G01 X-21.8085 Y9.5075 F60.00
G01 X-21.7770 Y9.5275 F60.00
G01 X-21.7464 Y9.5490 F60.00
G01 X-21.7170 Y9.5719 F60.00
G01 X-21.6887 Y9.5963 F60.00
G01 X-21.6617 Y9.6221 F60.00
G01 X-21.6359 Y9.6491 F60.00
G01 X-21.6115 Y9.6774 F60.00
G01 X-21.5886 Y9.7068 F60.00
G01 X-21.5671 Y9.7374 F60.00
G01 X-21.5471 Y9.7689 F60.00
G01 X-21.5287 Y9.8014 F60.00
G01 X-21.5119 Y9.8347 F60.00
G01 X-21.4968 Y9.8689 F60.00
G01 X-21.4833 Y9.9037 F60.00
G01 X-21.4716 Y9.9392 F60.00
G01 X-21.4617 Y9.9752 F60.00
G01 X-21.4535 Y10.0116 F60.00
G01 X-21.4471 Y10.0484 F60.00
G01 X-21.4425 Y10.0854 F60.00
G01 X-21.4398 Y10.1227 F60.00
G01 X-21.4389 Y10.1600 F60.00
G01 X-21.4398 Y10.1973 F60.00
G01 X-21.4425 Y10.2346 F60.00
G01 X-21.4475 Y10.2740 F60.00
G01 X-21.4535 Y10.3084 F60.00
G01 X-21.4617 Y10.3448 F60.00
G01 X-21.4724 Y10.3832 F60.00
G01 X-21.4833 Y10.4163 F60.00
G01 X-21.4968 Y10.4511 F60.00
G01 X-21.5130 Y10.4875 F60.00
G01 X-21.5287 Y10.5186 F60.00
G01 X-21.5471 Y10.5511 F60.00
G01 X-21.5685 Y10.5847 F60.00
G01 X-21.5886 Y10.6132 F60.00
G01 X-21.6115 Y10.6426 F60.00
G01 X-21.6359 Y10.6709 F60.00
G01 X-21.6600 Y10.6962 F60.00
G01 X-21.6887 Y10.7237 F60.00
G01 X-21.7170 Y10.7481 F60.00
G01 X-21.7445 Y10.7695 F60.00
G01 X-21.7770 Y10.7925 F60.00
G01 X-21.8106 Y10.8137 F60.00
G01 X-21.8410 Y10.8309 F60.00
G01 X-21.8743 Y10.8477 F60.00
G01 X-21.9108 Y10.8637 F60.00
G01 X-21.9433 Y10.8763 F60.00
G01 X-21.9788 Y10.8880 F60.00
G01 X-22.0171 Y10.8985 F60.00
G01 X-22.0512 Y10.9061 F60.00
G01 X-22.0880 Y10.9125 F60.00
G01 X-22.1275 Y10.9173 F60.00
G01 X-22.1623 Y10.9198 F60.00
G01 X-22.1984 Y10.9207 F60.00
G01 X-23.5216 Y10.9207 F60.00
G01 X-23.5577 Y10.9198 F60.00
G01 X-23.5950 Y10.9171 F60.00
G01 X-23.6320 Y10.9125 F60.00
G01 X-23.6664 Y10.9066 F60.00
G01 X-23.7052 Y10.8979 F60.00
G01 X-23.7436 Y10.8872 F60.00
G01 X-23.7767 Y10.8763 F60.00
G01 X-23.8092 Y10.8637 F60.00
G01 X-23.8479 Y10.8466 F60.00
G01 X-23.8790 Y10.8309 F60.00
G01 X-23.9094 Y10.8137 F60.00
G01 X-23.9430 Y10.7925 F60.00
G01 X-23.9736 Y10.7710 F60.00
G01 X-24.0011 Y10.7496 F60.00
G01 X-24.0322 Y10.7228 F60.00
G01 X-24.0583 Y10.6979 F60.00
G01 X-24.0824 Y10.6727 F60.00
G01 X-24.1085 Y10.6426 F60.00
G01 X-24.1329 Y10.6112 F60.00
G01 X-24.1529 Y10.5826 F60.00
G01 X-24.1723 Y10.5521 F60.00
G01 X-24.1924 Y10.5164 F60.00
G01 X-24.2081 Y10.4853 F60.00
G01 X-24.2227 Y10.4522 F60.00
G01 X-24.2371 Y10.4151 F60.00
G01 X-24.2480 Y10.3820 F60.00
G01 X-24.2542 Y10.3600 F60.00
G01 X-24.9018 Y10.3598 F60.00
G01 X-24.9140 Y10.3588 F60.00
G01 X-24.9298 Y10.3564 F60.00
G01 X-24.9406 Y10.3541 F60.00
G01 X-24.9524 Y10.3507 F60.00
G01 X-24.9663 Y10.3457 F60.00
G01 X-24.9775 Y10.3408 F60.00
G01 X-24.9885 Y10.3352 F60.00
G01 X-25.0031 Y10.3263 F60.00
G01 X-25.0189 Y10.3146 F60.00
G01 X-25.0335 Y10.3015 F60.00
G01 X-25.7972 Y9.5377 F60.00
G01 X-25.8071 Y9.5268 F60.00
G01 X-25.8147 Y9.5172 F60.00
G01 X-25.8217 Y9.5071 F60.00
G01 X-25.8292 Y9.4945 F60.00
G01 X-25.8348 Y9.4835 F60.00
G01 X-25.8393 Y9.4734 F60.00
G01 X-25.8447 Y9.4584 F60.00
G01 X-25.8481 Y9.4466 F60.00
G01 X-25.8507 Y9.4346 F60.00
G01 X-25.8528 Y9.4200 F60.00
G01 X-25.8537 Y9.4090 F60.00
G01 X-25.8540 Y9.3980 F60.00
G01 X-25.8540 Y3.9370 F60.00
G01 X-25.8537 Y3.9247 F60.00
G01 X-25.8519 Y3.9076 F60.00
G01 X-25.8497 Y3.8956 F60.00
G01 X-25.8458 Y3.8801 F60.00
G01 X-25.8424 Y3.8696 F60.00
G01 X-25.8379 Y3.8582 F60.00
G01 X-25.8316 Y3.8449 F60.00
G01 X-25.8256 Y3.8342 F60.00
G01 X-25.8196 Y3.8248 F60.00
G01 X-25.8132 Y3.8159 F60.00
G01 X-25.8039 Y3.8045 F60.00
G01 X-25.7963 Y3.7964 F60.00
G01 X-23.6365 Y1.6365 F60.00
G01 X-23.6284 Y1.6290 F60.00
G01 X-23.6142 Y1.6173 F60.00
G01 X-23.5978 Y1.6064 F60.00
G01 X-23.5805 Y1.5972 F60.00
G01 X-23.5647 Y1.5905 F60.00
G01 X-23.5507 Y1.5859 F60.00
G01 X-23.5328 Y1.5816 F60.00
G01 X-23.5146 Y1.5789 F60.00
G01 X-23.4962 Y1.5780 F60.00
G01 X-17.2720 Y1.5780 F60.00
G01 X-17.2597 Y1.5783 F60.00
G01 X-17.2439 Y1.5799 F60.00
G01 X-17.2306 Y1.5823 F60.00
G01 X-17.2139 Y1.5866 F60.00
G01 X-17.1977 Y1.5923 F60.00
G01 X-17.1865 Y1.5972 F60.00
G01 X-17.1713 Y1.6052 F60.00
G01 X-17.1609 Y1.6117 F60.00
G01 X-17.1470 Y1.6218 F60.00
G01 X-17.1368 Y1.6306 F60.00
G01 X-16.3643 Y2.4030 F60.00
G01 X-16.3228 Y2.4123 F60.00
G01 X-16.2892 Y2.4216 F60.00
G01 X-16.2537 Y2.4333 F60.00
G01 X-16.2189 Y2.4468 F60.00
G01 X-16.1870 Y2.4609 F60.00
G01 X-16.1492 Y2.4799 F60.00
G01 X-16.1189 Y2.4971 F60.00
G01 X-16.0874 Y2.5171 F60.00
G01 X-16.0568 Y2.5386 F60.00
G01 X-16.0293 Y2.5600 F60.00
G01 X-15.9973 Y2.5876 F60.00
G01 X-15.9721 Y2.6117 F60.00
G01 X-15.9455 Y2.6396 F60.00
G01 X-15.9219 Y2.6670 F60.00
G01 X-15.9005 Y2.6945 F60.00
G01 X-15.8761 Y2.7290 F60.00
G01 X-15.8575 Y2.7585 F60.00
G01 X-15.8391 Y2.7910 F60.00
G01 X-15.8223 Y2.8243 F60.00
G01 X-15.8081 Y2.8562 F60.00
G01 X-15.7929 Y2.8956 F60.00
G01 X-15.7820 Y2.9288 F60.00
G01 X-15.7721 Y2.9648 F60.00
G01 X-15.7639 Y3.0012 F60.00
G01 X-15.7579 Y3.0356 F60.00
G01 X-15.7528 Y3.0763 F60.00
G01 X-15.7502 Y3.1123 F60.00
G01 X-15.7493 Y3.1496 F60.00
G01 X-15.7493 Y4.4716 F60.00
G01 X-15.7503 Y4.5102 F60.00
G01 X-15.7529 Y4.5450 F60.00
G01 X-15.7572 Y4.5796 F60.00
G01 X-15.7639 Y4.6188 F60.00
G01 X-15.7721 Y4.6552 F60.00
G01 X-15.7820 Y4.6912 F60.00
G01 X-15.7937 Y4.7267 F60.00
G01 X-15.8072 Y4.7615 F60.00
G01 X-15.8213 Y4.7934 F60.00
G01 X-15.8403 Y4.8312 F60.00
G01 X-15.8575 Y4.8615 F60.00
G01 X-15.8775 Y4.8930 F60.00
G01 X-15.8990 Y4.9236 F60.00
G01 X-15.9219 Y4.9530 F60.00
G01 X-15.9463 Y4.9813 F60.00
G01 X-15.9704 Y5.0066 F60.00
G01 X-16.0010 Y5.0357 F60.00
G01 X-16.0274 Y5.0585 F60.00
G01 X-16.0588 Y5.0829 F60.00
G01 X-16.0874 Y5.1029 F60.00
G01 X-16.1189 Y5.1229 F60.00
G01 X-16.1514 Y5.1413 F60.00
G01 X-16.1847 Y5.1581 F60.00
G01 X-16.2189 Y5.1732 F60.00
G01 X-16.2537 Y5.1867 F60.00
G01 X-16.2892 Y5.1984 F60.00
G01 X-16.3228 Y5.2077 F60.00
G01 X-16.3640 Y5.2170 F60.00
G01 X-16.3984 Y5.2229 F60.00
G01 X-16.4379 Y5.2277 F60.00
G01 X-16.4727 Y5.2302 F60.00
G01 X-16.5100 Y5.2311 F60.00
G01 X-16.5473 Y5.2302 F60.00
G01 X-16.5833 Y5.2276 F60.00
G01 X-16.6240 Y5.2225 F60.00
G01 X-16.6584 Y5.2165 F60.00
G01 X-16.6948 Y5.2083 F60.00
G01 X-16.7308 Y5.1984 F60.00
G01 X-16.7640 Y5.1875 F60.00
G01 X-16.8034 Y5.1723 F60.00
G01 X-16.8353 Y5.1581 F60.00
G01 X-16.8686 Y5.1413 F60.00
G01 X-16.9011 Y5.1229 F60.00
G01 X-16.9306 Y5.1043 F60.00
G01 X-16.9651 Y5.0799 F60.00
G01 X-16.9926 Y5.0585 F60.00
G01 X-17.0190 Y5.0357 F60.00
G01 X-17.0496 Y5.0066 F60.00
G01 X-17.0737 Y4.9813 F60.00
G01 X-17.0981 Y4.9530 F60.00
G01 X-17.1210 Y4.9236 F60.00
G01 X-17.1411 Y4.8951 F60.00
G01 X-17.1625 Y4.8615 F60.00
G01 X-17.1809 Y4.8290 F60.00
G01 X-17.1966 Y4.7979 F60.00
G01 X-17.2128 Y4.7615 F60.00
G01 X-17.2263 Y4.7267 F60.00
G01 X-17.2372 Y4.6936 F60.00
G01 X-17.2482 Y4.6541 F60.00
G01 X-17.2566 Y4.6164 F60.00
G01 X-17.2625 Y4.5820 F60.00
G01 X-17.2668 Y4.5474 F60.00
G01 X-17.2698 Y4.5077 F60.00
G01 X-17.2707 Y4.4704 F60.00
G01 X-17.2707 Y3.1484 F60.00
G01 X-17.2698 Y3.1123 F60.00
G01 X-17.2671 Y3.0750 F60.00
G01 X-17.2625 Y3.0380 F60.00
G01 X-17.2566 Y3.0036 F60.00
G01 X-17.2479 Y2.9648 F60.00
G01 X-17.2380 Y2.9288 F60.00
G01 X-17.2263 Y2.8933 F60.00
G01 X-17.2119 Y2.8562 F60.00
G01 X-17.1966 Y2.8221 F60.00
G01 X-17.1809 Y2.7910 F60.00
G01 X-17.1637 Y2.7606 F60.00
G01 X-17.1425 Y2.7270 F60.00
G01 X-17.1210 Y2.6964 F60.00
G01 X-17.0981 Y2.6670 F60.00
G01 X-17.0720 Y2.6369 F60.00
G01 X-17.0479 Y2.6117 F60.00
G01 X-17.0227 Y2.5876 F60.00
G01 X-16.9935 Y2.5623 F60.00
G01 X-16.9632 Y2.5386 F60.00
G01 X-16.9316 Y2.5164 F60.00
G01 X-16.9000 Y2.4965 F60.00
G01 X-16.8697 Y2.4793 F60.00
G01 X-16.8591 Y2.4739 F60.00
G01 X-17.3549 Y1.9780 F60.00
G01 X-23.4121 Y1.9780 F60.00
G01 X-25.4540 Y4.0199 F60.00
G01 X-25.4540 Y9.3151 F60.00
G01 X-24.8091 Y9.9600 F60.00
G01 X-24.2542 Y9.9600 F60.00
G00 Z0.5000
G00 X-23.5204 Y6.8593
G01 F25.00
G01 Z-0.0500
G01 F60.00
G01 X-22.1984 Y6.8593 F60.00
G01 X-22.1623 Y6.8602 F60.00
G01 X-22.1250 Y6.8629 F60.00
G01 X-22.0880 Y6.8675 F60.00
G01 X-22.0536 Y6.8734 F60.00
G01 X-22.0148 Y6.8821 F60.00
G01 X-21.9764 Y6.8928 F60.00
G01 X-21.9433 Y6.9037 F60.00
G01 X-21.9108 Y6.9163 F60.00
G01 X-21.8743 Y6.9323 F60.00
G01 X-21.8410 Y6.9491 F60.00
G01 X-21.8064 Y6.9688 F60.00
G01 X-21.7770 Y6.9875 F60.00
G01 X-21.7484 Y7.0075 F60.00
G01 X-21.7180 Y7.0312 F60.00
G01 X-21.6887 Y7.0563 F60.00
G01 X-21.6600 Y7.0838 F60.00
G01 X-21.6359 Y7.1091 F60.00
G01 X-21.6131 Y7.1355 F60.00
G01 X-21.5893 Y7.1659 F60.00
G01 X-21.5671 Y7.1974 F60.00
G01 X-21.5465 Y7.2300 F60.00
G01 X-21.5276 Y7.2636 F60.00
G01 X-21.5119 Y7.2947 F60.00
G01 X-21.5020 Y7.3170 F60.00
G01 X-20.9120 Y7.3169 F60.00
G01 X-20.9119 Y6.7633 F60.00
G01 X-20.9114 Y6.7560 F60.00
G01 X-20.9101 Y6.7475 F60.00
G01 X-20.9084 Y6.7403 F60.00
G01 X-20.9062 Y6.7333 F60.00
G01 X-20.9034 Y6.7265 F60.00
G01 X-20.9002 Y6.7199 F60.00
G01 X-20.8965 Y6.7135 F60.00
G01 X-20.8923 Y6.7074 F60.00
G01 X-20.8853 Y6.6989 F60.00
G01 X-20.8773 Y6.6913 F60.00
G01 X-20.8686 Y6.6845 F60.00
G01 X-20.8591 Y6.6788 F60.00
G01 X-20.8491 Y6.6741 F60.00
G01 X-20.8387 Y6.6706 F60.00
G01 X-20.8279 Y6.6683 F60.00
G01 X-20.8169 Y6.6671 F60.00
G01 X-20.1390 Y6.6670 F60.00
G01 X-20.1389 Y6.0874 F60.00
G01 X-20.1381 Y6.0764 F60.00
G01 X-20.1367 Y6.0654 F60.00
G01 X-20.1347 Y6.0546 F60.00
G01 X-20.1311 Y6.0403 F60.00
G01 X-20.1278 Y6.0298 F60.00
G01 X-20.1238 Y6.0194 F60.00
G01 X-20.1193 Y6.0094 F60.00
G01 X-20.1142 Y5.9995 F60.00
G01 X-20.1067 Y5.9869 F60.00
G01 X-20.0997 Y5.9768 F60.00
G01 X-20.0921 Y5.9672 F60.00
G01 X-20.0813 Y5.9554 F60.00
G01 X-19.3108 Y5.1849 F60.00
G01 X-19.3411 Y5.1732 F60.00
G01 X-19.3730 Y5.1591 F60.00
G01 X-19.4086 Y5.1413 F60.00
G01 X-19.4432 Y5.1216 F60.00
G01 X-19.4726 Y5.1029 F60.00
G01 X-19.5012 Y5.0829 F60.00
G01 X-19.5326 Y5.0585 F60.00
G01 X-19.5627 Y5.0324 F60.00
G01 X-19.5879 Y5.0083 F60.00
G01 X-19.6120 Y4.9831 F60.00
G01 X-19.6381 Y4.9530 F60.00
G01 X-19.6625 Y4.9216 F60.00
G01 X-19.6825 Y4.8930 F60.00
G01 X-19.7012 Y4.8636 F60.00
G01 X-19.7209 Y4.8290 F60.00
G01 X-19.7387 Y4.7934 F60.00
G01 X-19.7528 Y4.7615 F60.00
G01 X-19.7654 Y4.7290 F60.00
G01 X-19.7780 Y4.6912 F60.00
G01 X-19.7885 Y4.6529 F60.00
G01 X-19.7961 Y4.6188 F60.00
G01 X-19.8021 Y4.5844 F60.00
G01 X-19.8073 Y4.5425 F60.00
G01 X-19.8098 Y4.5077 F60.00
G01 X-19.8107 Y4.4704 F60.00
G01 X-19.8107 Y3.1496 F60.00
G01 X-19.8098 Y3.1123 F60.00
G01 X-19.8071 Y3.0750 F60.00
G01 X-19.8025 Y3.0380 F60.00
G01 X-19.7961 Y3.0012 F60.00
G01 X-19.7873 Y2.9624 F60.00
G01 X-19.7772 Y2.9264 F60.00
G01 X-19.7663 Y2.8933 F60.00
G01 X-19.7537 Y2.8608 F60.00
G01 X-19.7377 Y2.8243 F60.00
G01 X-19.7209 Y2.7910 F60.00
G01 X-19.7012 Y2.7564 F60.00
G01 X-19.6825 Y2.7270 F60.00
G01 X-19.6625 Y2.6984 F60.00
G01 X-19.6381 Y2.6670 F60.00
G01 X-19.6137 Y2.6387 F60.00
G01 X-19.5879 Y2.6117 F60.00
G01 X-19.5590 Y2.5843 F60.00
G01 X-19.5326 Y2.5615 F60.00
G01 X-19.5051 Y2.5401 F60.00
G01 X-19.4726 Y2.5171 F60.00
G01 X-19.4390 Y2.4959 F60.00
G01 X-19.4086 Y2.4787 F60.00
G01 X-19.3775 Y2.4630 F60.00
G01 X-19.3411 Y2.4468 F60.00
G01 X-19.3063 Y2.4333 F60.00
G01 X-19.2685 Y2.4209 F60.00
G01 X-19.2348 Y2.4117 F60.00
G01 X-19.2008 Y2.4040 F60.00
G01 X-19.1616 Y2.3971 F60.00
G01 X-19.1246 Y2.3925 F60.00
G01 X-19.0873 Y2.3898 F60.00
G01 X-19.0475 Y2.3889 F60.00
G01 X-19.0127 Y2.3898 F60.00
G01 X-18.9779 Y2.3923 F60.00
G01 X-18.9384 Y2.3971 F60.00
G01 X-18.8992 Y2.4040 F60.00
G01 X-18.8652 Y2.4117 F60.00
G01 X-18.8315 Y2.4209 F60.00
G01 X-18.7937 Y2.4333 F60.00
G01 X-18.7589 Y2.4468 F60.00
G01 X-18.7225 Y2.4630 F60.00
G01 X-18.6914 Y2.4787 F60.00
G01 X-18.6610 Y2.4959 F60.00
G01 X-18.6274 Y2.5171 F60.00
G01 X-18.5968 Y2.5386 F60.00
G01 X-18.5674 Y2.5615 F60.00
G01 X-18.5373 Y2.5876 F60.00
G01 X-18.5121 Y2.6117 F60.00
G01 X-18.4880 Y2.6369 F60.00
G01 X-18.4619 Y2.6670 F60.00
G01 X-18.4390 Y2.6964 F60.00
G01 X-18.4189 Y2.7249 F60.00
G01 X-18.3975 Y2.7585 F60.00
G01 X-18.3791 Y2.7910 F60.00
G01 X-18.3634 Y2.8221 F60.00
G01 X-18.3463 Y2.8608 F60.00
G01 X-18.3337 Y2.8933 F60.00
G01 X-18.3220 Y2.9288 F60.00
G01 X-18.3121 Y2.9648 F60.00
G01 X-18.3044 Y2.9988 F60.00
G01 X-18.2972 Y3.0404 F60.00
G01 X-18.2929 Y3.0750 F60.00
G01 X-18.2903 Y3.1110 F60.00
G01 X-18.2893 Y3.1496 F60.00
G01 X-18.2893 Y4.4704 F60.00
G01 X-18.2901 Y4.5053 F60.00
G01 X-18.2932 Y4.5474 F60.00
G01 X-18.2975 Y4.5820 F60.00
G01 X-18.3039 Y4.6188 F60.00
G01 X-18.3127 Y4.6576 F60.00
G01 X-18.3220 Y4.6912 F60.00
G01 X-18.3337 Y4.7267 F60.00
G01 X-18.3472 Y4.7615 F60.00
G01 X-18.3623 Y4.7957 F60.00
G01 X-18.3791 Y4.8290 F60.00
G01 X-18.3988 Y4.8636 F60.00
G01 X-18.4175 Y4.8930 F60.00
G01 X-18.4375 Y4.9216 F60.00
G01 X-18.4604 Y4.9511 F60.00
G01 X-18.4863 Y4.9813 F60.00
G01 X-18.5112 Y5.0074 F60.00
G01 X-18.5391 Y5.0341 F60.00
G01 X-18.5693 Y5.0600 F60.00
G01 X-18.5968 Y5.0814 F60.00
G01 X-18.6253 Y5.1015 F60.00
G01 X-18.6600 Y5.1235 F60.00
G01 X-18.6914 Y5.1413 F60.00
G01 X-18.7225 Y5.1570 F60.00
G01 X-18.7578 Y5.1727 F60.00
G01 X-18.7949 Y5.1871 F60.00
G01 X-18.8280 Y5.1980 F60.00
G01 X-18.8500 Y5.2042 F60.00
G01 X-18.8507 Y5.2242 F60.00
G01 X-18.8525 Y5.2388 F60.00
G01 X-18.8563 Y5.2568 F60.00
G01 X-18.8621 Y5.2755 F60.00
G01 X-18.8692 Y5.2925 F60.00
G01 X-18.8784 Y5.3098 F60.00
G01 X-18.8893 Y5.3262 F60.00
G01 X-18.9018 Y5.3413 F60.00
G01 X-19.7390 Y6.1789 F60.00
G01 X-19.7389 Y6.6670 F60.00
G01 X-18.8059 Y6.6672 F60.00
G01 X-18.7925 Y6.6689 F60.00
G01 X-18.7795 Y6.6724 F60.00
G01 X-18.7670 Y6.6777 F60.00
G01 X-18.7554 Y6.6845 F60.00
G01 X-18.7448 Y6.6929 F60.00
G01 X-18.7355 Y6.7026 F60.00
G01 X-18.7275 Y6.7135 F60.00
G01 X-18.7211 Y6.7254 F60.00
G01 X-18.7170 Y6.7356 F60.00
G01 X-18.7142 Y6.7463 F60.00
G01 X-18.7126 Y6.7560 F60.00
G01 X-18.7120 Y6.7670 F60.00
G01 X-18.7120 Y8.2682 F60.00
G01 X-18.7128 Y8.2792 F60.00
G01 X-18.7147 Y8.2901 F60.00
G01 X-18.7178 Y8.3007 F60.00
G01 X-18.7221 Y8.3109 F60.00
G01 X-18.7275 Y8.3205 F60.00
G01 X-18.7332 Y8.3285 F60.00
G01 X-18.7404 Y8.3368 F60.00
G01 X-18.7486 Y8.3443 F60.00
G01 X-18.7554 Y8.3495 F60.00
G01 X-18.7627 Y8.3540 F60.00
G01 X-18.7704 Y8.3579 F60.00
G01 X-18.7783 Y8.3612 F60.00
G01 X-18.7865 Y8.3637 F60.00
G01 X-18.7949 Y8.3655 F60.00
G01 X-18.8022 Y8.3665 F60.00
G01 X-18.8108 Y8.3670 F60.00
G01 X-20.8120 Y8.3670 F60.00
G01 X-20.8230 Y8.3664 F60.00
G01 X-20.8351 Y8.3643 F60.00
G01 X-20.8434 Y8.3620 F60.00
G01 X-20.8503 Y8.3594 F60.00
G01 X-20.8570 Y8.3563 F60.00
G01 X-20.8634 Y8.3528 F60.00
G01 X-20.8696 Y8.3488 F60.00
G01 X-20.8754 Y8.3443 F60.00
G01 X-20.8810 Y8.3394 F60.00
G01 X-20.8869 Y8.3332 F60.00
G01 X-20.8916 Y8.3276 F60.00
G01 X-20.8958 Y8.3215 F60.00
G01 X-20.8996 Y8.3152 F60.00
G01 X-20.9029 Y8.3086 F60.00
G01 X-20.9057 Y8.3018 F60.00
G01 X-20.9084 Y8.2937 F60.00
G01 X-20.9101 Y8.2865 F60.00
G01 X-20.9112 Y8.2792 F60.00
G01 X-20.9120 Y8.2670 F60.00
G01 X-20.9120 Y7.7170 F60.00
G01 X-21.4453 Y7.7171 F60.00
G01 X-21.4473 Y7.7328 F60.00
G01 X-21.4537 Y7.7696 F60.00
G01 X-21.4617 Y7.8048 F60.00
G01 X-21.4713 Y7.8397 F60.00
G01 X-21.4842 Y7.8786 F60.00
G01 X-21.4968 Y7.9111 F60.00
G01 X-21.5114 Y7.9441 F60.00
G01 X-21.5299 Y7.9808 F60.00
G01 X-21.5471 Y8.0111 F60.00
G01 X-21.5671 Y8.0426 F60.00
G01 X-21.5901 Y8.0751 F60.00
G01 X-21.6115 Y8.1026 F60.00
G01 X-21.6351 Y8.1300 F60.00
G01 X-21.6634 Y8.1596 F60.00
G01 X-21.6887 Y8.1837 F60.00
G01 X-21.7170 Y8.2081 F60.00
G01 X-21.7464 Y8.2310 F60.00
G01 X-21.7749 Y8.2511 F60.00
G01 X-21.8085 Y8.2725 F60.00
G01 X-21.8410 Y8.2909 F60.00
G01 X-21.8721 Y8.3066 F60.00
G01 X-21.9085 Y8.3228 F60.00
G01 X-21.9456 Y8.3371 F60.00
G01 X-21.9788 Y8.3480 F60.00
G01 X-22.0124 Y8.3573 F60.00
G01 X-22.0512 Y8.3661 F60.00
G01 X-22.0904 Y8.3728 F60.00
G01 X-22.1250 Y8.3771 F60.00
G01 X-22.1598 Y8.3797 F60.00
G01 X-22.1984 Y8.3807 F60.00
G01 X-23.5204 Y8.3807 F60.00
G01 X-23.5602 Y8.3797 F60.00
G01 X-23.5950 Y8.3771 F60.00
G01 X-23.6320 Y8.3725 F60.00
G01 X-23.6688 Y8.3661 F60.00
G01 X-23.7029 Y8.3585 F60.00
G01 X-23.7424 Y8.3476 F60.00
G01 X-23.7767 Y8.3363 F60.00
G01 X-23.8115 Y8.3228 F60.00
G01 X-23.8457 Y8.3077 F60.00
G01 X-23.8768 Y8.2920 F60.00
G01 X-23.9115 Y8.2725 F60.00
G01 X-23.9410 Y8.2539 F60.00
G01 X-23.9755 Y8.2295 F60.00
G01 X-24.0030 Y8.2081 F60.00
G01 X-24.0313 Y8.1837 F60.00
G01 X-24.0583 Y8.1579 F60.00
G01 X-24.0841 Y8.1309 F60.00
G01 X-24.1085 Y8.1026 F60.00
G01 X-24.1314 Y8.0732 F60.00
G01 X-24.1529 Y8.0426 F60.00
G01 X-24.1716 Y8.0132 F60.00
G01 X-24.1913 Y7.9786 F60.00
G01 X-24.2070 Y7.9475 F60.00
G01 X-24.2241 Y7.9088 F60.00
G01 X-24.2367 Y7.8763 F60.00
G01 X-24.2484 Y7.8408 F60.00
G01 X-24.2583 Y7.8048 F60.00
G01 X-24.2665 Y7.7684 F60.00
G01 X-24.2729 Y7.7316 F60.00
G01 X-24.2772 Y7.6970 F60.00
G01 X-24.2803 Y7.6549 F60.00
G01 X-24.2811 Y7.6200 F60.00
G01 X-24.2802 Y7.5827 F60.00
G01 X-24.2775 Y7.5454 F60.00
G01 X-24.2729 Y7.5084 F60.00
G01 X-24.2665 Y7.4716 F60.00
G01 X-24.2583 Y7.4352 F60.00
G01 X-24.2484 Y7.3992 F60.00
G01 X-24.2375 Y7.3660 F60.00
G01 X-24.2232 Y7.3289 F60.00
G01 X-24.2091 Y7.2970 F60.00
G01 X-24.1901 Y7.2592 F60.00
G01 X-24.1729 Y7.2289 F60.00
G01 X-24.1529 Y7.1974 F60.00
G01 X-24.1314 Y7.1668 F60.00
G01 X-24.1085 Y7.1374 F60.00
G01 X-24.0841 Y7.1091 F60.00
G01 X-24.0583 Y7.0821 F60.00
G01 X-24.0313 Y7.0563 F60.00
G01 X-24.0049 Y7.0335 F60.00
G01 X-23.9736 Y7.0090 F60.00
G01 X-23.9451 Y6.9889 F60.00
G01 X-23.9094 Y6.9663 F60.00
G01 X-23.8790 Y6.9491 F60.00
G01 X-23.8457 Y6.9323 F60.00
G01 X-23.8115 Y6.9172 F60.00
G01 X-23.7767 Y6.9037 F60.00
G01 X-23.7412 Y6.8920 F60.00
G01 X-23.7052 Y6.8821 F60.00
G01 X-23.6688 Y6.8739 F60.00
G01 X-23.6344 Y6.8679 F60.00
G01 X-23.5925 Y6.8627 F60.00
G01 X-23.5577 Y6.8602 F60.00
G01 X-23.5204 Y6.8593 F60.00
G00 Z0.5000
G00 X-22.3507 Y4.4704
G01 F25.00
G01 Z-0.0500
G01 F60.00
G01 X-22.3507 Y3.1496 F60.00
G01 X-22.3497 Y3.1110 F60.00
G01 X-22.3468 Y3.0726 F60.00
G01 X-22.3425 Y3.0380 F60.00
G01 X-22.3366 Y3.0036 F60.00
G01 X-22.3279 Y2.9648 F60.00
G01 X-22.3180 Y2.9288 F60.00
G01 X-22.3063 Y2.8933 F60.00
G01 X-22.2919 Y2.8562 F60.00
G01 X-22.2777 Y2.8243 F60.00
G01 X-22.2620 Y2.7932 F60.00
G01 X-22.2431 Y2.7596 F60.00
G01 X-22.2225 Y2.7270 F60.00
G01 X-22.2010 Y2.6964 F60.00
G01 X-22.1781 Y2.6670 F60.00
G01 X-22.1537 Y2.6387 F60.00
G01 X-22.1279 Y2.6117 F60.00
G01 X-22.1009 Y2.5859 F60.00
G01 X-22.0726 Y2.5615 F60.00
G01 X-22.0432 Y2.5386 F60.00
G01 X-22.0126 Y2.5171 F60.00
G01 X-21.9811 Y2.4971 F60.00
G01 X-21.9486 Y2.4787 F60.00
G01 X-21.9153 Y2.4619 F60.00
G01 X-21.8811 Y2.4468 F60.00
G01 X-21.8463 Y2.4333 F60.00
G01 X-21.8108 Y2.4216 F60.00
G01 X-21.7748 Y2.4117 F60.00
G01 X-21.7384 Y2.4035 F60.00
G01 X-21.7016 Y2.3971 F60.00
G01 X-21.6646 Y2.3925 F60.00
G01 X-21.6273 Y2.3898 F60.00
G01 X-21.5900 Y2.3889 F60.00
G01 X-21.5527 Y2.3898 F60.00
G01 X-21.5154 Y2.3925 F60.00
G01 X-21.4784 Y2.3971 F60.00
G01 X-21.4416 Y2.4035 F60.00
G01 X-21.4052 Y2.4117 F60.00
G01 X-21.3692 Y2.4216 F60.00
G01 X-21.3337 Y2.4333 F60.00
G01 X-21.2989 Y2.4468 F60.00
G01 X-21.2647 Y2.4619 F60.00
G01 X-21.2314 Y2.4787 F60.00
G01 X-21.2000 Y2.4965 F60.00
G01 X-21.1674 Y2.5171 F60.00
G01 X-21.1349 Y2.5401 F60.00
G01 X-21.1074 Y2.5615 F60.00
G01 X-21.0810 Y2.5843 F60.00
G01 X-21.0538 Y2.6100 F60.00
G01 X-21.0263 Y2.6387 F60.00
G01 X-21.0019 Y2.6670 F60.00
G01 X-20.9790 Y2.6964 F60.00
G01 X-20.9561 Y2.7290 F60.00
G01 X-20.9363 Y2.7606 F60.00
G01 X-20.9191 Y2.7910 F60.00
G01 X-20.9034 Y2.8221 F60.00
G01 X-20.8872 Y2.8585 F60.00
G01 X-20.8737 Y2.8933 F60.00
G01 X-20.8620 Y2.9288 F60.00
G01 X-20.8515 Y2.9671 F60.00
G01 X-20.8439 Y3.0012 F60.00
G01 X-20.8379 Y3.0356 F60.00
G01 X-20.8331 Y3.0738 F60.00
G01 X-20.8302 Y3.1123 F60.00
G01 X-20.8293 Y3.1496 F60.00
G01 X-20.8293 Y4.4704 F60.00
G01 X-20.8303 Y4.5090 F60.00
G01 X-20.8332 Y4.5474 F60.00
G01 X-20.8375 Y4.5820 F60.00
G01 X-20.8434 Y4.6164 F60.00
G01 X-20.8521 Y4.6552 F60.00
G01 X-20.8620 Y4.6912 F60.00
G01 X-20.8737 Y4.7267 F60.00
G01 X-20.8881 Y4.7638 F60.00
G01 X-20.9023 Y4.7957 F60.00
G01 X-20.9180 Y4.8268 F60.00
G01 X-20.9369 Y4.8604 F60.00
G01 X-20.9589 Y4.8951 F60.00
G01 X-20.9790 Y4.9236 F60.00
G01 X-21.0019 Y4.9530 F60.00
G01 X-21.0263 Y4.9813 F60.00
G01 X-21.0504 Y5.0066 F60.00
G01 X-21.0810 Y5.0357 F60.00
G01 X-21.1074 Y5.0585 F60.00
G01 X-21.1368 Y5.0814 F60.00
G01 X-21.1674 Y5.1029 F60.00
G01 X-21.1968 Y5.1216 F60.00
G01 X-21.2336 Y5.1424 F60.00
G01 X-21.2647 Y5.1581 F60.00
G01 X-21.2989 Y5.1732 F60.00
G01 X-21.3337 Y5.1867 F60.00
G01 X-21.3668 Y5.1976 F60.00
G01 X-21.4075 Y5.2089 F60.00
G01 X-21.4416 Y5.2165 F60.00
G01 X-21.4784 Y5.2229 F60.00
G01 X-21.5154 Y5.2275 F60.00
G01 X-21.5502 Y5.2301 F60.00
G01 X-21.5925 Y5.2311 F60.00
G01 X-21.6273 Y5.2302 F60.00
G01 X-21.6646 Y5.2275 F60.00
G01 X-21.7016 Y5.2229 F60.00
G01 X-21.7360 Y5.2170 F60.00
G01 X-21.7772 Y5.2077 F60.00
G01 X-21.8108 Y5.1984 F60.00
G01 X-21.8463 Y5.1867 F60.00
G01 X-21.8811 Y5.1732 F60.00
G01 X-21.9130 Y5.1591 F60.00
G01 X-21.9508 Y5.1401 F60.00
G01 X-21.9811 Y5.1229 F60.00
G01 X-22.0126 Y5.1029 F60.00
G01 X-22.0432 Y5.0814 F60.00
G01 X-22.0707 Y5.0600 F60.00
G01 X-22.1027 Y5.0324 F60.00
G01 X-22.1279 Y5.0083 F60.00
G01 X-22.1537 Y4.9813 F60.00
G01 X-22.1781 Y4.9530 F60.00
G01 X-22.1995 Y4.9255 F60.00
G01 X-22.2239 Y4.8910 F60.00
G01 X-22.2425 Y4.8615 F60.00
G01 X-22.2609 Y4.8290 F60.00
G01 X-22.2777 Y4.7957 F60.00
G01 X-22.2919 Y4.7638 F60.00
G01 X-22.3071 Y4.7244 F60.00
G01 X-22.3180 Y4.6912 F60.00
G01 X-22.3279 Y4.6552 F60.00
G01 X-22.3361 Y4.6188 F60.00
G01 X-22.3421 Y4.5844 F60.00
G01 X-22.3473 Y4.5425 F60.00
G01 X-22.3498 Y4.5077 F60.00
G01 X-22.3507 Y4.4704 F60.00
G00 Z0.5000
G00 X-29.9720 Y11.8376
G01 F25.00
G01 Z-0.0500
G01 F60.00
G01 X-28.4455 Y11.8376 F60.00
G01 X-28.4057 Y11.8387 F60.00
G01 X-28.3659 Y11.8416 F60.00
G01 X-28.3215 Y11.8470 F60.00
G01 X-28.2774 Y11.8547 F60.00
G01 X-28.2385 Y11.8635 F60.00
G01 X-28.2000 Y11.8741 F60.00
G01 X-28.1552 Y11.8889 F60.00
G01 X-28.1180 Y11.9033 F60.00
G01 X-28.0815 Y11.9194 F60.00
G01 X-28.0415 Y11.9394 F60.00
G01 X-28.0026 Y11.9616 F60.00
G01 X-27.9689 Y11.9830 F60.00
G01 X-27.9363 Y12.0059 F60.00
G01 X-27.9009 Y12.0334 F60.00
G01 X-27.8671 Y12.0627 F60.00
G01 X-27.8382 Y12.0902 F60.00
G01 X-27.8107 Y12.1191 F60.00
G01 X-27.7814 Y12.1529 F60.00
G01 X-27.7539 Y12.1883 F60.00
G01 X-27.7310 Y12.2209 F60.00
G01 X-27.7096 Y12.2546 F60.00
G01 X-27.6874 Y12.2935 F60.00
G01 X-27.6674 Y12.3335 F60.00
G01 X-27.6513 Y12.3700 F60.00
G01 X-27.6365 Y12.4083 F60.00
G01 X-27.6224 Y12.4508 F60.00
G01 X-27.6118 Y12.4893 F60.00
G01 X-27.6093 Y12.5000 F60.00
G01 X-24.2542 Y12.4999 F60.00
G01 X-24.2480 Y12.4780 F60.00
G01 X-24.2371 Y12.4449 F60.00
G01 X-24.2227 Y12.4078 F60.00
G01 X-24.2070 Y12.3725 F60.00
G01 X-24.1913 Y12.3414 F60.00
G01 X-24.1735 Y12.3100 F60.00
G01 X-24.1529 Y12.2774 F60.00
G01 X-24.1299 Y12.2449 F60.00
G01 X-24.1085 Y12.2174 F60.00
G01 X-24.0857 Y12.1910 F60.00
G01 X-24.0574 Y12.1612 F60.00
G01 X-24.0294 Y12.1347 F60.00
G01 X-24.0030 Y12.1119 F60.00
G01 X-23.9755 Y12.0905 F60.00
G01 X-23.9430 Y12.0675 F60.00
G01 X-23.9094 Y12.0463 F60.00
G01 X-23.8790 Y12.0291 F60.00
G01 X-23.8479 Y12.0134 F60.00
G01 X-23.8115 Y11.9972 F60.00
G01 X-23.7744 Y11.9829 F60.00
G01 X-23.7412 Y11.9720 F60.00
G01 X-23.7064 Y11.9624 F60.00
G01 X-23.6688 Y11.9539 F60.00
G01 X-23.6296 Y11.9472 F60.00
G01 X-23.5950 Y11.9429 F60.00
G01 X-23.5602 Y11.9403 F60.00
G01 X-23.5216 Y11.9393 F60.00
G01 X-22.1996 Y11.9393 F60.00
G01 X-22.1623 Y11.9402 F60.00
G01 X-22.1238 Y11.9431 F60.00
G01 X-22.0880 Y11.9475 F60.00
G01 X-22.0512 Y11.9539 F60.00
G01 X-22.0148 Y11.9621 F60.00
G01 X-21.9788 Y11.9720 F60.00
G01 X-21.9433 Y11.9837 F60.00
G01 X-21.9085 Y11.9972 F60.00
G01 X-21.8743 Y12.0123 F60.00
G01 X-21.8410 Y12.0291 F60.00
G01 X-21.8085 Y12.0475 F60.00
G01 X-21.7770 Y12.0675 F60.00
G01 X-21.7464 Y12.0890 F60.00
G01 X-21.7170 Y12.1119 F60.00
G01 X-21.6887 Y12.1363 F60.00
G01 X-21.6617 Y12.1621 F60.00
G01 X-21.6359 Y12.1891 F60.00
G01 X-21.6115 Y12.2174 F60.00
G01 X-21.5886 Y12.2468 F60.00
G01 X-21.5671 Y12.2774 F60.00
G01 X-21.5471 Y12.3089 F60.00
G01 X-21.5287 Y12.3414 F60.00
G01 X-21.5119 Y12.3747 F60.00
G01 X-21.4968 Y12.4089 F60.00
G01 X-21.4833 Y12.4437 F60.00
G01 X-21.4716 Y12.4792 F60.00
G01 X-21.4617 Y12.5152 F60.00
G01 X-21.4535 Y12.5516 F60.00
G01 X-21.4471 Y12.5884 F60.00
G01 X-21.4425 Y12.6254 F60.00
G01 X-21.4398 Y12.6627 F60.00
G01 X-21.4389 Y12.7000 F60.00
G01 X-21.4398 Y12.7373 F60.00
G01 X-21.4427 Y12.7758 F60.00
G01 X-21.4471 Y12.8116 F60.00
G01 X-21.4535 Y12.8484 F60.00
G01 X-21.4617 Y12.8848 F60.00
G01 X-21.4709 Y12.9185 F60.00
G01 X-21.4842 Y12.9586 F60.00
G01 X-21.4968 Y12.9911 F60.00
G01 X-21.5119 Y13.0253 F60.00
G01 X-21.5287 Y13.0586 F60.00
G01 X-21.5459 Y13.0890 F60.00
G01 X-21.5685 Y13.1247 F60.00
G01 X-21.5886 Y13.1532 F60.00
G01 X-21.6115 Y13.1826 F60.00
G01 X-21.6359 Y13.2109 F60.00
G01 X-21.6617 Y13.2379 F60.00
G01 X-21.6887 Y13.2637 F60.00
G01 X-21.7170 Y13.2881 F60.00
G01 X-21.7464 Y13.3110 F60.00
G01 X-21.7749 Y13.3311 F60.00
G01 X-21.8106 Y13.3537 F60.00
G01 X-21.8410 Y13.3709 F60.00
G01 X-21.8743 Y13.3877 F60.00
G01 X-21.9085 Y13.4028 F60.00
G01 X-21.9433 Y13.4163 F60.00
G01 X-21.9788 Y13.4280 F60.00
G01 X-22.0124 Y13.4373 F60.00
G01 X-22.0536 Y13.4466 F60.00
G01 X-22.0880 Y13.4525 F60.00
G01 X-22.1263 Y13.4572 F60.00
G01 X-22.1623 Y13.4598 F60.00
G01 X-22.1996 Y13.4607 F60.00
G01 X-23.5216 Y13.4607 F60.00
G01 X-23.5602 Y13.4597 F60.00
G01 X-23.5950 Y13.4571 F60.00
G01 X-23.6296 Y13.4528 F60.00
G01 X-23.6688 Y13.4461 F60.00
G01 X-23.7064 Y13.4376 F60.00
G01 X-23.7436 Y13.4272 F60.00
G01 X-23.7767 Y13.4163 F60.00
G01 X-23.8092 Y13.4037 F60.00
G01 X-23.8457 Y13.3877 F60.00
G01 X-23.8812 Y13.3697 F60.00
G01 X-23.9115 Y13.3525 F60.00
G01 X-23.9410 Y13.3339 F60.00
G01 X-23.9736 Y13.3110 F60.00
G01 X-24.0049 Y13.2865 F60.00
G01 X-24.0313 Y13.2637 F60.00
G01 X-24.0574 Y13.2388 F60.00
G01 X-24.0857 Y13.2090 F60.00
G01 X-24.1085 Y13.1826 F60.00
G01 X-24.1299 Y13.1551 F60.00
G01 X-24.1529 Y13.1226 F60.00
G01 X-24.1735 Y13.0900 F60.00
G01 X-24.1913 Y13.0586 F60.00
G01 X-24.2070 Y13.0275 F60.00
G01 X-24.2227 Y12.9922 F60.00
G01 X-24.2371 Y12.9551 F60.00
G01 X-24.2480 Y12.9220 F60.00
G01 X-24.2542 Y12.9000 F60.00
G01 X-27.6093 Y12.9001 F60.00
G01 X-27.6118 Y12.9107 F60.00
G01 X-27.6228 Y12.9503 F60.00
G01 X-27.6369 Y12.9928 F60.00
G01 X-27.6513 Y13.0300 F60.00
G01 X-27.6674 Y13.0665 F60.00
G01 X-27.6880 Y13.1076 F60.00
G01 X-27.7083 Y13.1434 F60.00
G01 X-27.7296 Y13.1771 F60.00
G01 X-27.7553 Y13.2137 F60.00
G01 X-27.7830 Y13.2490 F60.00
G01 X-27.8090 Y13.2791 F60.00
G01 X-27.8373 Y13.3089 F60.00
G01 X-27.8707 Y13.3406 F60.00
G01 X-27.9009 Y13.3666 F60.00
G01 X-27.9323 Y13.3912 F60.00
G01 X-27.9689 Y13.4170 F60.00
G01 X-28.0068 Y13.4409 F60.00
G01 X-28.0415 Y13.4606 F60.00
G01 X-28.0771 Y13.4785 F60.00
G01 X-28.1180 Y13.4967 F60.00
G01 X-28.1598 Y13.5128 F60.00
G01 X-28.1977 Y13.5252 F60.00
G01 X-28.2373 Y13.5362 F60.00
G01 X-28.2798 Y13.5458 F60.00
G01 X-28.3239 Y13.5534 F60.00
G01 X-28.3635 Y13.5582 F60.00
G01 X-28.4032 Y13.5612 F60.00
G01 X-28.4468 Y13.5624 F60.00
G01 X-29.9720 Y13.5624 F60.00
G01 X-30.0143 Y13.5613 F60.00
G01 X-30.0577 Y13.5581 F60.00
G01 X-30.0985 Y13.5530 F60.00
G01 X-30.1402 Y13.5458 F60.00
G01 X-30.1815 Y13.5365 F60.00
G01 X-30.2223 Y13.5252 F60.00
G01 X-30.2625 Y13.5120 F60.00
G01 X-30.3020 Y13.4967 F60.00
G01 X-30.3407 Y13.4796 F60.00
G01 X-30.3785 Y13.4606 F60.00
G01 X-30.4154 Y13.4397 F60.00
G01 X-30.4511 Y13.4170 F60.00
G01 X-30.4857 Y13.3927 F60.00
G01 X-30.5191 Y13.3666 F60.00
G01 X-30.5511 Y13.3390 F60.00
G01 X-30.5818 Y13.3098 F60.00
G01 X-30.6110 Y13.2791 F60.00
G01 X-30.6370 Y13.2490 F60.00
G01 X-30.6647 Y13.2137 F60.00
G01 X-30.6890 Y13.1791 F60.00
G01 X-30.7117 Y13.1434 F60.00
G01 X-30.7314 Y13.1087 F60.00
G01 X-30.7516 Y13.0687 F60.00
G01 X-30.7678 Y13.0323 F60.00
G01 X-30.7848 Y12.9882 F60.00
G01 X-30.7972 Y12.9503 F60.00
G01 X-30.8085 Y12.9095 F60.00
G01 X-30.8178 Y12.8682 F60.00
G01 X-30.8250 Y12.8265 F60.00
G01 X-30.8302 Y12.7845 F60.00
G01 X-30.8333 Y12.7423 F60.00
G01 X-30.8344 Y12.7000 F60.00
G01 X-30.8333 Y12.6577 F60.00
G01 X-30.8302 Y12.6155 F60.00
G01 X-30.8250 Y12.5735 F60.00
G01 X-30.8178 Y12.5318 F60.00
G01 X-30.8085 Y12.4905 F60.00
G01 X-30.7972 Y12.4497 F60.00
G01 X-30.7840 Y12.4095 F60.00
G01 X-30.7687 Y12.3700 F60.00
G01 X-30.7516 Y12.3313 F60.00
G01 X-30.7326 Y12.2935 F60.00
G01 X-30.7117 Y12.2566 F60.00
G01 X-30.6890 Y12.2209 F60.00
G01 X-30.6647 Y12.1863 F60.00
G01 X-30.6386 Y12.1529 F60.00
G01 X-30.6110 Y12.1209 F60.00
G01 X-30.5818 Y12.0902 F60.00
G01 X-30.5529 Y12.0627 F60.00
G01 X-30.5191 Y12.0334 F60.00
G01 X-30.4877 Y12.0088 F60.00
G01 X-30.4491 Y11.9816 F60.00
G01 X-30.4154 Y11.9603 F60.00
G01 X-30.3785 Y11.9394 F60.00
G01 X-30.3407 Y11.9204 F60.00
G01 X-30.2997 Y11.9024 F60.00
G01 X-30.2625 Y11.8880 F60.00
G01 X-30.2223 Y11.8748 F60.00
G01 X-30.1815 Y11.8635 F60.00
G01 X-30.1402 Y11.8542 F60.00
G01 X-30.0985 Y11.8470 F60.00
G01 X-30.0565 Y11.8418 F60.00
G01 X-30.0143 Y11.8387 F60.00
G01 X-29.9720 Y11.8376 F60.00
G00 Z0.5000
G00 X-29.4101 Y16.1024
G01 F25.00
G01 Z-0.0500
G01 F60.00
G01 X-29.9720 Y16.1024 F60.00
G01 X-30.0143 Y16.1013 F60.00
G01 X-30.0565 Y16.0982 F60.00
G01 X-30.1010 Y16.0927 F60.00
G01 X-30.1426 Y16.0853 F60.00
G01 X-30.1815 Y16.0765 F60.00
G01 X-30.2200 Y16.0659 F60.00
G01 X-30.2648 Y16.0511 F60.00
G01 X-30.3020 Y16.0367 F60.00
G01 X-30.3407 Y16.0196 F60.00
G01 X-30.3785 Y16.0006 F60.00
G01 X-30.4132 Y15.9809 F60.00
G01 X-30.4531 Y15.9557 F60.00
G01 X-30.4857 Y15.9327 F60.00
G01 X-30.5191 Y15.9066 F60.00
G01 X-30.5511 Y15.8790 F60.00
G01 X-30.5800 Y15.8515 F60.00
G01 X-30.6126 Y15.8173 F60.00
G01 X-30.6386 Y15.7871 F60.00
G01 X-30.6639 Y15.7547 F60.00
G01 X-30.6890 Y15.7191 F60.00
G01 X-30.7117 Y15.6834 F60.00
G01 X-30.7326 Y15.6465 F60.00
G01 X-30.7505 Y15.6109 F60.00
G01 X-30.7696 Y15.5677 F60.00
G01 X-30.7840 Y15.5305 F60.00
G01 X-30.7979 Y15.4880 F60.00
G01 X-30.8085 Y15.4495 F60.00
G01 X-30.8178 Y15.4082 F60.00
G01 X-30.8250 Y15.3665 F60.00
G01 X-30.8302 Y15.3245 F60.00
G01 X-30.8333 Y15.2823 F60.00
G01 X-30.8344 Y15.2400 F60.00
G01 X-30.8333 Y15.1977 F60.00
G01 X-30.8302 Y15.1555 F60.00
G01 X-30.8250 Y15.1135 F60.00
G01 X-30.8178 Y15.0718 F60.00
G01 X-30.8085 Y15.0305 F60.00
G01 X-30.7979 Y14.9920 F60.00
G01 X-30.7840 Y14.9495 F60.00
G01 X-30.7696 Y14.9123 F60.00
G01 X-30.7505 Y14.8691 F60.00
G01 X-30.7326 Y14.8335 F60.00
G01 X-30.7117 Y14.7966 F60.00
G01 X-30.6890 Y14.7609 F60.00
G01 X-30.6647 Y14.7263 F60.00
G01 X-30.6386 Y14.6929 F60.00
G01 X-30.6110 Y14.6609 F60.00
G01 X-30.5818 Y14.6302 F60.00
G01 X-30.5511 Y14.6010 F60.00
G01 X-30.5191 Y14.5734 F60.00
G01 X-30.4877 Y14.5488 F60.00
G01 X-30.4511 Y14.5230 F60.00
G01 X-30.4154 Y14.5003 F60.00
G01 X-30.3807 Y14.4806 F60.00
G01 X-30.3385 Y14.4594 F60.00
G01 X-30.3020 Y14.4433 F60.00
G01 X-30.2625 Y14.4280 F60.00
G01 X-30.2223 Y14.4148 F60.00
G01 X-30.1839 Y14.4041 F60.00
G01 X-30.1378 Y14.3937 F60.00
G01 X-30.0985 Y14.3870 F60.00
G01 X-30.0577 Y14.3819 F60.00
G01 X-30.0143 Y14.3787 F60.00
G01 X-29.9720 Y14.3776 F60.00
G01 X-28.4455 Y14.3776 F60.00
G01 X-28.4057 Y14.3787 F60.00
G01 X-28.3635 Y14.3818 F60.00
G01 X-28.3215 Y14.3870 F60.00
G01 X-28.2774 Y14.3947 F60.00
G01 X-28.2385 Y14.4035 F60.00
G01 X-28.1953 Y14.4155 F60.00
G01 X-28.1575 Y14.4280 F60.00
G01 X-28.1203 Y14.4424 F60.00
G01 X-28.0815 Y14.4594 F60.00
G01 X-28.0415 Y14.4794 F60.00
G01 X-28.0046 Y14.5003 F60.00
G01 X-27.9689 Y14.5230 F60.00
G01 X-27.9343 Y14.5473 F60.00
G01 X-27.9009 Y14.5734 F60.00
G01 X-27.8689 Y14.6010 F60.00
G01 X-27.8382 Y14.6302 F60.00
G01 X-27.8090 Y14.6609 F60.00
G01 X-27.7814 Y14.6929 F60.00
G01 X-27.7553 Y14.7263 F60.00
G01 X-27.7310 Y14.7609 F60.00
G01 X-27.7096 Y14.7946 F60.00
G01 X-27.6863 Y14.8357 F60.00
G01 X-27.6684 Y14.8713 F60.00
G01 X-27.6504 Y14.9123 F60.00
G01 X-27.6360 Y14.9495 F60.00
G01 X-27.6228 Y14.9897 F60.00
G01 X-27.6115 Y15.0305 F60.00
G01 X-27.6022 Y15.0718 F60.00
G01 X-27.5950 Y15.1135 F60.00
G01 X-27.5898 Y15.1555 F60.00
G01 X-27.5867 Y15.1977 F60.00
G01 X-27.5856 Y15.2375 F60.00
G01 X-27.5867 Y15.2823 F60.00
G01 X-27.5896 Y15.3221 F60.00
G01 X-27.5953 Y15.3690 F60.00
G01 X-27.6022 Y15.4082 F60.00
G01 X-27.6115 Y15.4495 F60.00
G01 X-27.6228 Y15.4903 F60.00
G01 X-27.6360 Y15.5305 F60.00
G01 X-27.6513 Y15.5700 F60.00
G01 X-27.6684 Y15.6087 F60.00
G01 X-27.6874 Y15.6465 F60.00
G01 X-27.7071 Y15.6812 F60.00
G01 X-27.7323 Y15.7211 F60.00
G01 X-27.7553 Y15.7537 F60.00
G01 X-27.7822 Y15.7880 F60.00
G01 X-27.8090 Y15.8191 F60.00
G01 X-27.8365 Y15.8480 F60.00
G01 X-27.8707 Y15.8806 F60.00
G01 X-27.9009 Y15.9066 F60.00
G01 X-27.9343 Y15.9327 F60.00
G01 X-27.9689 Y15.9570 F60.00
G01 X-28.0026 Y15.9784 F60.00
G01 X-28.0437 Y16.0017 F60.00
G01 X-28.0793 Y16.0196 F60.00
G01 X-28.1180 Y16.0367 F60.00
G01 X-28.1575 Y16.0520 F60.00
G01 X-28.1953 Y16.0645 F60.00
G01 X-28.2385 Y16.0765 F60.00
G01 X-28.2798 Y16.0858 F60.00
G01 X-28.3215 Y16.0930 F60.00
G01 X-28.3635 Y16.0982 F60.00
G01 X-28.4069 Y16.1014 F60.00
G01 X-28.4480 Y16.1024 F60.00
G01 X-29.0100 Y16.1024 F60.00
G01 X-29.0100 Y20.2371 F60.00
G01 X-26.5871 Y22.6600 F60.00
G01 X-24.2542 Y22.6599 F60.00
G01 X-24.2480 Y22.6380 F60.00
G01 X-24.2362 Y22.6026 F60.00
G01 X-24.2232 Y22.5689 F60.00
G01 X-24.2086 Y22.5359 F60.00
G01 X-24.1901 Y22.4992 F60.00
G01 X-24.1729 Y22.4689 F60.00
G01 X-24.1522 Y22.4363 F60.00
G01 X-24.1314 Y22.4068 F60.00
G01 X-24.1100 Y22.3793 F60.00
G01 X-24.0824 Y22.3473 F60.00
G01 X-24.0583 Y22.3221 F60.00
G01 X-24.0313 Y22.2963 F60.00
G01 X-24.0030 Y22.2719 F60.00
G01 X-23.9745 Y22.2497 F60.00
G01 X-23.9410 Y22.2261 F60.00
G01 X-23.9115 Y22.2075 F60.00
G01 X-23.8790 Y22.1891 F60.00
G01 X-23.8457 Y22.1723 F60.00
G01 X-23.8138 Y22.1581 F60.00
G01 X-23.7744 Y22.1429 F60.00
G01 X-23.7412 Y22.1320 F60.00
G01 X-23.7052 Y22.1221 F60.00
G01 X-23.6688 Y22.1139 F60.00
G01 X-23.6344 Y22.1079 F60.00
G01 X-23.5925 Y22.1027 F60.00
G01 X-23.5577 Y22.1002 F60.00
G01 X-23.5204 Y22.0993 F60.00
G01 X-22.1984 Y22.0993 F60.00
G01 X-22.1598 Y22.1003 F60.00
G01 X-22.1250 Y22.1029 F60.00
G01 X-22.0904 Y22.1072 F60.00
G01 X-22.0512 Y22.1139 F60.00
G01 X-22.0136 Y22.1224 F60.00
G01 X-21.9764 Y22.1328 F60.00
G01 X-21.9433 Y22.1437 F60.00
G01 X-21.9108 Y22.1563 F60.00
G01 X-21.8743 Y22.1723 F60.00
G01 X-21.8410 Y22.1891 F60.00
G01 X-21.8085 Y22.2075 F60.00
G01 X-21.7749 Y22.2289 F60.00
G01 X-21.7464 Y22.2490 F60.00
G01 X-21.7189 Y22.2704 F60.00
G01 X-21.6896 Y22.2955 F60.00
G01 X-21.6600 Y22.3238 F60.00
G01 X-21.6359 Y22.3491 F60.00
G01 X-21.6115 Y22.3774 F60.00
G01 X-21.5871 Y22.4088 F60.00
G01 X-21.5671 Y22.4374 F60.00
G01 X-21.5477 Y22.4679 F60.00
G01 X-21.5276 Y22.5036 F60.00
G01 X-21.5119 Y22.5347 F60.00
G01 X-21.4973 Y22.5678 F60.00
G01 X-21.4829 Y22.6049 F60.00
G01 X-21.4720 Y22.6380 F60.00
G01 X-21.4658 Y22.6600 F60.00
G01 X-21.4000 Y22.6600 F60.00
G01 X-21.4000 Y21.8575 F60.00
G01 X-21.3995 Y21.8502 F60.00
G01 X-21.3983 Y21.8417 F60.00
G01 X-21.3964 Y21.8333 F60.00
G01 X-21.3937 Y21.8252 F60.00
G01 X-21.3904 Y21.8172 F60.00
G01 X-21.3864 Y21.8096 F60.00
G01 X-21.3818 Y21.8024 F60.00
G01 X-21.3765 Y21.7956 F60.00
G01 X-21.3698 Y21.7884 F60.00
G01 X-21.3625 Y21.7819 F60.00
G01 X-21.3545 Y21.7762 F60.00
G01 X-21.3450 Y21.7707 F60.00
G01 X-21.3360 Y21.7667 F60.00
G01 X-21.3255 Y21.7633 F60.00
G01 X-21.3159 Y21.7613 F60.00
G01 X-21.3061 Y21.7602 F60.00
G01 X-20.7408 Y21.7600 F60.00
G01 X-20.7375 Y21.7503 F60.00
G01 X-20.7319 Y21.7367 F60.00
G01 X-20.7270 Y21.7268 F60.00
G01 X-20.7216 Y21.7172 F60.00
G01 X-20.7156 Y21.7078 F60.00
G01 X-20.7092 Y21.6989 F60.00
G01 X-20.6999 Y21.6875 F60.00
G01 X-20.6932 Y21.6803 F60.00
G01 X-20.0120 Y20.9991 F60.00
G01 X-20.0121 Y11.3670 F60.00
G01 X-20.8181 Y11.3668 F60.00
G01 X-20.8315 Y11.3651 F60.00
G01 X-20.8434 Y11.3620 F60.00
G01 X-20.8548 Y11.3574 F60.00
G01 X-20.8655 Y11.3515 F60.00
G01 X-20.8754 Y11.3443 F60.00
G01 X-20.8853 Y11.3351 F60.00
G01 X-20.8930 Y11.3256 F60.00
G01 X-20.8996 Y11.3152 F60.00
G01 X-20.9049 Y11.3041 F60.00
G01 X-20.9087 Y11.2925 F60.00
G01 X-20.9112 Y11.2792 F60.00
G01 X-20.9120 Y11.2670 F60.00
G01 X-20.9120 Y9.7670 F60.00
G01 X-20.9112 Y9.7548 F60.00
G01 X-20.9090 Y9.7427 F60.00
G01 X-20.9070 Y9.7356 F60.00
G01 X-20.9039 Y9.7276 F60.00
G01 X-20.9008 Y9.7209 F60.00
G01 X-20.8965 Y9.7135 F60.00
G01 X-20.8923 Y9.7074 F60.00
G01 X-20.8869 Y9.7008 F60.00
G01 X-20.8810 Y9.6946 F60.00
G01 X-20.8754 Y9.6897 F60.00
G01 X-20.8686 Y9.6845 F60.00
G01 X-20.8624 Y9.6806 F60.00
G01 X-20.8548 Y9.6766 F60.00
G01 X-20.8480 Y9.6737 F60.00
G01 X-20.8399 Y9.6710 F60.00
G01 X-20.8315 Y9.6689 F60.00
G01 X-20.8230 Y9.6676 F60.00
G01 X-20.8157 Y9.6671 F60.00
G01 X-18.8120 Y9.6670 F60.00
G01 X-18.7998 Y9.6678 F60.00
G01 X-18.7877 Y9.6700 F60.00
G01 X-18.7806 Y9.6720 F60.00
G01 X-18.7737 Y9.6746 F60.00
G01 X-18.7670 Y9.6777 F60.00
G01 X-18.7606 Y9.6812 F60.00
G01 X-18.7544 Y9.6852 F60.00
G01 X-18.7486 Y9.6897 F60.00
G01 X-18.7430 Y9.6946 F60.00
G01 X-18.7371 Y9.7008 F60.00
G01 X-18.7324 Y9.7064 F60.00
G01 X-18.7282 Y9.7125 F60.00
G01 X-18.7244 Y9.7188 F60.00
G01 X-18.7211 Y9.7254 F60.00
G01 X-18.7183 Y9.7322 F60.00
G01 X-18.7160 Y9.7391 F60.00
G01 X-18.7139 Y9.7475 F60.00
G01 X-18.7128 Y9.7548 F60.00
G01 X-18.7120 Y9.7670 F60.00
G01 X-18.7120 Y10.3011 F60.00
G01 X-18.1070 Y9.6961 F60.00
G01 X-18.1070 Y6.7310 F60.00
G01 X-18.1067 Y6.7200 F60.00
G01 X-18.1058 Y6.7090 F60.00
G01 X-18.1037 Y6.6944 F60.00
G01 X-18.1013 Y6.6836 F60.00
G01 X-18.0984 Y6.6729 F60.00
G01 X-18.0945 Y6.6613 F60.00
G01 X-18.0889 Y6.6477 F60.00
G01 X-18.0834 Y6.6367 F60.00
G01 X-18.0773 Y6.6261 F60.00
G01 X-18.0684 Y6.6128 F60.00
G01 X-18.0616 Y6.6041 F60.00
G01 X-18.0536 Y6.5949 F60.00
G01 X-17.2856 Y5.8267 F60.00
G01 X-17.2729 Y5.8151 F60.00
G01 X-17.2622 Y5.8069 F60.00
G01 X-17.2478 Y5.7974 F60.00
G01 X-17.2327 Y5.7892 F60.00
G01 X-17.2204 Y5.7837 F60.00
G01 X-17.2042 Y5.7779 F60.00
G01 X-17.1912 Y5.7744 F60.00
G01 X-17.1744 Y5.7711 F60.00
G01 X-17.1622 Y5.7697 F60.00
G01 X-17.1450 Y5.7690 F60.00
G01 X-13.0369 Y5.7690 F60.00
